(Projekt fraesteil_layout_245x200)
(Erstellt mit Estlcam Version 10 Build 10,047)
(Laufzeit ca. 00:18:57 Stunden)

(Benoetigte Werkzeuge:)
(Fraeser 2mm)
G21
G90
G94
M03 S24000
G00 Z-5.0000


(Nr. 1: Ausschnitt 4)
G00 X38.3396 Y151.8092
G00 Z-0.5000
G01 Z2.0000 F100 S24000
G03 X63.7159 Y122.7089 I26.3626 J-2.6256 F400
G01 X64.7067 Y122.6904
G03 X90.5411 Y143.2947 I-0.0013 J26.4998
G01 X90.6049 Y143.6006
G03 X91.1507 Y147.5589 I-24.3731 J5.3777
G03 X39.0331 Y155.7444 I-26.4447 J1.6358
G03 X38.3396 Y151.8092 I24.1550 J-6.2853
G01 Z4.0000 F100
G03 X63.7159 Y122.7089 I26.3626 J-2.6256 F400
G01 X64.7067 Y122.6904
G03 X90.5411 Y143.2947 I-0.0013 J26.4998
G01 X90.6049 Y143.6006
G00 Z2.5000
G03 X91.1507 Y147.5589 I-24.3731 J5.3777
G01 Z4.0000 F100
G03 X39.0331 Y155.7444 I-26.4447 J1.6358 F400
G00 Z2.5000
G03 X38.3396 Y151.8092 I24.1550 J-6.2853
G00 Z-5.0000


(Nr. 2: Ausschnitt 3)
G00 X48.7946 Y201.3886 Z-5.0000
G00 Z-0.5000
G01 Z2.0000 F100
G01 X55.2946 F400
G01 X55.5875 Y201.0958
G01 X55.2946 Y201.3886
G01 Y219.3886
G01 X55.5875 Y219.6815
G01 X55.2946 Y219.3886
G01 X48.7946
G01 X48.5017 Y219.6815
G01 X48.7946 Y219.3886
G01 Y201.3886
G01 X48.5017 Y201.0958
G01 X48.7946 Y201.3886
G01 Z4.0000 F100
G01 X55.2946 F400
G01 X55.5875 Y201.0958
G01 X55.2946 Y201.3886
G01 Y219.3886
G01 X55.5875 Y219.6815
G01 X55.2946 Y219.3886
G01 X48.7946
G01 X48.5017 Y219.6815
G01 X48.7946 Y219.3886
G01 Y201.3886
G01 X48.5017 Y201.0958
G01 X48.7946 Y201.3886
G00 Z-5.0000


(Nr. 3: Ausschnitt 2)
G00 X84.1998 Y206.2853 Z-5.0000
G00 Z-0.5000
G01 Z2.0000 F100
G03 X101.0845 Y179.7339 I26.3879 J-1.8637 F400
G01 X101.1669 Y179.7201
G01 X101.2501 Y179.7133
G01 X101.3336 Y179.7134
G03 X101.6160 Y179.7645 I-0.0617 J1.1451
G01 X104.4898 Y180.5346
G02 X105.7338 Y179.8326 I0.2779 J-0.9610
G01 X106.2515 Y177.9008
G01 X106.0444 Y177.5421
G01 X106.2515 Y177.9008
G01 X107.6038 Y178.2631
G01 X107.9625 Y178.0560
G01 X107.6038 Y178.2631
G01 X107.0913 Y180.1757
G02 X107.7932 Y181.4197 I0.9610 J0.2778
G01 X110.6717 Y182.1910
G02 X111.9158 Y181.4891 I0.2779 J-0.9610
G01 X112.6147 Y178.8806
G03 X113.5863 Y178.1126 I0.9751 J0.2349
G03 X135.6218 Y195.6335 I-2.9254 J26.2964
G03 X136.6626 Y199.4914 I-23.7416 J8.4743
G03 X137.1314 Y204.5291 I-25.6703 J4.9296
G03 X135.7402 Y205.4725 I-1.0126 J0.0042
G02 X135.4531 Y205.4333 I-0.2784 J0.9680
G02 X134.4961 Y206.1744 I0.0090 J1.0000
G01 X133.7248 Y209.0529
G02 X134.4268 Y210.2970 I0.9610 J0.2779
G01 X136.3586 Y210.8146
G01 X136.7174 Y210.6075
G01 X136.3586 Y210.8146
G01 X135.9963 Y212.1669
G01 X136.2034 Y212.5256
G01 X135.9963 Y212.1669
G01 X134.0837 Y211.6544
G01 X133.9955 Y211.6334
G01 X133.8965 Y211.6193
G01 X133.7966 Y211.6152
G02 X132.8397 Y212.3564 I0.0090 J1.0000
G01 X132.0684 Y215.2348
G02 X132.7895 Y216.4840 I0.9613 J0.2778
G03 X133.4689 Y217.8670 I-0.2340 J0.9734
G03 X100.0264 Y228.7146 I-22.8263 J-13.3977
G03 X99.5700 Y227.5641 I0.5064 J-0.8667
G01 X100.2637 Y224.9750
G02 X99.5618 Y223.7310 I-0.9610 J-0.2779
G01 X96.6833 Y222.9597
G01 X96.5950 Y222.9386
G01 X96.4961 Y222.9246
G01 X96.3962 Y222.9205
G02 X95.4393 Y223.6616 I0.0090 J1.0000
G01 X94.9216 Y225.5935
G01 X95.1287 Y225.9522
G01 X94.9216 Y225.5935
G01 X93.5693 Y225.2311
G01 X93.2106 Y225.4382
G01 X93.5693 Y225.2311
G01 X94.0818 Y223.3186
G02 X93.3799 Y222.0745 I-0.9610 J-0.2779
G01 X90.4867 Y221.2993
G03 X89.9514 Y221.0017 I0.2045 J-0.9983
G03 X84.7792 Y210.2390 I20.5350 J-16.4924
G03 X84.1998 Y206.2853 I24.6502 J-5.6316
G01 Z4.0000 F100
G03 X101.0845 Y179.7339 I26.3879 J-1.8637 F400
G01 X101.1669 Y179.7201
G01 X101.2501 Y179.7133
G01 X101.3336 Y179.7134
G03 X101.6160 Y179.7645 I-0.0617 J1.1451
G01 X104.4898 Y180.5346
G02 X105.7338 Y179.8326 I0.2779 J-0.9610
G01 X106.2515 Y177.9008
G01 X106.0444 Y177.5421
G01 X106.2515 Y177.9008
G01 X107.6038 Y178.2631
G01 X107.9625 Y178.0560
G01 X107.6038 Y178.2631
G01 X107.0913 Y180.1757
G02 X107.7932 Y181.4197 I0.9610 J0.2778
G01 X110.6717 Y182.1910
G02 X111.9158 Y181.4891 I0.2779 J-0.9610
G01 X112.6147 Y178.8806
G03 X113.5863 Y178.1126 I0.9751 J0.2349
G03 X135.6218 Y195.6335 I-2.9254 J26.2964
G00 Z2.5000
G03 X136.6626 Y199.4914 I-23.7416 J8.4743
G01 Z4.0000 F100
G03 X137.1314 Y204.5291 I-25.6703 J4.9296 F400
G03 X135.7402 Y205.4725 I-1.0126 J0.0042
G02 X135.4531 Y205.4333 I-0.2784 J0.9680
G02 X134.4961 Y206.1744 I0.0090 J1.0000
G01 X133.7248 Y209.0529
G02 X134.4268 Y210.2970 I0.9610 J0.2779
G01 X136.3586 Y210.8146
G01 X136.7174 Y210.6075
G01 X136.3586 Y210.8146
G01 X135.9963 Y212.1669
G01 X136.2034 Y212.5256
G01 X135.9963 Y212.1669
G01 X134.0837 Y211.6544
G01 X133.9955 Y211.6334
G01 X133.8965 Y211.6193
G01 X133.7966 Y211.6152
G02 X132.8397 Y212.3564 I0.0090 J1.0000
G01 X132.0684 Y215.2348
G02 X132.7895 Y216.4840 I0.9613 J0.2778
G03 X133.4689 Y217.8670 I-0.2340 J0.9734
G03 X100.0264 Y228.7146 I-22.8263 J-13.3977
G03 X99.5700 Y227.5641 I0.5064 J-0.8667
G01 X100.2637 Y224.9750
G02 X99.5618 Y223.7310 I-0.9610 J-0.2779
G01 X96.6833 Y222.9597
G01 X96.5950 Y222.9386
G01 X96.4961 Y222.9246
G01 X96.3962 Y222.9205
G02 X95.4393 Y223.6616 I0.0090 J1.0000
G01 X94.9216 Y225.5935
G01 X95.1287 Y225.9522
G01 X94.9216 Y225.5935
G01 X93.5693 Y225.2311
G01 X93.2106 Y225.4382
G01 X93.5693 Y225.2311
G01 X94.0818 Y223.3186
G02 X93.3799 Y222.0745 I-0.9610 J-0.2779
G01 X90.4867 Y221.2993
G03 X89.9514 Y221.0017 I0.2045 J-0.9983
G03 X84.7792 Y210.2390 I20.5350 J-16.4924
G00 Z2.5000
G03 X84.1998 Y206.2853 I24.6502 J-5.6316
G00 Z-5.0000


(Nr. 4: Ausschnitt 1)
G00 X166.0960 Y201.6844 Z-5.0000
G00 Z-0.5000
G01 Z2.0000 F100
G01 X172.5960 F400
G01 X172.8889 Y201.3915
G01 X172.5960 Y201.6844
G01 Y219.6844
G01 X172.8889 Y219.9773
G01 X172.5960 Y219.6844
G01 X166.0960
G01 X165.8031 Y219.9773
G01 X166.0960 Y219.6844
G01 Y201.6844
G01 X165.8031 Y201.3915
G01 X166.0960 Y201.6844
G01 Z4.0000 F100
G01 X172.5960 F400
G01 X172.8889 Y201.3915
G01 X172.5960 Y201.6844
G01 Y219.6844
G01 X172.8889 Y219.9773
G01 X172.5960 Y219.6844
G01 X166.0960
G01 X165.8031 Y219.9773
G01 X166.0960 Y219.6844
G01 Y201.6844
G01 X165.8031 Y201.3915
G01 X166.0960 Y201.6844
G00 Z-5.0000


(Nr. 5: Teil 4)
G00 X177.5960 Y202.9244 Z-5.0000
G00 Z-0.5000
G01 Z2.0000 F100
G01 Y178.9344 F400
G02 X176.6667 Y177.9369 I-1.0000 J0.0000
G01 X176.5760 Y177.9344
G01 X174.1960
G01 X173.9031 Y178.2273
G01 X174.1960 Y177.9344
G01 Y175.9344
G02 X173.2667 Y174.9369 I-1.0000 J0.0000
G01 X173.1760 Y174.9344
G01 X153.9960
G01 X153.8962 Y174.9394
G02 X152.9960 Y175.9544 I0.1000 J0.9954
G01 Y177.9344
G01 X153.2889 Y178.2273
G01 X152.9960 Y177.9344
G01 X150.5960
G01 X150.4962 Y177.9394
G02 X149.5960 Y178.9544 I0.1000 J0.9954
G01 Y189.4444
G00 Z0.0000
G01 Y192.4444
G01 Z2.0000 F100
G01 Y202.9344 F400
G02 X150.6160 Y203.9344 I1.0003 J-0.0001
G01 X153.5960
G02 X154.5960 Y202.9144 I-0.0001 J-1.0003
G01 Y200.9344
G01 X154.3031 Y200.6415
G01 X154.5960 Y200.9344
G01 X161.0960
G01 X161.3889 Y200.6415
G01 X161.0960 Y200.9344
G01 Y202.9344
G02 X162.1160 Y203.9344 I1.0003 J-0.0001
G01 X162.5960
G01 X162.8889 Y203.6415
G01 X162.5960 Y203.9344
G01 Y205.3344
G01 X162.8889 Y205.6273
G01 X162.5960 Y205.3344
G01 X150.5960
G01 X150.4962 Y205.3394
G02 X149.5960 Y206.3544 I0.1000 J0.9954
G01 Y216.6444
G00 Z0.0000
G01 Y219.6444
G01 Z2.0000 F100
G01 Y229.9344 F400
G02 X150.6160 Y230.9344 I1.0003 J-0.0001
G01 X152.9960
G01 X153.2889 Y230.6415
G01 X152.9960 Y230.9344
G01 Y232.9344
G02 X154.0160 Y233.9344 I1.0003 J-0.0001
G01 X173.1960
G02 X174.1960 Y232.9144 I-0.0001 J-1.0003
G01 Y230.9344
G01 X173.9031 Y230.6415
G01 X174.1960 Y230.9344
G01 X176.5960
G02 X177.5960 Y229.9144 I-0.0001 J-1.0003
G01 Y205.9244
G00 Z0.0000
G01 Y202.9244
G00 Z1.5000
G01 Z4.0000 F100
G01 Y178.9344 F400
G02 X176.6667 Y177.9369 I-1.0000 J0.0000
G01 X176.5760 Y177.9344
G01 X174.1960
G01 X173.9031 Y178.2273
G01 X174.1960 Y177.9344
G01 Y175.9344
G02 X173.2667 Y174.9369 I-1.0000 J0.0000
G01 X173.1760 Y174.9344
G01 X153.9960
G01 X153.8962 Y174.9394
G02 X152.9960 Y175.9544 I0.1000 J0.9954
G01 Y177.9344
G01 X153.2889 Y178.2273
G01 X152.9960 Y177.9344
G01 X150.5960
G01 X150.4962 Y177.9394
G02 X149.5960 Y178.9544 I0.1000 J0.9954
G01 Y189.4444
G00 Z0.0000
G01 Y192.4444
G00 Z1.5000
G01 Z4.0000 F100
G01 Y202.9344 F400
G02 X150.6160 Y203.9344 I1.0003 J-0.0001
G01 X153.5960
G02 X154.5960 Y202.9144 I-0.0001 J-1.0003
G01 Y200.9344
G01 X154.3031 Y200.6415
G01 X154.5960 Y200.9344
G01 X161.0960
G01 X161.3889 Y200.6415
G01 X161.0960 Y200.9344
G01 Y202.9344
G02 X162.1160 Y203.9344 I1.0003 J-0.0001
G01 X162.5960
G01 X162.8889 Y203.6415
G01 X162.5960 Y203.9344
G01 Y205.3344
G01 X162.8889 Y205.6273
G01 X162.5960 Y205.3344
G01 X150.5960
G01 X150.4962 Y205.3394
G02 X149.5960 Y206.3544 I0.1000 J0.9954
G01 Y216.6444
G00 Z0.0000
G01 Y219.6444
G00 Z1.5000
G01 Z4.0000 F100
G01 Y229.9344 F400
G02 X150.6160 Y230.9344 I1.0003 J-0.0001
G01 X152.9960
G01 X153.2889 Y230.6415
G01 X152.9960 Y230.9344
G01 Y232.9344
G02 X154.0160 Y233.9344 I1.0003 J-0.0001
G01 X173.1960
G02 X174.1960 Y232.9144 I-0.0001 J-1.0003
G01 Y230.9344
G01 X173.9031 Y230.6415
G01 X174.1960 Y230.9344
G01 X176.5960
G02 X177.5960 Y229.9144 I-0.0001 J-1.0003
G01 Y205.9244
G00 Z0.0000
G01 Y202.9244
G00 Z-5.0000


(Nr. 6: Teil 5)
G00 X113.6101 Y170.0724 Z-5.0000
G00 Z-0.5000
G01 Z2.0000 F100
G02 X111.7413 Y169.9571 I-2.5511 J26.1594 F400
G01 X110.6488 Y169.9390
G01 X109.5031 Y169.9575
G02 X81.6258 Y185.7667 I1.1243 J34.4659
G02 X81.9750 Y187.0845 I0.8819 J0.4715
G01 X83.7024 Y188.0826
G01 X84.1025 Y187.9754
G01 X83.7024 Y188.0826
G01 X83.0024 Y189.2951
G01 X83.1096 Y189.6952
G01 X83.0024 Y189.2951
G01 X81.3077 Y188.3166
G02 X80.8313 Y188.1829 I-0.5000 J0.8660
G01 X80.7314 Y188.1856
G02 X79.9275 Y188.7082 I0.0763 J0.9971
G02 X80.1491 Y220.5921 I30.7016 J15.7293
G02 X82.2252 Y224.0083 I28.8216 J-15.1761
G02 X108.9648 Y238.8952 I28.3901 J-19.5359
G02 X109.9315 Y237.9339 I-0.0326 J-0.9995
G01 X109.9322 Y235.9389
G01 X109.6393 Y235.6460
G01 X109.9322 Y235.9389
G01 X111.3322
G01 X111.6251 Y235.6460
G01 X111.3322 Y235.9389
G01 Y237.8957
G02 X112.3614 Y238.8953 I1.0000 J0.0000
G02 X139.8628 Y222.7614 I-1.7274 J-34.4505
G02 X141.7833 Y219.2553 I-27.5537 J-17.3721
G02 X141.3059 Y188.6547 I-31.1136 J-14.8186
G02 X140.4712 Y188.1828 I-0.8493 J0.5280
G01 X140.3713 Y188.1863
G02 X139.9901 Y188.2982 I0.0853 J0.9964
G01 X138.2620 Y189.2951
G01 X138.1548 Y189.6952
G01 X138.2620 Y189.2951
G01 X137.5620 Y188.0826
G01 X137.1619 Y187.9754
G01 X137.5620 Y188.0826
G01 X139.2567 Y187.1042
G02 X139.6077 Y185.7131 I-0.5000 J-0.8660
G02 X117.5666 Y170.6445 I-28.9692 J18.7194
G02 X113.6101 Y170.0724 I-6.6310 J31.8909
G01 Z4.0000 F100
G02 X111.7413 Y169.9571 I-2.5511 J26.1594 F400
G01 X110.6488 Y169.9390
G01 X109.5031 Y169.9575
G02 X81.6258 Y185.7667 I1.1243 J34.4659
G02 X81.9750 Y187.0845 I0.8819 J0.4715
G01 X83.7024 Y188.0826
G01 X84.1025 Y187.9754
G01 X83.7024 Y188.0826
G01 X83.0024 Y189.2951
G01 X83.1096 Y189.6952
G01 X83.0024 Y189.2951
G01 X81.3077 Y188.3166
G02 X80.8313 Y188.1829 I-0.5000 J0.8660
G01 X80.7314 Y188.1856
G02 X79.9275 Y188.7082 I0.0763 J0.9971
G02 X80.1491 Y220.5921 I30.7016 J15.7293
G00 Z2.5000
G02 X82.2252 Y224.0083 I28.8216 J-15.1761
G01 Z4.0000 F100
G02 X108.9648 Y238.8952 I28.3901 J-19.5359 F400
G02 X109.9315 Y237.9339 I-0.0326 J-0.9995
G01 X109.9322 Y235.9389
G01 X109.6393 Y235.6460
G01 X109.9322 Y235.9389
G01 X111.3322
G01 X111.6251 Y235.6460
G01 X111.3322 Y235.9389
G01 Y237.8957
G02 X112.3614 Y238.8953 I1.0000 J0.0000
G02 X139.8628 Y222.7614 I-1.7274 J-34.4505
G00 Z2.5000
G02 X141.7833 Y219.2553 I-27.5537 J-17.3721
G01 Z4.0000 F100
G02 X141.3059 Y188.6547 I-31.1136 J-14.8186 F400
G02 X140.4712 Y188.1828 I-0.8493 J0.5280
G01 X140.3713 Y188.1863
G02 X139.9901 Y188.2982 I0.0853 J0.9964
G01 X138.2620 Y189.2951
G01 X138.1548 Y189.6952
G01 X138.2620 Y189.2951
G01 X137.5620 Y188.0826
G01 X137.1619 Y187.9754
G01 X137.5620 Y188.0826
G01 X139.2567 Y187.1042
G02 X139.6077 Y185.7131 I-0.5000 J-0.8660
G02 X117.5666 Y170.6445 I-28.9692 J18.7194
G00 Z2.5000
G02 X113.6101 Y170.0724 I-6.6310 J31.8909
G00 Z-5.0000


(Nr. 7: Teil 6)
G00 X71.7946 Y207.9987 Z-5.0000
G00 Z-0.5000
G01 Z2.0000 F100
G01 Y197.9387 F400
G02 X70.8654 Y196.9412 I-1.0000 J0.0000
G01 X70.7746 Y196.9387
G01 X67.7946
G01 X67.6948 Y196.9436
G02 X66.7946 Y197.9587 I0.1000 J0.9954
G01 Y216.9387
G01 X67.0875 Y217.2315
G01 X66.7946 Y216.9387
G01 X60.2946
G01 X60.0017 Y217.2315
G01 X60.2946 Y216.9387
G01 Y197.9387
G02 X59.3654 Y196.9412 I-1.0000 J0.0000
G01 X59.2746 Y196.9387
G01 X58.7946
G01 X58.5017 Y197.2315
G01 X58.7946 Y196.9387
G01 Y191.5386
G02 X57.8654 Y190.5411 I-1.0000 J0.0000
G01 X57.7746 Y190.5386
G01 X44.7946
G01 X44.6948 Y190.5436
G02 X43.7946 Y191.5586 I0.1000 J0.9954
G01 Y197.5368
G01 Y201.5368
G01 Y234.1386
G02 X44.8146 Y235.1386 I1.0003 J-0.0001
G01 X47.1946
G01 X47.4875 Y234.8458
G01 X47.1946 Y235.1386
G01 Y237.1386
G02 X48.2146 Y238.1386 I1.0003 J-0.0001
G01 X55.8046
G01 X59.8046
G01 X67.3946
G02 X68.3946 Y237.1186 I-0.0001 J-1.0003
G01 Y235.1386
G01 X68.1017 Y234.8458
G01 X68.3946 Y235.1386
G01 X70.7946
G02 X71.7946 Y234.1186 I-0.0001 J-1.0003
G01 Y211.9987
G01 Y207.9987
G01 Z4.0000 F100
G01 Y197.9387 F400
G02 X70.8654 Y196.9412 I-1.0000 J0.0000
G01 X70.7746 Y196.9387
G01 X67.7946
G01 X67.6948 Y196.9436
G02 X66.7946 Y197.9587 I0.1000 J0.9954
G01 Y216.9387
G01 X67.0875 Y217.2315
G01 X66.7946 Y216.9387
G01 X60.2946
G01 X60.0017 Y217.2315
G01 X60.2946 Y216.9387
G01 Y197.9387
G02 X59.3654 Y196.9412 I-1.0000 J0.0000
G01 X59.2746 Y196.9387
G01 X58.7946
G01 X58.5017 Y197.2315
G01 X58.7946 Y196.9387
G01 Y191.5386
G02 X57.8654 Y190.5411 I-1.0000 J0.0000
G01 X57.7746 Y190.5386
G01 X44.7946
G01 X44.6948 Y190.5436
G02 X43.7946 Y191.5586 I0.1000 J0.9954
G01 Y197.5368
G00 Z2.5000
G01 Y201.5368
G01 Z4.0000 F100
G01 Y234.1386 F400
G02 X44.8146 Y235.1386 I1.0003 J-0.0001
G01 X47.1946
G01 X47.4875 Y234.8458
G01 X47.1946 Y235.1386
G01 Y237.1386
G02 X48.2146 Y238.1386 I1.0003 J-0.0001
G01 X55.8046
G00 Z2.5000
G01 X59.8046
G01 Z4.0000 F100
G01 X67.3946 F400
G02 X68.3946 Y237.1186 I-0.0001 J-1.0003
G01 Y235.1386
G01 X68.1017 Y234.8458
G01 X68.3946 Y235.1386
G01 X70.7946
G02 X71.7946 Y234.1186 I-0.0001 J-1.0003
G01 Y211.9987
G00 Z2.5000
G01 Y207.9987
G00 Z-5.0000


(Nr. 8: Teil 7)
G00 X65.3956 Y114.7019 Z-5.0000
G00 Z-0.5000
G01 Z2.0000 F100
G01 X64.7220 Y114.6904 F400
G01 X63.5763 Y114.7089
G02 X35.6991 Y130.5181 I1.1249 J34.4669
G02 X36.0983 Y131.8656 I0.8823 J0.4715
G01 X37.7756 Y132.8340
G01 X38.1757 Y132.7268
G01 X37.7756 Y132.8340
G01 X37.0756 Y134.0465
G01 X37.1828 Y134.4466
G01 X37.0756 Y134.0465
G01 X35.3809 Y133.0680
G02 X34.9045 Y132.9343 I-0.5000 J0.8660
G01 X34.8046 Y132.9370
G02 X34.0525 Y133.3740 I0.0763 J0.9971
G02 X33.6214 Y164.1495 I30.5995 J15.8194
G02 X35.5607 Y167.6451 I29.2097 J-13.9194
G02 X63.0380 Y183.6465 I29.1298 J-18.4286
G02 X64.0047 Y182.6852 I-0.0326 J-0.9995
G01 X64.0054 Y180.6902
G01 X63.7125 Y180.3973
G01 X64.0054 Y180.6902
G01 X65.4054
G01 X65.6983 Y180.3973
G01 X65.4054 Y180.6902
G01 Y182.6471
G02 X66.4346 Y183.6466 I1.0000 J0.0000
G02 X96.1056 Y163.4792 I-1.7276 J-34.4518
G02 X97.5447 Y159.7497 I-29.6121 J-13.5691
G02 X95.3791 Y133.4061 I-32.7928 J-10.5650
G02 X94.5445 Y132.9342 I-0.8493 J0.5280
G01 X94.4446 Y132.9377
G02 X94.0633 Y133.0496 I0.0853 J0.9964
G01 X92.3352 Y134.0465
G01 X92.2280 Y134.4466
G01 X92.3352 Y134.0465
G01 X91.6352 Y132.8340
G01 X91.2351 Y132.7268
G01 X91.6352 Y132.8340
G01 X93.3299 Y131.8556
G02 X93.7291 Y130.5521 I-0.5000 J-0.8660
G02 X69.3812 Y115.0101 I-29.0035 J18.5939
G02 X65.3956 Y114.7019 I-4.4994 J32.2607
G01 Z4.0000 F100
G01 X64.7220 Y114.6904 F400
G01 X63.5763 Y114.7089
G02 X35.6991 Y130.5181 I1.1249 J34.4669
G02 X36.0983 Y131.8656 I0.8823 J0.4715
G01 X37.7756 Y132.8340
G01 X38.1757 Y132.7268
G01 X37.7756 Y132.8340
G01 X37.0756 Y134.0465
G01 X37.1828 Y134.4466
G01 X37.0756 Y134.0465
G01 X35.3809 Y133.0680
G02 X34.9045 Y132.9343 I-0.5000 J0.8660
G01 X34.8046 Y132.9370
G02 X34.0525 Y133.3740 I0.0763 J0.9971
G02 X33.6214 Y164.1495 I30.5995 J15.8194
G00 Z2.5000
G02 X35.5607 Y167.6451 I29.2097 J-13.9194
G01 Z4.0000 F100
G02 X63.0380 Y183.6465 I29.1298 J-18.4286 F400
G02 X64.0047 Y182.6852 I-0.0326 J-0.9995
G01 X64.0054 Y180.6902
G01 X63.7125 Y180.3973
G01 X64.0054 Y180.6902
G01 X65.4054
G01 X65.6983 Y180.3973
G01 X65.4054 Y180.6902
G01 Y182.6471
G02 X66.4346 Y183.6466 I1.0000 J0.0000
G02 X96.1056 Y163.4792 I-1.7276 J-34.4518
G00 Z2.5000
G02 X97.5447 Y159.7497 I-29.6121 J-13.5691
G01 Z4.0000 F100
G02 X95.3791 Y133.4061 I-32.7928 J-10.5650 F400
G02 X94.5445 Y132.9342 I-0.8493 J0.5280
G01 X94.4446 Y132.9377
G02 X94.0633 Y133.0496 I0.0853 J0.9964
G01 X92.3352 Y134.0465
G01 X92.2280 Y134.4466
G01 X92.3352 Y134.0465
G01 X91.6352 Y132.8340
G01 X91.2351 Y132.7268
G01 X91.6352 Y132.8340
G01 X93.3299 Y131.8556
G02 X93.7291 Y130.5521 I-0.5000 J-0.8660
G02 X69.3812 Y115.0101 I-29.0035 J18.5939
G00 Z2.5000
G02 X65.3956 Y114.7019 I-4.4994 J32.2607
G00 Z-5.0000


(Nr. 9: Teil 1)
G00 X134.8978 Y29.0392 Z-5.0000
G00 Z-0.5000
G01 Z2.0000 F100
G01 Y11.0492 F400
G02 X133.9685 Y10.0517 I-1.0000 J0.0000
G01 X133.8778 Y10.0492
G01 X131.8978
G01 X131.6049 Y10.3421
G01 X131.8978 Y10.0492
G01 Y7.6492
G02 X130.9685 Y6.6517 I-1.0000 J0.0000
G01 X130.8778 Y6.6492
G01 X127.8978
G01 X127.7979 Y6.6542
G02 X126.8978 Y7.6692 I0.1000 J0.9954
G01 Y86.2592
G01 Y90.2592
G01 Y168.8492
G02 X127.9178 Y169.8492 I1.0003 J-0.0001
G01 X130.8978
G02 X131.8978 Y168.8292 I-0.0001 J-1.0003
G01 Y166.4492
G01 X131.6049 Y166.1563
G01 X131.8978 Y166.4492
G01 X133.8978
G02 X134.8978 Y165.4292 I-0.0001 J-1.0003
G01 Y147.4392
G01 Y143.4392
G01 Y125.4492
G02 X133.9685 Y124.4517 I-1.0000 J0.0000
G01 X133.8778 Y124.4492
G01 X131.8978
G01 X131.6049 Y124.7421
G01 X131.8978 Y124.4492
G01 Y123.0492
G01 X131.6049 Y122.7563
G01 X131.8978 Y123.0492
G01 X133.8978
G02 X134.8978 Y122.0292 I-0.0001 J-1.0003
G01 Y112.0492
G02 X133.9685 Y111.0517 I-1.0000 J0.0000
G01 X133.8778 Y111.0492
G01 X131.8978
G01 X131.6049 Y111.3421
G01 X131.8978 Y111.0492
G01 Y109.6492
G01 X131.6049 Y109.3563
G01 X131.8978 Y109.6492
G01 X133.8978
G02 X134.8978 Y108.6292 I-0.0001 J-1.0003
G01 Y89.4492
G02 X133.9685 Y88.4517 I-1.0000 J0.0000
G01 X133.8778 Y88.4492
G01 X131.8978
G01 X131.6049 Y88.7421
G01 X131.8978 Y88.4492
G01 Y87.0492
G01 X131.6049 Y86.7563
G01 X131.8978 Y87.0492
G01 X133.8978
G02 X134.8978 Y86.0292 I-0.0001 J-1.0003
G01 Y61.0492
G02 X133.9685 Y60.0517 I-1.0000 J0.0000
G01 X133.8778 Y60.0492
G01 X131.8978
G01 X131.6049 Y60.3421
G01 X131.8978 Y60.0492
G01 Y52.0492
G01 X131.6049 Y51.7563
G01 X131.8978 Y52.0492
G01 X133.8978
G02 X134.8978 Y51.0292 I-0.0001 J-1.0003
G01 Y33.0392
G01 Y29.0392
G01 Z4.0000 F100
G01 Y11.0492 F400
G02 X133.9685 Y10.0517 I-1.0000 J0.0000
G01 X133.8778 Y10.0492
G01 X131.8978
G01 X131.6049 Y10.3421
G01 X131.8978 Y10.0492
G01 Y7.6492
G02 X130.9685 Y6.6517 I-1.0000 J0.0000
G01 X130.8778 Y6.6492
G01 X127.8978
G01 X127.7979 Y6.6542
G02 X126.8978 Y7.6692 I0.1000 J0.9954
G01 Y86.2592
G00 Z2.5000
G01 Y90.2592
G01 Z4.0000 F100
G01 Y168.8492 F400
G02 X127.9178 Y169.8492 I1.0003 J-0.0001
G01 X130.8978
G02 X131.8978 Y168.8292 I-0.0001 J-1.0003
G01 Y166.4492
G01 X131.6049 Y166.1563
G01 X131.8978 Y166.4492
G01 X133.8978
G02 X134.8978 Y165.4292 I-0.0001 J-1.0003
G01 Y147.4392
G00 Z2.5000
G01 Y143.4392
G01 Z4.0000 F100
G01 Y125.4492 F400
G02 X133.9685 Y124.4517 I-1.0000 J0.0000
G01 X133.8778 Y124.4492
G01 X131.8978
G01 X131.6049 Y124.7421
G01 X131.8978 Y124.4492
G01 Y123.0492
G01 X131.6049 Y122.7563
G01 X131.8978 Y123.0492
G01 X133.8978
G02 X134.8978 Y122.0292 I-0.0001 J-1.0003
G01 Y112.0492
G02 X133.9685 Y111.0517 I-1.0000 J0.0000
G01 X133.8778 Y111.0492
G01 X131.8978
G01 X131.6049 Y111.3421
G01 X131.8978 Y111.0492
G01 Y109.6492
G01 X131.6049 Y109.3563
G01 X131.8978 Y109.6492
G01 X133.8978
G02 X134.8978 Y108.6292 I-0.0001 J-1.0003
G01 Y89.4492
G02 X133.9685 Y88.4517 I-1.0000 J0.0000
G01 X133.8778 Y88.4492
G01 X131.8978
G01 X131.6049 Y88.7421
G01 X131.8978 Y88.4492
G01 Y87.0492
G01 X131.6049 Y86.7563
G01 X131.8978 Y87.0492
G01 X133.8978
G02 X134.8978 Y86.0292 I-0.0001 J-1.0003
G01 Y61.0492
G02 X133.9685 Y60.0517 I-1.0000 J0.0000
G01 X133.8778 Y60.0492
G01 X131.8978
G01 X131.6049 Y60.3421
G01 X131.8978 Y60.0492
G01 Y52.0492
G01 X131.6049 Y51.7563
G01 X131.8978 Y52.0492
G01 X133.8978
G02 X134.8978 Y51.0292 I-0.0001 J-1.0003
G01 Y33.0392
G00 Z2.5000
G01 Y29.0392
G00 Z-5.0000


(Nr. 10: Teil 2)
G00 X148.8131 Y29.1760 Z-5.0000
G00 Z-0.5000
G01 Z2.0000 F100
G01 Y11.1860 F400
G02 X147.8839 Y10.1885 I-1.0000 J0.0000
G01 X147.7931 Y10.1860
G01 X145.8131
G01 X145.5203 Y10.4789
G01 X145.8131 Y10.1860
G01 Y7.7860
G02 X144.8839 Y6.7885 I-1.0000 J0.0000
G01 X144.7931 Y6.7860
G01 X141.8131
G01 X141.7133 Y6.7910
G02 X140.8131 Y7.8060 I0.1000 J0.9954
G01 Y86.3960
G01 Y90.3960
G01 Y168.9860
G02 X141.8331 Y169.9860 I1.0003 J-0.0001
G01 X144.8131
G02 X145.8131 Y168.9660 I-0.0001 J-1.0003
G01 Y166.5860
G01 X145.5203 Y166.2931
G01 X145.8131 Y166.5860
G01 X147.8131
G02 X148.8131 Y165.5660 I-0.0001 J-1.0003
G01 Y147.5760
G01 Y143.5760
G01 Y125.5860
G02 X147.8839 Y124.5885 I-1.0000 J0.0000
G01 X147.7931 Y124.5860
G01 X145.8131
G01 X145.5203 Y124.8789
G01 X145.8131 Y124.5860
G01 Y123.1860
G01 X145.5203 Y122.8931
G01 X145.8131 Y123.1860
G01 X147.8131
G02 X148.8131 Y122.1660 I-0.0001 J-1.0003
G01 Y112.1860
G02 X147.8839 Y111.1885 I-1.0000 J0.0000
G01 X147.7931 Y111.1860
G01 X145.8131
G01 X145.5203 Y111.4789
G01 X145.8131 Y111.1860
G01 Y109.7860
G01 X145.5203 Y109.4931
G01 X145.8131 Y109.7860
G01 X147.8131
G02 X148.8131 Y108.7660 I-0.0001 J-1.0003
G01 Y89.5860
G02 X147.8839 Y88.5885 I-1.0000 J0.0000
G01 X147.7931 Y88.5860
G01 X145.8131
G01 X145.5203 Y88.8789
G01 X145.8131 Y88.5860
G01 Y87.1860
G01 X145.5203 Y86.8931
G01 X145.8131 Y87.1860
G01 X147.8131
G02 X148.8131 Y86.1660 I-0.0001 J-1.0003
G01 Y61.1860
G02 X147.8839 Y60.1885 I-1.0000 J0.0000
G01 X147.7931 Y60.1860
G01 X145.8131
G01 X145.5203 Y60.4789
G01 X145.8131 Y60.1860
G01 Y52.1860
G01 X145.5203 Y51.8931
G01 X145.8131 Y52.1860
G01 X147.8131
G02 X148.8131 Y51.1660 I-0.0001 J-1.0003
G01 Y33.1760
G01 Y29.1760
G01 Z4.0000 F100
G01 Y11.1860 F400
G02 X147.8839 Y10.1885 I-1.0000 J0.0000
G01 X147.7931 Y10.1860
G01 X145.8131
G01 X145.5203 Y10.4789
G01 X145.8131 Y10.1860
G01 Y7.7860
G02 X144.8839 Y6.7885 I-1.0000 J0.0000
G01 X144.7931 Y6.7860
G01 X141.8131
G01 X141.7133 Y6.7910
G02 X140.8131 Y7.8060 I0.1000 J0.9954
G01 Y86.3960
G00 Z2.5000
G01 Y90.3960
G01 Z4.0000 F100
G01 Y168.9860 F400
G02 X141.8331 Y169.9860 I1.0003 J-0.0001
G01 X144.8131
G02 X145.8131 Y168.9660 I-0.0001 J-1.0003
G01 Y166.5860
G01 X145.5203 Y166.2931
G01 X145.8131 Y166.5860
G01 X147.8131
G02 X148.8131 Y165.5660 I-0.0001 J-1.0003
G01 Y147.5760
G00 Z2.5000
G01 Y143.5760
G01 Z4.0000 F100
G01 Y125.5860 F400
G02 X147.8839 Y124.5885 I-1.0000 J0.0000
G01 X147.7931 Y124.5860
G01 X145.8131
G01 X145.5203 Y124.8789
G01 X145.8131 Y124.5860
G01 Y123.1860
G01 X145.5203 Y122.8931
G01 X145.8131 Y123.1860
G01 X147.8131
G02 X148.8131 Y122.1660 I-0.0001 J-1.0003
G01 Y112.1860
G02 X147.8839 Y111.1885 I-1.0000 J0.0000
G01 X147.7931 Y111.1860
G01 X145.8131
G01 X145.5203 Y111.4789
G01 X145.8131 Y111.1860
G01 Y109.7860
G01 X145.5203 Y109.4931
G01 X145.8131 Y109.7860
G01 X147.8131
G02 X148.8131 Y108.7660 I-0.0001 J-1.0003
G01 Y89.5860
G02 X147.8839 Y88.5885 I-1.0000 J0.0000
G01 X147.7931 Y88.5860
G01 X145.8131
G01 X145.5203 Y88.8789
G01 X145.8131 Y88.5860
G01 Y87.1860
G01 X145.5203 Y86.8931
G01 X145.8131 Y87.1860
G01 X147.8131
G02 X148.8131 Y86.1660 I-0.0001 J-1.0003
G01 Y61.1860
G02 X147.8839 Y60.1885 I-1.0000 J0.0000
G01 X147.7931 Y60.1860
G01 X145.8131
G01 X145.5203 Y60.4789
G01 X145.8131 Y60.1860
G01 Y52.1860
G01 X145.5203 Y51.8931
G01 X145.8131 Y52.1860
G01 X147.8131
G02 X148.8131 Y51.1660 I-0.0001 J-1.0003
G01 Y33.1760
G00 Z2.5000
G01 Y29.1760
G00 Z-5.0000


(Nr. 11: Teil 3)
G00 X163.4628 Y29.1289 Z-5.0000
G00 Z-0.5000
G01 Z2.0000 F100
G01 Y11.1389 F400
G02 X162.5335 Y10.1414 I-1.0000 J0.0000
G01 X162.4428 Y10.1389
G01 X160.4628
G01 X160.1699 Y10.4318
G01 X160.4628 Y10.1389
G01 Y7.7389
G02 X159.5335 Y6.7414 I-1.0000 J0.0000
G01 X159.4428 Y6.7389
G01 X156.4628
G01 X156.3629 Y6.7439
G02 X155.4628 Y7.7589 I0.1000 J0.9954
G01 Y86.3489
G01 Y90.3489
G01 Y168.9389
G02 X156.4828 Y169.9389 I1.0003 J-0.0001
G01 X159.4628
G02 X160.4628 Y168.9189 I-0.0001 J-1.0003
G01 Y166.5389
G01 X160.1699 Y166.2460
G01 X160.4628 Y166.5389
G01 X162.4628
G02 X163.4628 Y165.5189 I-0.0001 J-1.0003
G01 Y147.5289
G01 Y143.5289
G01 Y125.5389
G02 X162.5335 Y124.5414 I-1.0000 J0.0000
G01 X162.4428 Y124.5389
G01 X160.4628
G01 X160.1699 Y124.8318
G01 X160.4628 Y124.5389
G01 Y123.1389
G01 X160.1699 Y122.8460
G01 X160.4628 Y123.1389
G01 X162.4628
G02 X163.4628 Y122.1189 I-0.0001 J-1.0003
G01 Y112.1389
G02 X162.5335 Y111.1414 I-1.0000 J0.0000
G01 X162.4428 Y111.1389
G01 X160.4628
G01 X160.1699 Y111.4318
G01 X160.4628 Y111.1389
G01 Y109.7389
G01 X160.1699 Y109.4460
G01 X160.4628 Y109.7389
G01 X162.4628
G02 X163.4628 Y108.7189 I-0.0001 J-1.0003
G01 Y89.5389
G02 X162.5335 Y88.5414 I-1.0000 J0.0000
G01 X162.4428 Y88.5389
G01 X160.4628
G01 X160.1699 Y88.8318
G01 X160.4628 Y88.5389
G01 Y87.1389
G01 X160.1699 Y86.8460
G01 X160.4628 Y87.1389
G01 X162.4628
G02 X163.4628 Y86.1189 I-0.0001 J-1.0003
G01 Y61.1389
G02 X162.5335 Y60.1414 I-1.0000 J0.0000
G01 X162.4428 Y60.1389
G01 X160.4628
G01 X160.1699 Y60.4318
G01 X160.4628 Y60.1389
G01 Y52.1389
G01 X160.1699 Y51.8460
G01 X160.4628 Y52.1389
G01 X162.4628
G02 X163.4628 Y51.1189 I-0.0001 J-1.0003
G01 Y33.1289
G01 Y29.1289
G01 Z4.0000 F100
G01 Y11.1389 F400
G02 X162.5335 Y10.1414 I-1.0000 J0.0000
G01 X162.4428 Y10.1389
G01 X160.4628
G01 X160.1699 Y10.4318
G01 X160.4628 Y10.1389
G01 Y7.7389
G02 X159.5335 Y6.7414 I-1.0000 J0.0000
G01 X159.4428 Y6.7389
G01 X156.4628
G01 X156.3629 Y6.7439
G02 X155.4628 Y7.7589 I0.1000 J0.9954
G01 Y86.3489
G00 Z2.5000
G01 Y90.3489
G01 Z4.0000 F100
G01 Y168.9389 F400
G02 X156.4828 Y169.9389 I1.0003 J-0.0001
G01 X159.4628
G02 X160.4628 Y168.9189 I-0.0001 J-1.0003
G01 Y166.5389
G01 X160.1699 Y166.2460
G01 X160.4628 Y166.5389
G01 X162.4628
G02 X163.4628 Y165.5189 I-0.0001 J-1.0003
G01 Y147.5289
G00 Z2.5000
G01 Y143.5289
G01 Z4.0000 F100
G01 Y125.5389 F400
G02 X162.5335 Y124.5414 I-1.0000 J0.0000
G01 X162.4428 Y124.5389
G01 X160.4628
G01 X160.1699 Y124.8318
G01 X160.4628 Y124.5389
G01 Y123.1389
G01 X160.1699 Y122.8460
G01 X160.4628 Y123.1389
G01 X162.4628
G02 X163.4628 Y122.1189 I-0.0001 J-1.0003
G01 Y112.1389
G02 X162.5335 Y111.1414 I-1.0000 J0.0000
G01 X162.4428 Y111.1389
G01 X160.4628
G01 X160.1699 Y111.4318
G01 X160.4628 Y111.1389
G01 Y109.7389
G01 X160.1699 Y109.4460
G01 X160.4628 Y109.7389
G01 X162.4628
G02 X163.4628 Y108.7189 I-0.0001 J-1.0003
G01 Y89.5389
G02 X162.5335 Y88.5414 I-1.0000 J0.0000
G01 X162.4428 Y88.5389
G01 X160.4628
G01 X160.1699 Y88.8318
G01 X160.4628 Y88.5389
G01 Y87.1389
G01 X160.1699 Y86.8460
G01 X160.4628 Y87.1389
G01 X162.4628
G02 X163.4628 Y86.1189 I-0.0001 J-1.0003
G01 Y61.1389
G02 X162.5335 Y60.1414 I-1.0000 J0.0000
G01 X162.4428 Y60.1389
G01 X160.4628
G01 X160.1699 Y60.4318
G01 X160.4628 Y60.1389
G01 Y52.1389
G01 X160.1699 Y51.8460
G01 X160.4628 Y52.1389
G01 X162.4628
G02 X163.4628 Y51.1189 I-0.0001 J-1.0003
G01 Y33.1289
G00 Z2.5000
G01 Y29.1289
G00 Z-5.0000
G00 X0.0000 Y0.0000

M05
M30
