(Projekt fraesteil_layout_295x245)
(Erstellt mit Estlcam Version 10 Build 10,047)
(Laufzeit ca. 00:12:34 Stunden)

(Benoetigte Werkzeuge:)
(Fraeser 2mm)
G21
G90
G94
M03 S24000
G00 Z-5.0000


(Nr. 1: Ausschnitt 1)
G00 X43.6044 Y23.3074
G00 Z-0.5000
G01 Z1.0000 F100 S24000
G01 X43.7124 Y23.3434 F400
G01 X43.7484 Y23.4334
G01 X43.5684 Y23.6494
G01 X27.2064 Y43.0714
G01 X27.0624 Y43.2334
G01 X26.9724 Y43.1974
G01 Y43.1254
G01 X43.6044 Y23.3074
G01 X42.8941 Y22.7118
G01 X43.4964 Y21.9934
G01 X43.5864 Y22.0294
G01 X45.0444 Y23.2714
G01 X44.8104 Y23.5954
G01 X27.2064 Y44.4934
G01 X27.1344 Y44.5114
G01 X26.8464 Y44.2954
G01 X25.7304 Y43.3774
G01 X25.6584 Y43.2694
G01 X42.8941 Y22.7118
G01 X42.1821 Y22.1150
G01 X43.3704 Y20.6974
G01 X43.5144 Y20.7694
G01 X45.6564 Y22.5694
G01 X46.2504 Y23.0734
G01 X46.3404 Y23.1994
G01 X27.2964 Y45.8074
G01 X26.2344 Y44.9794
G01 X24.3444 Y43.4314
G01 Y43.3954
G01 X42.1821 Y22.1150
G01 X41.4789 Y21.5253
G01 X42.6864 Y20.0854
G01 X43.1544 Y19.5094
G01 X43.2624 Y19.4014
G01 X43.3164
G01 X47.6364 Y23.0374
G01 X47.2044 Y23.5954
G01 X27.4044 Y47.1214
G01 X23.5344 Y43.9534
G01 X23.1024 Y43.5934
G01 X23.0484 Y43.5034
G01 X41.4789 Y21.5253
G01 X40.7685 Y20.9297
G01 X43.1364 Y18.1054
G01 X43.2444 Y18.1414
G01 X48.9144 Y22.9114
G01 X48.8964 Y23.0014
G01 X47.8704 Y24.2254
G01 X27.5124 Y48.4354
G01 X21.8784 Y43.7734
G01 X21.7524 Y43.6654
G01 Y43.6114
G01 X40.7685 Y20.9297
G01 X40.0611 Y20.3366
G01 X42.6864 Y17.2054
G01 X42.9744 Y16.8454
G01 X43.0644 Y16.7914
G01 X50.1564 Y22.7494
G01 X50.2104 Y22.8574
G01 X49.7604 Y23.3974
G01 X27.6204 Y49.7494
G01 X20.7264 Y44.0074
G01 X20.4564 Y43.7734
G01 Y43.7194
G01 X40.0611 Y20.3366
G01 X39.3523 Y19.7424
G01 X42.6864 Y15.7654
G01 X42.9024 Y15.5134
G01 X42.9744
G01 X51.4344 Y22.6234
G01 X51.5064 Y22.7314
G01 X51.1824 Y23.1274
G01 X27.7464 Y51.0274
G01 X27.6744
G01 X20.0064 Y44.6014
G01 X19.2144 Y43.9354
G01 X19.1604 Y43.8274
G01 X39.3523 Y19.7424
G01 X38.6446 Y19.1491
G01 X42.7944 Y14.1994
G01 X42.9024 Y14.2534
G01 X52.7124 Y22.4974
G01 X52.7844 Y22.6234
G01 X52.3164 Y23.1994
G01 X27.8544 Y52.3234
G01 X27.7284 Y52.2694
G01 X18.3864 Y44.4394
G01 X17.9184 Y44.0434
G01 X17.8644 Y43.9354
G01 X38.6446 Y19.1491
G01 X37.9407 Y18.5588
G01 X42.6684 Y12.9214
G01 X42.7404
G01 X43.0644 Y13.1914
G01 X54.0984 Y22.4614
G01 X53.3604 Y23.3794
G01 X27.9624 Y53.6194
G01 X27.8004 Y53.5294
G01 X17.3244 Y44.7454
G01 X16.6404 Y44.1694
G01 X16.5684 Y44.0434
G01 X37.9407 Y18.5588
G01 X37.2305 Y17.9632
G01 X42.5604 Y11.6074
G01 X42.7764 Y11.7514
G01 X55.3764 Y22.3354
G01 X55.3404 Y22.4434
G01 X28.0704 Y54.9154
G01 X27.9624 Y54.8614
G01 X24.7404 Y52.1614
G01 X15.2544 Y44.2054
G01 Y44.1694
G01 X37.2305 Y17.9632
G01 X36.5264 Y17.3726
G01 X42.4344 Y10.3294
G01 X42.5064
G01 X42.8304 Y10.5994
G01 X56.6544 Y22.2094
G01 Y22.2994
G01 X56.3844 Y22.6234
G01 X28.1964 Y56.1934
G01 X28.1244
G01 X27.6924 Y55.8334
G01 X13.9764 Y44.3314
G01 X13.9584 Y44.2774
G01 X36.5264 Y17.3726
G00 Z-5.0000
G00 X36.5265
G00 Z0.5000
G01 Z1.0000 F100
G01 X36.1797 Y17.0817 F400
G01 X42.4155 Y9.6502
G01 X42.3794 Y9.2376
G01 X42.4155 Y9.6502
G01 X57.3534 Y22.1846
G01 X57.7660 Y22.1485
G01 X57.3534 Y22.1846
G01 X28.2351 Y56.8864
G01 X28.2712 Y57.2990
G01 X28.2351 Y56.8864
G01 X13.2972 Y44.3520
G01 X12.8846 Y44.3881
G01 X13.2972 Y44.3520
G01 X36.1797 Y17.0817
G00 Z-5.0000


(Nr. 2: Ausschnitt 2)
G00 X49.0674 Y49.1724 Z-5.0000
G00 Z-0.5000
G01 Z2.0000 F100
G01 X55.4953 Y41.5119 F400
G01 X55.4592 Y41.0993
G01 X55.4953 Y41.5119
G01 X57.7934 Y43.4403
G01 X58.2060 Y43.4042
G01 X57.7934 Y43.4403
G01 X51.3655 Y51.1008
G01 X51.4016 Y51.5134
G01 X51.3655 Y51.1008
G01 X49.0674 Y49.1724
G01 X48.6548 Y49.2085
G01 X49.0674 Y49.1724
G01 Z4.0000 F100
G01 X55.4953 Y41.5119 F400
G01 X55.4592 Y41.0993
G01 X55.4953 Y41.5119
G01 X57.7934 Y43.4403
G01 X58.2060 Y43.4042
G01 X57.7934 Y43.4403
G01 X51.3655 Y51.1008
G01 X51.4016 Y51.5134
G01 X51.3655 Y51.1008
G01 X49.0674 Y49.1724
G01 X48.6548 Y49.2085
G01 X49.0674 Y49.1724
G00 Z-5.0000


(Nr. 3: Ausschnitt 3)
G00 X81.8700 Y38.6825 Z-5.0000
G00 Z-0.5000
G01 Z2.0000 F100
G03 X98.3437 Y8.9872 I25.9819 J-5.0035 F400
G01 X98.4261 Y8.9734
G01 X98.5094 Y8.9665
G01 X98.5929 Y8.9666
G03 X98.8752 Y9.0178 I-0.0617 J1.1449
G01 X101.7490 Y9.7879
G02 X102.9931 Y9.0859 I0.2779 J-0.9610
G01 X103.5107 Y7.1541
G01 X103.3036 Y6.7954
G01 X103.5107 Y7.1541
G01 X104.8630 Y7.5164
G01 X105.2217 Y7.3093
G01 X104.8630 Y7.5164
G01 X104.3506 Y9.4290
G02 X105.0525 Y10.6730 I0.9610 J0.2778
G01 X107.9310 Y11.4443
G02 X109.1750 Y10.7424 I0.2779 J-0.9610
G01 X109.8739 Y8.1339
G03 X110.8455 Y7.3659 I0.9751 J0.2349
G03 X132.1730 Y23.0892 I-2.9235 J26.2916
G03 X133.4921 Y26.8610 I-23.0610 J10.1818
G03 X134.3906 Y33.7824 I-25.3618 J6.8115
G03 X132.9995 Y34.7258 I-1.0126 J0.0042
G02 X132.7123 Y34.6866 I-0.2784 J0.9680
G02 X131.7554 Y35.4277 I0.0090 J1.0000
G01 X130.9841 Y38.3062
G02 X131.6860 Y39.5502 I0.9610 J0.2779
G01 X133.6179 Y40.0679
G01 X133.9766 Y39.8608
G01 X133.6179 Y40.0679
G01 X133.2555 Y41.4202
G01 X133.4626 Y41.7789
G01 X133.2555 Y41.4202
G01 X131.3430 Y40.9077
G01 X131.2547 Y40.8867
G01 X131.1558 Y40.8726
G01 X131.0559 Y40.8685
G02 X130.0990 Y41.6097 I0.0090 J1.0000
G01 X129.3277 Y44.4881
G02 X130.0488 Y45.7373 I0.9613 J0.2778
G03 X130.7281 Y47.1203 I-0.2341 J0.9733
G03 X97.2857 Y57.9679 I-22.8263 J-13.3977
G03 X96.8292 Y56.8174 I0.5064 J-0.8667
G01 X97.5230 Y54.2283
G02 X96.8211 Y52.9843 I-0.9610 J-0.2779
G01 X93.9426 Y52.2130
G01 X93.8543 Y52.1919
G01 X93.7553 Y52.1779
G01 X93.6555 Y52.1738
G02 X92.6985 Y52.9149 I0.0090 J1.0000
G01 X92.1809 Y54.8468
G01 X92.3880 Y55.2055
G01 X92.1809 Y54.8468
G01 X90.8286 Y54.4844
G01 X90.4699 Y54.6915
G01 X90.8286 Y54.4844
G01 X91.3411 Y52.5719
G02 X90.6391 Y51.3278 I-0.9610 J-0.2779
G01 X87.7460 Y50.5526
G03 X87.2106 Y50.2550 I0.2045 J-0.9983
G03 X82.9153 Y42.5393 I20.4611 J-16.4440
G03 X81.8700 Y38.6825 I23.6191 J-8.4714
G01 Z4.0000 F100
G03 X98.3437 Y8.9872 I25.9819 J-5.0035 F400
G01 X98.4261 Y8.9734
G01 X98.5094 Y8.9665
G01 X98.5929 Y8.9666
G03 X98.8752 Y9.0178 I-0.0617 J1.1449
G01 X101.7490 Y9.7879
G02 X102.9931 Y9.0859 I0.2779 J-0.9610
G01 X103.5107 Y7.1541
G01 X103.3036 Y6.7954
G01 X103.5107 Y7.1541
G01 X104.8630 Y7.5164
G01 X105.2217 Y7.3093
G01 X104.8630 Y7.5164
G01 X104.3506 Y9.4290
G02 X105.0525 Y10.6730 I0.9610 J0.2778
G01 X107.9310 Y11.4443
G02 X109.1750 Y10.7424 I0.2779 J-0.9610
G01 X109.8739 Y8.1339
G03 X110.8455 Y7.3659 I0.9751 J0.2349
G03 X132.1730 Y23.0892 I-2.9235 J26.2916
G00 Z2.5000
G03 X133.4921 Y26.8610 I-23.0610 J10.1818
G01 Z4.0000 F100
G03 X134.3906 Y33.7824 I-25.3618 J6.8115 F400
G03 X132.9995 Y34.7258 I-1.0126 J0.0042
G02 X132.7123 Y34.6866 I-0.2784 J0.9680
G02 X131.7554 Y35.4277 I0.0090 J1.0000
G01 X130.9841 Y38.3062
G02 X131.6860 Y39.5502 I0.9610 J0.2779
G01 X133.6179 Y40.0679
G01 X133.9766 Y39.8608
G01 X133.6179 Y40.0679
G01 X133.2555 Y41.4202
G01 X133.4626 Y41.7789
G01 X133.2555 Y41.4202
G01 X131.3430 Y40.9077
G01 X131.2547 Y40.8867
G01 X131.1558 Y40.8726
G01 X131.0559 Y40.8685
G02 X130.0990 Y41.6097 I0.0090 J1.0000
G01 X129.3277 Y44.4881
G02 X130.0488 Y45.7373 I0.9613 J0.2778
G03 X130.7281 Y47.1203 I-0.2341 J0.9733
G03 X97.2857 Y57.9679 I-22.8263 J-13.3977
G03 X96.8292 Y56.8174 I0.5064 J-0.8667
G01 X97.5230 Y54.2283
G02 X96.8211 Y52.9843 I-0.9610 J-0.2779
G01 X93.9426 Y52.2130
G01 X93.8543 Y52.1919
G01 X93.7553 Y52.1779
G01 X93.6555 Y52.1738
G02 X92.6985 Y52.9149 I0.0090 J1.0000
G01 X92.1809 Y54.8468
G01 X92.3880 Y55.2055
G01 X92.1809 Y54.8468
G01 X90.8286 Y54.4844
G01 X90.4699 Y54.6915
G01 X90.8286 Y54.4844
G01 X91.3411 Y52.5719
G02 X90.6391 Y51.3278 I-0.9610 J-0.2779
G01 X87.7460 Y50.5526
G03 X87.2106 Y50.2550 I0.2045 J-0.9983
G03 X82.9153 Y42.5393 I20.4611 J-16.4440
G00 Z2.5000
G03 X81.8700 Y38.6825 I23.6191 J-8.4714
G00 Z-5.0000


(Nr. 4: Ausschnitt 8)
G00 X57.1865 Y92.5525 Z-5.0000
G00 Z-0.5000
G01 Z2.0000 F100
G03 X58.2160 Y92.7887 I0.3967 J0.6329 F400
G03 X57.9798 Y93.8182 I-0.6329 J0.3967
G03 X56.9503 Y93.5820 I-0.3967 J-0.6329
G03 X57.1865 Y92.5525 I0.6329 J-0.3967
G01 Z4.0000 F100
G03 X58.2160 Y92.7887 I0.3967 J0.6329 F400
G03 X57.9798 Y93.8182 I-0.6329 J0.3967
G03 X56.9503 Y93.5820 I-0.3967 J-0.6329
G03 X57.1865 Y92.5525 I0.6329 J-0.3967
G00 Z-5.0000


(Nr. 5: Ausschnitt 10)
G00 X9.8538 Y92.4449 Z-5.0000
G00 Z-0.5000
G01 Z2.0000 F100
G03 X10.6922 Y93.0875 I0.0979 J0.7404 F400
G03 X10.0497 Y93.9258 I-0.7404 J0.0979
G03 X9.2113 Y93.2833 I-0.0979 J-0.7404
G03 X9.8538 Y92.4449 I0.7404 J-0.0979
G01 Z4.0000 F100
G03 X10.6922 Y93.0875 I0.0979 J0.7404 F400
G03 X10.0497 Y93.9258 I-0.7404 J0.0979
G03 X9.2113 Y93.2833 I-0.0979 J-0.7404
G03 X9.8538 Y92.4449 I0.7404 J-0.0979
G00 Z-5.0000


(Nr. 6: Ausschnitt 9)
G00 X33.5652 Y133.7164 Z-5.0000
G00 Z-0.5000
G01 Z2.0000 F100
G03 X34.4864 Y134.2331 I0.2023 J0.7190 F400
G03 X33.9697 Y135.1544 I-0.7190 J0.2023
G03 X33.0485 Y134.6377 I-0.2023 J-0.7190
G03 X33.5652 Y133.7164 I0.7190 J-0.2023
G01 Z4.0000 F100
G03 X34.4864 Y134.2331 I0.2023 J0.7190 F400
G03 X33.9697 Y135.1544 I-0.7190 J0.2023
G03 X33.0485 Y134.6377 I-0.2023 J-0.7190
G03 X33.5652 Y133.7164 I0.7190 J-0.2023
G00 Z-5.0000


(Nr. 7: Ausschnitt 4)
G00 X158.1662 Y46.3213 Z-5.0000
G00 Z-0.5000
G01 Z2.0000 F100
G03 X155.8977 Y40.3920 I23.1568 J-12.2585 F400
G03 X156.3542 Y39.2742 I0.9677 J-0.2570
G02 X156.3510 Y28.6661 I-2.2639 J-5.3034
G03 X155.8732 Y27.6801 I0.5120 J-0.8569
G03 X181.2776 Y7.4733 I25.7275 J6.2723
G01 X182.2449 Y7.4789
G03 X188.9015 Y8.4953 I-0.6346 J26.4611
G03 X189.6413 Y9.4497 I-0.2613 J0.9665
G02 X198.8297 Y14.7509 I5.7248 J0.6911
G03 X199.2721 Y14.6255 I0.4861 J0.8718
G01 X199.3880 Y14.6272
G03 X199.9226 Y14.8301 I-0.0721 J0.9956
G03 X206.2165 Y24.1524 I-18.0948 J19.0024
G03 X207.4139 Y27.9646 I-23.3708 J9.4352
G03 X199.9196 Y53.1142 I-25.7608 J6.0150
G03 X198.8265 Y53.1894 I-0.6038 J-0.7949
G02 X195.6125 Y52.0431 I-3.4924 J4.7134
G01 X195.2423 Y52.0392
G02 X189.6412 Y58.4961 I0.1215 J5.7632
G03 X189.0263 Y59.4030 I-0.9981 J-0.0149
G03 X160.2894 Y49.7064 I-7.4325 J-25.4037
G03 X158.1662 Y46.3213 I20.0748 J-14.9494
G01 Z4.0000 F100
G03 X155.8977 Y40.3920 I23.1568 J-12.2585 F400
G03 X156.3542 Y39.2742 I0.9677 J-0.2570
G02 X156.3510 Y28.6661 I-2.2639 J-5.3034
G03 X155.8732 Y27.6801 I0.5120 J-0.8569
G03 X181.2776 Y7.4733 I25.7275 J6.2723
G01 X182.2449 Y7.4789
G03 X188.9015 Y8.4953 I-0.6346 J26.4611
G03 X189.6413 Y9.4497 I-0.2613 J0.9665
G02 X198.8297 Y14.7509 I5.7248 J0.6911
G03 X199.2721 Y14.6255 I0.4861 J0.8718
G01 X199.3880 Y14.6272
G03 X199.9226 Y14.8301 I-0.0721 J0.9956
G03 X206.2165 Y24.1524 I-18.0948 J19.0024
G00 Z2.5000
G03 X207.4139 Y27.9646 I-23.3708 J9.4352
G01 Z4.0000 F100
G03 X199.9196 Y53.1142 I-25.7608 J6.0150 F400
G03 X198.8265 Y53.1894 I-0.6038 J-0.7949
G02 X195.6125 Y52.0431 I-3.4924 J4.7134
G01 X195.2423 Y52.0392
G02 X189.6412 Y58.4961 I0.1215 J5.7632
G03 X189.0263 Y59.4030 I-0.9981 J-0.0149
G03 X160.2894 Y49.7064 I-7.4325 J-25.4037
G00 Z2.5000
G03 X158.1662 Y46.3213 I20.0748 J-14.9494
G00 Z-5.0000


(Nr. 8: Ausschnitt 5)
G00 X153.3931 Y33.7525 Z-5.0000
G00 Z-0.5000
G01 Z2.0000 F100
G03 X154.3259 Y33.2568 I0.7142 J0.2185 F400
G03 X154.8215 Y34.1896 I-0.2185 J0.7142
G03 X153.8888 Y34.6853 I-0.7142 J-0.2185
G03 X153.3931 Y33.7525 I0.2185 J-0.7142
G01 Z4.0000 F100
G03 X154.3259 Y33.2568 I0.7142 J0.2185 F400
G03 X154.8215 Y34.1896 I-0.2185 J0.7142
G03 X153.8888 Y34.6853 I-0.7142 J-0.2185
G03 X153.3931 Y33.7525 I0.2185 J-0.7142
G00 Z-5.0000


(Nr. 9: Ausschnitt 6)
G00 X194.6105 Y10.1469 Z-5.0000
G00 Z-0.5000
G01 Z2.0000 F100
G03 X195.3658 Y9.4085 I0.7468 J0.0085 F400
G03 X196.1042 Y10.1638 I-0.0085 J0.7468
G03 X195.3489 Y10.9022 I-0.7468 J-0.0085
G03 X194.6105 Y10.1469 I0.0085 J-0.7468
G01 Z4.0000 F100
G03 X195.3658 Y9.4085 I0.7468 J0.0085 F400
G03 X196.1042 Y10.1638 I-0.0085 J0.7468
G03 X195.3489 Y10.9022 I-0.7468 J-0.0085
G03 X194.6105 Y10.1469 I0.0085 J-0.7468
G00 Z-5.0000


(Nr. 10: Ausschnitt 7)
G00 X194.6431 Y57.5682 Z-5.0000
G00 Z-0.5000
G01 Z2.0000 F100
G03 X195.5759 Y57.0725 I0.7142 J0.2185 F400
G03 X196.0715 Y58.0053 I-0.2185 J0.7142
G03 X195.1388 Y58.5010 I-0.7142 J-0.2185
G03 X194.6431 Y57.5682 I0.2185 J-0.7142
G01 Z4.0000 F100
G03 X195.5759 Y57.0725 I0.7142 J0.2185 F400
G03 X196.0715 Y58.0053 I-0.2185 J0.7142
G03 X195.1388 Y58.5010 I-0.7142 J-0.2185
G03 X194.6431 Y57.5682 I0.2185 J-0.7142
G00 Z-5.0000


(Nr. 11: Teil 3)
G00 X202.2976 Y6.3696 Z-5.0000
G00 Z-0.5000
G01 Z2.0000 F100
G02 X182.4464 Y-0.5183 I-20.6803 J27.5514 F400
G01 X181.3538 Y-0.5279
G02 X165.8232 Y3.2973 I0.2439 J34.4305
G02 X165.4667 Y4.6132 I0.5280 J0.8493
G01 X166.4636 Y6.3412
G01 X166.8637 Y6.4485
G01 X166.4636 Y6.3412
G01 X165.2511 Y7.0413
G01 X165.1439 Y7.4414
G01 X165.2511 Y7.0413
G01 X164.2727 Y5.3466
G02 X163.4539 Y4.8477 I-0.8660 J0.5000
G01 X163.3539 Y4.8480
G02 X162.9692 Y4.9474 I0.0528 J0.9986
G02 X147.5093 Y39.1908 I18.6043 J29.0108
G02 X148.3385 Y43.1015 I32.7768 J-4.9067
G02 X162.9352 Y62.9774 I33.2404 J-9.1137
G02 X164.2530 Y62.6282 I0.4715 J-0.8819
G01 X165.2511 Y60.9008
G01 X165.1439 Y60.5007
G01 X165.2511 Y60.9008
G01 X166.4636 Y61.6008
G01 X166.8637 Y61.4936
G01 X166.4636 Y61.6008
G01 X165.4851 Y63.2955
G02 X165.7912 Y64.6240 I0.8660 J0.5000
G02 X204.9163 Y59.3999 I15.8227 J-30.6217
G02 X207.7039 Y56.5346 I-22.3301 J-24.5127
G02 X216.0636 Y35.6384 I-26.0586 J-22.5453
G02 X215.1023 Y34.6718 I-0.9995 J0.0326
G01 X213.1073 Y34.6711
G01 X212.8144 Y34.9639
G01 X213.1073 Y34.6711
G01 Y33.2710
G01 X212.8144 Y32.9782
G01 X213.1073 Y33.2710
G01 X215.0642
G02 X216.0617 Y32.3418 I0.0000 J-1.0000
G02 X205.3540 Y8.9462 I-34.4062 J1.5989
G02 X202.2976 Y6.3696 I-22.4831 J23.5692
G01 Z4.0000 F100
G02 X182.4464 Y-0.5183 I-20.6803 J27.5514 F400
G01 X181.3538 Y-0.5279
G02 X165.8232 Y3.2973 I0.2439 J34.4305
G02 X165.4667 Y4.6132 I0.5280 J0.8493
G01 X166.4636 Y6.3412
G01 X166.8637 Y6.4485
G01 X166.4636 Y6.3412
G01 X165.2511 Y7.0413
G01 X165.1439 Y7.4414
G01 X165.2511 Y7.0413
G01 X164.2727 Y5.3466
G02 X163.4539 Y4.8477 I-0.8660 J0.5000
G01 X163.3539 Y4.8480
G02 X162.9692 Y4.9474 I0.0528 J0.9986
G02 X147.5093 Y39.1908 I18.6043 J29.0108
G00 Z2.5000
G02 X148.3385 Y43.1015 I32.7768 J-4.9067
G01 Z4.0000 F100
G02 X162.9352 Y62.9774 I33.2404 J-9.1137 F400
G02 X164.2530 Y62.6282 I0.4715 J-0.8819
G01 X165.2511 Y60.9008
G01 X165.1439 Y60.5007
G01 X165.2511 Y60.9008
G01 X166.4636 Y61.6008
G01 X166.8637 Y61.4936
G01 X166.4636 Y61.6008
G01 X165.4851 Y63.2955
G02 X165.7912 Y64.6240 I0.8660 J0.5000
G02 X204.9163 Y59.3999 I15.8227 J-30.6217
G00 Z2.5000
G02 X207.7039 Y56.5346 I-22.3301 J-24.5127
G01 Z4.0000 F100
G02 X216.0636 Y35.6384 I-26.0586 J-22.5453 F400
G02 X215.1023 Y34.6718 I-0.9995 J0.0326
G01 X213.1073 Y34.6711
G01 X212.8144 Y34.9639
G01 X213.1073 Y34.6711
G01 Y33.2710
G01 X212.8144 Y32.9782
G01 X213.1073 Y33.2710
G01 X215.0642
G02 X216.0617 Y32.3418 I0.0000 J-1.0000
G02 X205.3540 Y8.9462 I-34.4062 J1.5989
G00 Z2.5000
G02 X202.2976 Y6.3696 I-22.4831 J23.5692
G00 Z-5.0000


(Nr. 12: Teil 2)
G00 X110.1080 Y-0.7351 Z-5.0000
G00 Z-0.5000
G01 Z2.0000 F100
G02 X107.9081 Y-0.8077 I-2.2147 J33.7173 F400
G01 X106.7624 Y-0.7892
G02 X78.8851 Y15.0200 I1.1249 J34.4669
G02 X79.2843 Y16.3675 I0.8823 J0.4715
G01 X80.9616 Y17.3359
G01 X81.3617 Y17.2287
G01 X80.9616 Y17.3359
G01 X80.2616 Y18.5484
G01 X80.3688 Y18.9485
G01 X80.2616 Y18.5484
G01 X78.5670 Y17.5699
G02 X78.0906 Y17.4362 I-0.5000 J0.8660
G01 X77.9906 Y17.4389
G02 X77.1867 Y17.9615 I0.0763 J0.9971
G02 X78.3698 Y51.5360 I30.6856 J15.7268
G02 X80.6302 Y54.8331 I28.0867 J-16.8325
G02 X106.2241 Y68.1485 I27.2466 J-21.1164
G02 X107.1914 Y67.1290 I-0.0328 J-0.9998
G01 Y65.1921
G01 X106.8986 Y64.8993
G01 X107.1914 Y65.1921
G01 X108.5914
G01 X108.8843 Y64.8993
G01 X108.5914 Y65.1921
G01 Y67.1490
G02 X109.5207 Y68.1465 I1.0000 J0.0000
G02 X137.1221 Y52.0147 I-1.6050 J-34.4249
G02 X139.0426 Y48.5086 I-27.6697 J-17.4357
G02 X138.5652 Y17.9080 I-31.1137 J-14.8186
G02 X137.7305 Y17.4361 I-0.8493 J0.5280
G01 X137.6306 Y17.4396
G02 X137.1986 Y17.5799 I0.0866 J1.0018
G01 X135.5212 Y18.5484
G01 X135.4140 Y18.9485
G01 X135.5212 Y18.5484
G01 X134.8212 Y17.3359
G01 X134.4211 Y17.2287
G01 X134.8212 Y17.3359
G01 X136.5159 Y16.3575
G02 X136.9151 Y15.0540 I-0.5000 J-0.8660
G02 X114.0753 Y-0.2443 I-28.9870 J18.5779
G02 X110.1080 Y-0.7351 I-6.0173 J32.3632
G01 Z4.0000 F100
G02 X107.9081 Y-0.8077 I-2.2147 J33.7173 F400
G01 X106.7624 Y-0.7892
G02 X78.8851 Y15.0200 I1.1249 J34.4669
G02 X79.2843 Y16.3675 I0.8823 J0.4715
G01 X80.9616 Y17.3359
G01 X81.3617 Y17.2287
G01 X80.9616 Y17.3359
G01 X80.2616 Y18.5484
G01 X80.3688 Y18.9485
G01 X80.2616 Y18.5484
G01 X78.5670 Y17.5699
G02 X78.0906 Y17.4362 I-0.5000 J0.8660
G01 X77.9906 Y17.4389
G02 X77.1867 Y17.9615 I0.0763 J0.9971
G02 X78.3698 Y51.5360 I30.6856 J15.7268
G00 Z2.5000
G02 X80.6302 Y54.8331 I28.0867 J-16.8325
G01 Z4.0000 F100
G02 X106.2241 Y68.1485 I27.2466 J-21.1164 F400
G02 X107.1914 Y67.1290 I-0.0328 J-0.9998
G01 Y65.1921
G01 X106.8986 Y64.8993
G01 X107.1914 Y65.1921
G01 X108.5914
G01 X108.8843 Y64.8993
G01 X108.5914 Y65.1921
G01 Y67.1490
G02 X109.5207 Y68.1465 I1.0000 J0.0000
G02 X137.1221 Y52.0147 I-1.6050 J-34.4249
G00 Z2.5000
G02 X139.0426 Y48.5086 I-27.6697 J-17.4357
G01 Z4.0000 F100
G02 X138.5652 Y17.9080 I-31.1137 J-14.8186 F400
G02 X137.7305 Y17.4361 I-0.8493 J0.5280
G01 X137.6306 Y17.4396
G02 X137.1986 Y17.5799 I0.0866 J1.0018
G01 X135.5212 Y18.5484
G01 X135.4140 Y18.9485
G01 X135.5212 Y18.5484
G01 X134.8212 Y17.3359
G01 X134.4211 Y17.2287
G01 X134.8212 Y17.3359
G01 X136.5159 Y16.3575
G02 X136.9151 Y15.0540 I-0.5000 J-0.8660
G02 X114.0753 Y-0.2443 I-28.9870 J18.5779
G00 Z2.5000
G02 X110.1080 Y-0.7351 I-6.0173 J32.3632
G00 Z-5.0000


(Nr. 13: Teil 1)
G00 X53.5759 Y5.4436 Z-5.0000
G00 Z-0.5000
G01 Z2.0000 F100
G02 X34.3923 Y-0.9894 I-20.0731 J28.0397 F400
G01 X33.2465 Y-1.0000
G02 X17.7158 Y2.8252 I0.2439 J34.4305
G02 X17.3594 Y4.1411 I0.5280 J0.8493
G01 X18.3562 Y5.8692
G01 X18.7563 Y5.9764
G01 X18.3562 Y5.8692
G01 X17.1438 Y6.5692
G01 X17.0366 Y6.9693
G01 X17.1438 Y6.5692
G01 X16.1654 Y4.8745
G02 X15.3465 Y4.3756 I-0.8660 J0.5000
G01 X15.2466 Y4.3759
G02 X14.8618 Y4.4753 I0.0528 J0.9986
G02 X-0.9828 Y34.5378 I18.6063 J29.0134
G02 X-0.6279 Y38.5196 I32.5606 J-0.8955
G02 X14.8279 Y62.5053 I34.0923 J-4.9957
G02 X16.1456 Y62.1561 I0.4715 J-0.8819
G01 X17.1438 Y60.4288
G01 X17.0366 Y60.0287
G01 X17.1438 Y60.4288
G01 X18.3562 Y61.1288
G01 X18.7563 Y61.0216
G01 X18.3562 Y61.1288
G01 X17.3778 Y62.8234
G02 X17.6838 Y64.1519 I0.8660 J0.5000
G02 X52.6055 Y62.2240 I15.8235 J-30.6215
G02 X55.7983 Y59.8184 I-17.9680 J-27.1689
G02 X67.9563 Y35.1664 I-22.2588 J-26.3019
G02 X66.9950 Y34.1997 I-0.9995 J0.0326
G01 X65.0000 Y34.1990
G01 X64.7071 Y34.4919
G01 X65.0000 Y34.1990
G01 Y32.7990
G01 X64.7071 Y32.5061
G01 X65.0000 Y32.7990
G01 X66.9568
G02 X67.9543 Y31.8697 I0.0000 J-1.0000
G02 X56.6846 Y7.9569 I-34.3871 J1.5941
G02 X53.5759 Y5.4436 I-22.2118 J24.2945
G01 Z4.0000 F100
G02 X34.3923 Y-0.9894 I-20.0731 J28.0397 F400
G01 X33.2465 Y-1.0000
G02 X17.7158 Y2.8252 I0.2439 J34.4305
G02 X17.3594 Y4.1411 I0.5280 J0.8493
G01 X18.3562 Y5.8692
G01 X18.7563 Y5.9764
G01 X18.3562 Y5.8692
G01 X17.1438 Y6.5692
G01 X17.0366 Y6.9693
G01 X17.1438 Y6.5692
G01 X16.1654 Y4.8745
G02 X15.3465 Y4.3756 I-0.8660 J0.5000
G01 X15.2466 Y4.3759
G02 X14.8618 Y4.4753 I0.0528 J0.9986
G02 X-0.9828 Y34.5378 I18.6063 J29.0134
G00 Z2.5000
G02 X-0.6279 Y38.5196 I32.5606 J-0.8955
G01 Z4.0000 F100
G02 X14.8279 Y62.5053 I34.0923 J-4.9957 F400
G02 X16.1456 Y62.1561 I0.4715 J-0.8819
G01 X17.1438 Y60.4288
G01 X17.0366 Y60.0287
G01 X17.1438 Y60.4288
G01 X18.3562 Y61.1288
G01 X18.7563 Y61.0216
G01 X18.3562 Y61.1288
G01 X17.3778 Y62.8234
G02 X17.6838 Y64.1519 I0.8660 J0.5000
G02 X52.6055 Y62.2240 I15.8235 J-30.6215
G00 Z2.5000
G02 X55.7983 Y59.8184 I-17.9680 J-27.1689
G01 Z4.0000 F100
G02 X67.9563 Y35.1664 I-22.2588 J-26.3019 F400
G02 X66.9950 Y34.1997 I-0.9995 J0.0326
G01 X65.0000 Y34.1990
G01 X64.7071 Y34.4919
G01 X65.0000 Y34.1990
G01 Y32.7990
G01 X64.7071 Y32.5061
G01 X65.0000 Y32.7990
G01 X66.9568
G02 X67.9543 Y31.8697 I0.0000 J-1.0000
G02 X56.6846 Y7.9569 I-34.3871 J1.5941
G00 Z2.5000
G02 X53.5759 Y5.4436 I-22.2118 J24.2945
G00 Z-5.0000


(Nr. 14: Teil 4)
G00 X50.3134 Y76.6674 Z-5.0000
G00 Z-0.5000
G01 Z2.0000 F100
G02 X33.7845 Y72.4355 I-16.5373 J30.1962 F400
G01 X32.6067 Y72.4550
G02 X0.4338 Y115.8115 I1.1575 J34.4741
G02 X1.6807 Y119.6097 I32.1612 J-8.4545
G02 X57.8416 Y131.6407 I32.0831 J-12.6691
G02 X60.5412 Y128.6923 I-23.1319 J-23.8900
G02 X68.1315 Y109.9366 I-26.7095 J-21.7228
G02 X68.2505 Y105.9408 I-32.2015 J-2.9589
G02 X53.7063 Y78.7815 I-34.4717 J0.9861
G02 X50.3134 Y76.6674 I-18.9702 J26.6657
G01 Z4.0000 F100
G02 X33.7845 Y72.4355 I-16.5373 J30.1962 F400
G01 X32.6067 Y72.4550
G02 X0.4338 Y115.8115 I1.1575 J34.4741
G00 Z2.5000
G02 X1.6807 Y119.6097 I32.1612 J-8.4545
G01 Z4.0000 F100
G02 X57.8416 Y131.6407 I32.0831 J-12.6691 F400
G00 Z2.5000
G02 X60.5412 Y128.6923 I-23.1319 J-23.8900
G01 Z4.0000 F100
G02 X68.1315 Y109.9366 I-26.7095 J-21.7228 F400
G00 Z2.5000
G02 X68.2505 Y105.9408 I-32.2015 J-2.9589
G01 Z4.0000 F100
G02 X53.7063 Y78.7815 I-34.4717 J0.9861 F400
G00 Z2.5000
G02 X50.3134 Y76.6674 I-18.9702 J26.6657
G00 Z-5.0000
G00 X0.0000 Y0.0000

M05
M30
