(Projekt Fraesteile)
(Erstellt mit Estlcam Version 11 Build 11,122)
(Laufzeit ca. 00:09:08 Stunden)

(Benoetigte Werkzeuge:)
(Fraeser 1,5mm)
G21
G90
G94
M03 S24000
G00 Z5.0000


(Nr. 1: Ausschnitt 12)
G00 X37.0041 Y9.7280
G00 Z0.5000
G01 Z-2.0000 F600 S24000
G02 X38.0713 Y10.7407 I0.8260 J0.1983 F1200
G02 X38.4148 Y9.3101 I-0.2412 J-0.8144
G02 X37.0041 Y9.7280 I-0.5847 J0.6161
G01 Z-4.0000 F600
G02 X38.0713 Y10.7407 I0.8260 J0.1983 F1200
G02 X38.4148 Y9.3101 I-0.2412 J-0.8144
G02 X37.0041 Y9.7280 I-0.5847 J0.6161
G00 Z5.0000


(Nr. 2: Ausschnitt 10)
G00 X48.1253 Y9.8663 Z5.0000
G00 Z0.5000
G01 Z-2.0000 F600
G01 X44.3206 F1200
G01 X44.3200 Y9.9557
G01 X44.3031 Y10.3861
G01 X44.2977 Y10.4648
G01 X44.2470 Y10.8926
G01 X44.2355 Y10.9706
G01 X44.1514 Y11.3931
G01 X44.1338 Y11.4699
G01 X44.0169 Y11.8845
G01 X43.9932 Y11.9598
G01 X43.8442 Y12.3639
G01 X43.8147 Y12.4371
G01 X43.6344 Y12.8282
G01 X43.5993 Y12.8989
G01 X43.3888 Y13.2747
G01 X43.3482 Y13.3423
G01 X43.1089 Y13.7005
G01 X43.0632 Y13.7648
G01 X42.7965 Y14.1030
G01 X42.7459 Y14.1635
G01 X42.4535 Y14.4798
G01 X42.3983 Y14.5362
G01 X42.0820 Y14.8285
G01 X42.0225 Y14.8804
G01 X41.6843 Y15.1470
G01 X41.6209 Y15.1940
G01 X41.2628 Y15.4333
G01 X41.1959 Y15.4752
G01 X40.8201 Y15.6857
G01 X40.7502 Y15.7222
G01 X40.3590 Y15.9025
G01 X40.2864 Y15.9334
G01 X39.8823 Y16.0825
G01 X39.8075 Y16.1076
G01 X39.3930 Y16.2246
G01 X39.3165 Y16.2437
G01 X38.8940 Y16.3278
G01 X38.8162 Y16.3409
G01 X38.4480 Y16.3845
G01 X38.4401 Y16.4168
G01 Y33.9958
G00 Z0.0000
G01 Y36.9958
G01 Z-2.0000 F600
G01 Y86.3563 F1200
G01 X38.4501 Y86.3663
G01 X42.6201
G00 Z0.0000
G01 X45.6201
G01 Z-2.0000 F600
G01 X49.7901 F1200
G01 X49.8001 Y86.3563
G01 Y84.8763
G01 X49.8007 Y84.8268
G01 X49.8155 Y84.4498
G01 X49.8209 Y84.3711
G01 X49.8653 Y83.9964
G01 X49.8768 Y83.9184
G01 X49.9505 Y83.5483
G01 X49.9681 Y83.4715
G01 X50.0705 Y83.1083
G01 X50.0941 Y83.0331
G01 X50.2247 Y82.6791
G01 X50.2542 Y82.6059
G01 X50.4122 Y82.2633
G01 X50.4473 Y82.1926
G01 X50.6316 Y81.8634
G01 X50.6722 Y81.7958
G01 X50.8818 Y81.4821
G01 X50.9275 Y81.4178
G01 X51.1611 Y81.1215
G01 X51.2117 Y81.0610
G01 X51.4678 Y80.7839
G01 X51.5231 Y80.7276
G01 X51.8001 Y80.4715
G01 X51.8596 Y80.4197
G01 X52.1559 Y80.1861
G01 X52.2192 Y80.1391
G01 X52.5329 Y79.9295
G01 X52.5998 Y79.8876
G01 X52.9290 Y79.7032
G01 X52.9989 Y79.6667
G01 X53.3416 Y79.5088
G01 X53.4141 Y79.4779
G01 X53.7681 Y79.3473
G01 X53.8429 Y79.3222
G01 X54.2060 Y79.2197
G01 X54.2825 Y79.2006
G01 X54.6526 Y79.1270
G01 X54.7304 Y79.1138
G01 X54.9263 Y79.0906
G01 X54.9401 Y79.0463
G01 Y79.0763
G01 Y57.5097
G00 Z0.0000
G01 Y54.5097
G01 Z-2.0000 F600
G01 Y9.8763 F1200
G01 X54.9301 Y9.8663
G01 X51.1253
G00 Z0.0000
G01 X48.1253
G00 Z-1.5000
G01 Z-4.0000 F600
G01 X44.3206 F1200
G01 X44.3200 Y9.9557
G01 X44.3031 Y10.3861
G01 X44.2977 Y10.4648
G01 X44.2470 Y10.8926
G01 X44.2355 Y10.9706
G01 X44.1514 Y11.3931
G01 X44.1338 Y11.4699
G01 X44.0169 Y11.8845
G01 X43.9932 Y11.9598
G01 X43.8442 Y12.3639
G01 X43.8147 Y12.4371
G01 X43.6344 Y12.8282
G01 X43.5993 Y12.8989
G01 X43.3888 Y13.2747
G01 X43.3482 Y13.3423
G01 X43.1089 Y13.7005
G01 X43.0632 Y13.7648
G01 X42.7965 Y14.1030
G01 X42.7459 Y14.1635
G01 X42.4535 Y14.4798
G01 X42.3983 Y14.5362
G01 X42.0820 Y14.8285
G01 X42.0225 Y14.8804
G01 X41.6843 Y15.1470
G01 X41.6209 Y15.1940
G01 X41.2628 Y15.4333
G01 X41.1959 Y15.4752
G01 X40.8201 Y15.6857
G01 X40.7502 Y15.7222
G01 X40.3590 Y15.9025
G01 X40.2864 Y15.9334
G01 X39.8823 Y16.0825
G01 X39.8075 Y16.1076
G01 X39.3930 Y16.2246
G01 X39.3165 Y16.2437
G01 X38.8940 Y16.3278
G01 X38.8162 Y16.3409
G01 X38.4480 Y16.3845
G01 X38.4401 Y16.4168
G01 Y33.9958
G00 Z0.0000
G01 Y36.9958
G00 Z-1.5000
G01 Z-4.0000 F600
G01 Y86.3563 F1200
G01 X38.4501 Y86.3663
G01 X42.6201
G00 Z0.0000
G01 X45.6201
G00 Z-1.5000
G01 Z-4.0000 F600
G01 X49.7901 F1200
G01 X49.8001 Y86.3563
G01 Y84.8763
G01 X49.8007 Y84.8268
G01 X49.8155 Y84.4498
G01 X49.8209 Y84.3711
G01 X49.8653 Y83.9964
G01 X49.8768 Y83.9184
G01 X49.9505 Y83.5483
G01 X49.9681 Y83.4715
G01 X50.0705 Y83.1083
G01 X50.0941 Y83.0331
G01 X50.2247 Y82.6791
G01 X50.2542 Y82.6059
G01 X50.4122 Y82.2633
G01 X50.4473 Y82.1926
G01 X50.6316 Y81.8634
G01 X50.6722 Y81.7958
G01 X50.8818 Y81.4821
G01 X50.9275 Y81.4178
G01 X51.1611 Y81.1215
G01 X51.2117 Y81.0610
G01 X51.4678 Y80.7839
G01 X51.5231 Y80.7276
G01 X51.8001 Y80.4715
G01 X51.8596 Y80.4197
G01 X52.1559 Y80.1861
G01 X52.2192 Y80.1391
G01 X52.5329 Y79.9295
G01 X52.5998 Y79.8876
G01 X52.9290 Y79.7032
G01 X52.9989 Y79.6667
G01 X53.3416 Y79.5088
G01 X53.4141 Y79.4779
G01 X53.7681 Y79.3473
G01 X53.8429 Y79.3222
G01 X54.2060 Y79.2197
G01 X54.2825 Y79.2006
G01 X54.6526 Y79.1270
G01 X54.7304 Y79.1138
G01 X54.9263 Y79.0906
G01 X54.9401 Y79.0463
G01 Y79.0763
G01 Y57.5097
G00 Z0.0000
G01 Y54.5097
G00 Z-1.5000
G01 Z-4.0000 F600
G01 Y9.8763 F1200
G01 X54.9301 Y9.8663
G01 X51.1253
G00 Z0.0000
G01 X48.1253
G00 Z5.0000


(Nr. 3: Ausschnitt 9)
G00 X90.5278 Y7.5956 Z5.0000
G00 Z0.5000
G01 Z-2.0000 F600
G02 X73.9909 Y24.3947 I1.0859 J17.6080 F1200
G01 X73.9722 Y25.2098
G02 X76.6172 Y34.5008 I17.6497 J-0.0027
G01 X76.8370 Y34.8380
G00 Z0.0000
G02 X78.6779 Y37.2017 I14.0003 J-9.0048
G01 Z-2.0000 F600
G02 X107.5935 Y32.7076 I12.9442 J-11.9860 F1200
G00 Z0.0000
G02 X108.6341 Y29.8981 I-15.0262 J-7.1629
G01 Z-2.0000 F600
G02 X93.5229 Y7.6644 I-17.0033 J-4.6957 F1200
G00 Z0.0000
G02 X90.5278 Y7.5956 I-1.8739 J16.3636
G00 Z-1.5000
G01 Z-4.0000 F600
G02 X73.9909 Y24.3947 I1.0859 J17.6080 F1200
G01 X73.9722 Y25.2098
G02 X76.6172 Y34.5008 I17.6497 J-0.0027
G01 X76.8370 Y34.8380
G00 Z0.0000
G02 X78.6779 Y37.2017 I14.0003 J-9.0048
G00 Z-1.5000
G01 Z-4.0000 F600
G02 X107.5935 Y32.7076 I12.9442 J-11.9860 F1200
G00 Z0.0000
G02 X108.6341 Y29.8981 I-15.0262 J-7.1629
G00 Z-1.5000
G01 Z-4.0000 F600
G02 X93.5229 Y7.6644 I-17.0033 J-4.6957 F1200
G00 Z0.0000
G02 X90.5278 Y7.5956 I-1.8739 J16.3636
G00 Z5.0000


(Nr. 4: Bohrung 3)
G00 X79.4566 Y77.8379 Z5.0000
G00 Z0.5000
G01 Z-2.0000 F600
G00 Z0.5000
G00 Z-1.5000
G01 Z-4.0000
G00 Z5.0000


(Nr. 5: Bohrung 4)
G00 X79.4566 Y81.3379 Z5.0000
G00 Z0.5000
G01 Z-2.0000 F600
G00 Z0.5000
G00 Z-1.5000
G01 Z-4.0000
G00 Z5.0000


(Nr. 6: Bohrung 1)
G00 X73.9566 Y81.3379 Z5.0000
G00 Z0.5000
G01 Z-2.0000 F600
G00 Z0.5000
G00 Z-1.5000
G01 Z-4.0000
G00 Z5.0000


(Nr. 7: Bohrung 2)
G00 X73.9566 Y77.8379 Z5.0000
G00 Z0.5000
G01 Z-2.0000 F600
G00 Z0.5000
G00 Z-1.5000
G01 Z-4.0000
G00 Z5.0000


(Nr. 8: Ausschnitt 17)
G00 X73.1066 Y76.8879 Z5.0000
G00 Z0.5000
G01 Z-1.5000 F600
G01 X80.3066 F1200
G01 Y78.2379
G01 X73.1066
G01 Y79.5879
G01 X80.3066
G01 Y80.9379
G01 X73.1066
G01 Y82.2879
G01 X80.3066
G00 Z5.0000
G00 Z0.5000
G01 Z-1.5000 F600
G01 X80.4566 F1200
G01 Y76.5979
G01 X80.4466 Y76.5879
G01 X80.6727 Y76.3648
G01 X80.4466 Y76.5879
G01 X72.9666
G01 X72.9566 Y76.5979
G01 X72.7334 Y76.3718
G01 X72.9566 Y76.5979
G01 Y82.5779
G01 X72.9666 Y82.5879
G01 X72.7404 Y82.8111
G01 X72.9666 Y82.5879
G01 X80.4466
G01 X80.4566 Y82.5779
G01 X80.6798 Y82.8041
G01 X80.4566 Y82.5779
G01 Y82.2879
G01 X80.3066
G00 Z5.0000


(Nr. 9: Ausschnitt 11)
G00 X55.1662 Y84.1320 Z5.0000
G00 Z0.5000
G01 Z-2.0000 F600
G02 X55.2047 Y85.6027 I0.4438 J0.7243 F1200
G02 X56.4592 Y84.8340 I0.4053 J-0.7465
G02 X55.1662 Y84.1320 I-0.8491 J0.0222
G01 Z-4.0000 F600
G02 X55.2047 Y85.6027 I0.4438 J0.7243 F1200
G02 X56.4592 Y84.8340 I0.4053 J-0.7465
G02 X55.1662 Y84.1320 I-0.8491 J0.0222
G00 Z5.0000


(Nr. 10: Ausschnitt 8)
G00 X53.7773 Y108.1843 Z5.0000
G00 Z0.5000
G01 Z-2.0000 F600
G02 X43.3798 Y112.9504 I1.6938 J17.4197 F1200
G02 X43.0959 Y113.7144 I0.9654 J0.7934
G01 X43.0967 Y113.7974
G02 X44.3651 Y114.9939 I1.2495 J-0.0540
G01 X54.0237
G00 Z0.0000
G01 X57.0237
G01 Z-2.0000 F600
G01 X66.6822 F1200
G02 X67.5509 Y112.8265 I0.0194 J-1.2500
G02 X56.7731 Y108.1416 I-12.0104 J12.8908
G00 Z0.0000
G02 X53.7773 Y108.1843 I-1.2613 J16.5943
G00 Z-1.5000
G01 Z-4.0000 F600
G02 X43.3798 Y112.9504 I1.6938 J17.4197 F1200
G02 X43.0959 Y113.7144 I0.9654 J0.7934
G01 X43.0967 Y113.7974
G02 X44.3651 Y114.9939 I1.2495 J-0.0540
G01 X54.0237
G00 Z0.0000
G01 X57.0237
G00 Z-1.5000
G01 Z-4.0000 F600
G01 X66.6822 F1200
G02 X67.5509 Y112.8265 I0.0194 J-1.2500
G02 X56.7731 Y108.1416 I-12.0104 J12.8908
G00 Z0.0000
G02 X53.7773 Y108.1843 I-1.2613 J16.5943
G00 Z5.0000


(Nr. 11: Ausschnitt 7)
G00 X61.2737 Y136.4939 Z5.0000
G00 Z0.5000
G01 Z-2.0000 F600
G01 Y137.9839 F1200
G01 X61.2837 Y137.9939
G01 X61.0575 Y138.2171
G01 X61.2837 Y137.9939
G01 X69.7737
G01 X69.9934 Y138.2136
G01 X69.7737 Y137.9939
G01 Y136.5039
G01 X69.7637 Y136.4939
G01 X69.9899 Y136.2707
G01 X69.7637 Y136.4939
G01 X61.2737
G01 X61.0540 Y136.2742
G01 X61.2737 Y136.4939
G01 Z-4.0000 F600
G01 Y137.9839 F1200
G01 X61.2837 Y137.9939
G01 X61.0575 Y138.2171
G01 X61.2837 Y137.9939
G01 X69.7737
G01 X69.9934 Y138.2136
G01 X69.7737 Y137.9939
G01 Y136.5039
G01 X69.7637 Y136.4939
G01 X69.9899 Y136.2707
G01 X69.7637 Y136.4939
G01 X61.2737
G01 X61.0540 Y136.2742
G01 X61.2737 Y136.4939
G00 Z5.0000


(Nr. 12: Ausschnitt 6)
G00 X41.2737 Y136.4939 Z5.0000
G00 Z0.5000
G01 Z-2.0000 F600
G01 Y137.9839 F1200
G01 X41.2837 Y137.9939
G01 X41.0575 Y138.2171
G01 X41.2837 Y137.9939
G01 X49.7737
G01 X49.9934 Y138.2136
G01 X49.7737 Y137.9939
G01 Y136.5039
G01 X49.7637 Y136.4939
G01 X49.9899 Y136.2707
G01 X49.7637 Y136.4939
G01 X41.2737
G01 X41.0540 Y136.2742
G01 X41.2737 Y136.4939
G01 Z-4.0000 F600
G01 Y137.9839 F1200
G01 X41.2837 Y137.9939
G01 X41.0575 Y138.2171
G01 X41.2837 Y137.9939
G01 X49.7737
G01 X49.9934 Y138.2136
G01 X49.7737 Y137.9939
G01 Y136.5039
G01 X49.7637 Y136.4939
G01 X49.9899 Y136.2707
G01 X49.7637 Y136.4939
G01 X41.2737
G01 X41.0540 Y136.2742
G01 X41.2737 Y136.4939
G00 Z5.0000


(Nr. 13: Ausschnitt 3)
G00 X69.2468 Y183.2707 Z5.0000
G00 Z0.5000
G01 Z-2.0000 F600
G01 Y184.7607 F1200
G01 X69.2568 Y184.7707
G01 X69.0306 Y184.9939
G01 X69.2568 Y184.7707
G01 X77.7468
G01 X77.9665 Y184.9904
G01 X77.7468 Y184.7707
G01 Y183.2807
G01 X77.7368 Y183.2707
G01 X77.9630 Y183.0475
G01 X77.7368 Y183.2707
G01 X69.2468
G01 X69.0271 Y183.0511
G01 X69.2468 Y183.2707
G01 Z-4.0000 F600
G01 Y184.7607 F1200
G01 X69.2568 Y184.7707
G01 X69.0306 Y184.9939
G01 X69.2568 Y184.7707
G01 X77.7468
G01 X77.9665 Y184.9904
G01 X77.7468 Y184.7707
G01 Y183.2807
G01 X77.7368 Y183.2707
G01 X77.9630 Y183.0475
G01 X77.7368 Y183.2707
G01 X69.2468
G01 X69.0271 Y183.0511
G01 X69.2468 Y183.2707
G00 Z5.0000


(Nr. 14: Ausschnitt 4)
G00 X89.2468 Y183.2707 Z5.0000
G00 Z0.5000
G01 Z-2.0000 F600
G01 Y184.7607 F1200
G01 X89.2568 Y184.7707
G01 X89.0306 Y184.9939
G01 X89.2568 Y184.7707
G01 X97.7468
G01 X97.9665 Y184.9904
G01 X97.7468 Y184.7707
G01 Y183.2807
G01 X97.7368 Y183.2707
G01 X97.9630 Y183.0475
G01 X97.7368 Y183.2707
G01 X89.2468
G01 X89.0271 Y183.0511
G01 X89.2468 Y183.2707
G01 Z-4.0000 F600
G01 Y184.7607 F1200
G01 X89.2568 Y184.7707
G01 X89.0306 Y184.9939
G01 X89.2568 Y184.7707
G01 X97.7468
G01 X97.9665 Y184.9904
G01 X97.7468 Y184.7707
G01 Y183.2807
G01 X97.7368 Y183.2707
G01 X97.9630 Y183.0475
G01 X97.7368 Y183.2707
G01 X89.2468
G01 X89.0271 Y183.0511
G01 X89.2468 Y183.2707
G00 Z5.0000


(Nr. 15: Ausschnitt 5)
G00 X92.3220 Y157.2395 Z5.0000
G00 Z0.5000
G01 Z-2.0000 F600
G02 X74.2167 Y157.5127 I-8.8246 J15.2545 F1200
G00 Z0.0000
G02 X71.8108 Y159.2981 I8.6464 J14.1647
G01 Z-2.0000 F600
G02 X65.8482 Y172.3227 I11.6681 J13.2188 F1200
G01 X65.8569 Y173.1090
G01 X65.9006 Y173.8940
G01 X65.9785 Y174.6705
G02 X67.2392 Y175.7707 I1.2417 J-0.1504
G01 X81.9968
G00 Z0.0000
G01 X84.9968
G01 Z-2.0000 F600
G01 X99.7544 F1200
G02 X101.0152 Y174.6699 I0.0190 J-1.2507
G02 X94.7793 Y158.9535 I-17.4992 J-2.1519
G00 Z0.0000
G02 X92.3220 Y157.2395 I-10.6841 J12.6984
G00 Z-1.5000
G01 Z-4.0000 F600
G02 X74.2167 Y157.5127 I-8.8246 J15.2545 F1200
G00 Z0.0000
G02 X71.8108 Y159.2981 I8.6464 J14.1647
G00 Z-1.5000
G01 Z-4.0000 F600
G02 X65.8482 Y172.3227 I11.6681 J13.2188 F1200
G01 X65.8569 Y173.1090
G01 X65.9006 Y173.8940
G01 X65.9785 Y174.6705
G02 X67.2392 Y175.7707 I1.2417 J-0.1504
G01 X81.9968
G00 Z0.0000
G01 X84.9968
G00 Z-1.5000
G01 Z-4.0000 F600
G01 X99.7544 F1200
G02 X101.0152 Y174.6699 I0.0190 J-1.2507
G02 X94.7793 Y158.9535 I-17.4992 J-2.1519
G00 Z0.0000
G02 X92.3220 Y157.2395 I-10.6841 J12.6984
G00 Z5.0000


(Nr. 16: Ausschnitt 1)
G00 X50.5245 Y207.7741 Z5.0000
G00 Z0.5000
G01 Z-2.0000 F600
G01 X57.3585 Y204.1404 F1200
G01 X57.3627 Y204.1269
G01 X57.6659 Y204.2218
G01 X57.3627 Y204.1269
G01 X54.0811 Y197.9551
G01 X54.1719 Y197.6580
G01 X54.0811 Y197.9551
G01 X47.2382 Y201.5935
G00 Z0.0000
G01 X44.5894 Y203.0019
G01 Z-2.0000 F600
G01 X37.7465 Y206.6403 F1200
G01 X37.4494 Y206.5494
G01 X37.7465 Y206.6403
G01 X41.0281 Y212.8121
G01 X40.9372 Y213.1166
G01 X41.0281 Y212.8121
G01 X41.0417 Y212.8162
G01 X47.8757 Y209.1825
G00 Z0.0000
G01 X50.5245 Y207.7741
G00 Z-1.5000
G01 Z-4.0000 F600
G01 X57.3585 Y204.1404 F1200
G01 X57.3627 Y204.1269
G01 X57.6659 Y204.2218
G01 X57.3627 Y204.1269
G01 X54.0811 Y197.9551
G01 X54.1719 Y197.6580
G01 X54.0811 Y197.9551
G01 X47.2382 Y201.5935
G00 Z0.0000
G01 X44.5894 Y203.0019
G00 Z-1.5000
G01 Z-4.0000 F600
G01 X37.7465 Y206.6403 F1200
G01 X37.4494 Y206.5494
G01 X37.7465 Y206.6403
G01 X41.0281 Y212.8121
G01 X40.9372 Y213.1166
G01 X41.0281 Y212.8121
G01 X41.0417 Y212.8162
G01 X47.8757 Y209.1825
G00 Z0.0000
G01 X50.5245 Y207.7741
G00 Z5.0000


(Nr. 17: Ausschnitt 2)
G00 X73.9740 Y228.3292 Z5.0000
G00 Z0.5000
G01 Z-2.0000 F600
G01 X77.6077 Y221.4952 F1200
G01 X77.6036 Y221.4817
G01 X77.9080 Y221.3908
G01 X77.6036 Y221.4817
G01 X71.4317 Y218.2001
G01 X71.3409 Y217.9030
G01 X71.4317 Y218.2001
G01 X67.7933 Y225.0429
G00 Z0.0000
G01 X66.3849 Y227.6918
G01 Z-2.0000 F600
G01 X62.7465 Y234.5346 F1200
G01 X62.4494 Y234.6254
G01 X62.7465 Y234.5346
G01 X68.9183 Y237.8162
G01 X68.9319 Y237.8121
G01 X69.0227 Y238.1166
G01 X68.9319 Y237.8121
G01 X72.5656 Y230.9781
G00 Z0.0000
G01 X73.9740 Y228.3292
G00 Z-1.5000
G01 Z-4.0000 F600
G01 X77.6077 Y221.4952 F1200
G01 X77.6036 Y221.4817
G01 X77.9080 Y221.3908
G01 X77.6036 Y221.4817
G01 X71.4317 Y218.2001
G01 X71.3409 Y217.9030
G01 X71.4317 Y218.2001
G01 X67.7933 Y225.0429
G00 Z0.0000
G01 X66.3849 Y227.6918
G00 Z-1.5000
G01 Z-4.0000 F600
G01 X62.7465 Y234.5346 F1200
G01 X62.4494 Y234.6254
G01 X62.7465 Y234.5346
G01 X68.9183 Y237.8162
G01 X68.9319 Y237.8121
G01 X69.0227 Y238.1166
G01 X68.9319 Y237.8121
G01 X72.5656 Y230.9781
G00 Z0.0000
G01 X73.9740 Y228.3292
G00 Z5.0000


(Nr. 18: Teil 4)
G00 X35.6628 Y235.5674 Z5.0000
G00 Z0.5000
G01 Z-2.0000 F600
G03 X30.3398 Y220.7852 I19.7858 J-15.4743 F1200
G01 X30.3314 Y219.8318
G01 X30.3323 Y219.7834
G03 X30.8716 Y214.9540 I22.6355 J0.0829
G03 X31.7812 Y214.5138 I0.6966 J0.2795
G01 X33.8906 Y215.0790
G01 X34.0459 Y215.3481
G01 X33.8906 Y215.0790
G01 X34.2789 Y213.6302
G01 X34.5479 Y213.4748
G01 X34.2789 Y213.6302
G01 X32.1501 Y213.0598
G03 X31.5942 Y212.3421 I0.1941 J-0.7244
G01 X31.5973 Y212.2672
G01 X31.6078 Y212.1929
G01 X31.6257 Y212.1201
G01 X31.9482 Y211.2123
G01 X31.9656 Y211.1671
G01 X32.3015 Y210.3268
G01 X32.6881 Y209.4553
G01 X32.7089 Y209.4115
G03 X49.0590 Y195.7729 I22.7618 J10.6674
G00 Z0.0000
G01 X49.8823 Y195.5684
G01 X49.9296 Y195.5581
G01 X50.8156 Y195.3739
G01 X51.7557 Y195.2149
G01 X51.9986 Y195.1832
G01 Z-2.0000 F600
G01 X52.7011 Y195.0916 F1200
G01 X52.7492 Y195.0866
G03 X55.5557 Y194.9377 I2.7294 J24.9140
G01 X55.6042 Y194.9382
G03 X72.2299 Y201.3427 I-0.1020 J25.0468
G03 X72.1563 Y202.3505 I-0.5904 J0.4635
G01 X70.6121 Y203.8947
G01 X70.3014
G01 X70.6121
G01 X71.6727 Y204.9554
G01 Y205.2660
G01 Y204.9554
G01 X73.2311 Y203.3970
G03 X74.3456 Y203.4566 I0.5305 J0.5308
G03 X76.0837 Y205.6651 I-18.7952 J16.5796
G01 X76.1111 Y205.7050
G03 X77.5873 Y208.0966 I-20.5556 J14.3395
G01 X77.6101 Y208.1393
G03 X80.3420 Y223.8714 I-22.1099 J11.9427
G00 Z0.0000
G01 X80.1988 Y224.7239
G01 X80.0053 Y225.6574
G01 X79.9942 Y225.7046
G01 X79.7766 Y226.5830
G01 X79.7133 Y226.8029
G01 Z-2.0000 F600
G01 X79.5129 Y227.4992 F1200
G01 X79.2147 Y228.4048
G01 X79.1983 Y228.4503
G03 X63.3385 Y243.9657 I-23.6646 J-8.3265
G03 X62.5025 Y243.3980 I-0.1062 J-0.7430
G01 X61.9399 Y241.2982
G01 X62.0969 Y241.0220
G01 X61.9399 Y241.2982
G01 X61.9276 Y241.2912
G01 X60.4980 Y241.6742
G01 X60.2218 Y241.5172
G01 X60.4980 Y241.6742
G01 X60.4910 Y241.6865
G01 X61.0588 Y243.8056
G03 X60.4499 Y244.7410 I-0.7249 J0.1940
G03 X37.6443 Y237.8174 I-4.9710 J-24.6475
G00 Z0.0000
G03 X35.8019 Y235.7491 I17.6362 J-17.5649
G01 X35.6628 Y235.5674
G00 Z-1.5000
G01 Z-4.0000 F600
G03 X30.3398 Y220.7852 I19.7858 J-15.4743 F1200
G01 X30.3314 Y219.8318
G01 X30.3323 Y219.7834
G03 X30.8716 Y214.9540 I22.6355 J0.0829
G03 X31.7812 Y214.5138 I0.6966 J0.2795
G01 X33.8906 Y215.0790
G01 X34.0459 Y215.3481
G01 X33.8906 Y215.0790
G01 X34.2789 Y213.6302
G01 X34.5479 Y213.4748
G01 X34.2789 Y213.6302
G01 X32.1501 Y213.0598
G03 X31.5942 Y212.3421 I0.1941 J-0.7244
G01 X31.5973 Y212.2672
G01 X31.6078 Y212.1929
G01 X31.6257 Y212.1201
G01 X31.9482 Y211.2123
G01 X31.9656 Y211.1671
G01 X32.3015 Y210.3268
G01 X32.6881 Y209.4553
G01 X32.7089 Y209.4115
G03 X49.0590 Y195.7729 I22.7618 J10.6674
G00 Z0.0000
G01 X49.8823 Y195.5684
G01 X49.9296 Y195.5581
G01 X50.8156 Y195.3739
G01 X51.7557 Y195.2149
G01 X51.9986 Y195.1832
G00 Z-1.5000
G01 Z-4.0000 F600
G01 X52.7011 Y195.0916 F1200
G01 X52.7492 Y195.0866
G03 X55.5557 Y194.9377 I2.7294 J24.9140
G01 X55.6042 Y194.9382
G03 X72.2299 Y201.3427 I-0.1020 J25.0468
G03 X72.1563 Y202.3505 I-0.5904 J0.4635
G01 X70.6121 Y203.8947
G01 X70.3014
G01 X70.6121
G01 X71.6727 Y204.9554
G01 Y205.2660
G01 Y204.9554
G01 X73.2311 Y203.3970
G03 X74.3456 Y203.4566 I0.5305 J0.5308
G03 X76.0837 Y205.6651 I-18.7952 J16.5796
G01 X76.1111 Y205.7050
G03 X77.5873 Y208.0966 I-20.5556 J14.3395
G01 X77.6101 Y208.1393
G03 X80.3420 Y223.8714 I-22.1099 J11.9427
G00 Z0.0000
G01 X80.1988 Y224.7239
G01 X80.0053 Y225.6574
G01 X79.9942 Y225.7046
G01 X79.7766 Y226.5830
G01 X79.7133 Y226.8029
G00 Z-1.5000
G01 Z-4.0000 F600
G01 X79.5129 Y227.4992 F1200
G01 X79.2147 Y228.4048
G01 X79.1983 Y228.4503
G03 X63.3385 Y243.9657 I-23.6646 J-8.3265
G03 X62.5025 Y243.3980 I-0.1062 J-0.7430
G01 X61.9399 Y241.2982
G01 X62.0969 Y241.0220
G01 X61.9399 Y241.2982
G01 X61.9276 Y241.2912
G01 X60.4980 Y241.6742
G01 X60.2218 Y241.5172
G01 X60.4980 Y241.6742
G01 X60.4910 Y241.6865
G01 X61.0588 Y243.8056
G03 X60.4499 Y244.7410 I-0.7249 J0.1940
G03 X37.6443 Y237.8174 I-4.9710 J-24.6475
G00 Z0.0000
G03 X35.8019 Y235.7491 I17.6362 J-17.5649
G01 X35.6628 Y235.5674
G00 Z5.0000


(Nr. 19: Teil 5)
G00 X63.8548 Y188.2261 Z5.0000
G00 Z0.5000
G01 Z-2.0000 F600
G01 X63.8187 Y188.1824 F1200
G03 X58.3566 Y173.2184 I19.6781 J-15.6617
G01 X58.3482 Y172.2651
G01 X58.3760 Y171.3121
G01 X58.3787 Y171.2637
G03 X58.8641 Y167.4582 I24.3791 J1.1753
G03 X59.7980 Y166.9471 I0.7209 J0.2085
G01 X61.9074 Y167.5123
G01 X62.0628 Y167.7814
G01 X61.9074 Y167.5123
G01 X62.2957 Y166.0635
G01 X62.5647 Y165.9081
G01 X62.2957 Y166.0635
G01 X60.1669 Y165.4930
G03 X59.6111 Y164.7753 I0.1941 J-0.7244
G01 X59.6141 Y164.7004
G03 X59.6612 Y164.4980 I0.7720 J0.0730
G03 X60.7049 Y161.8886 I23.7558 J7.9873
G01 X60.7257 Y161.8448
G03 X75.1099 Y148.8114 I22.7651 J10.6702
G00 Z0.0000
G01 X75.1527 Y148.7954
G01 X76.0579 Y148.4962
G01 X76.1043 Y148.4823
G01 X76.9738 Y148.2315
G01 X77.8991 Y148.0017
G01 X77.9912 Y147.9825
G01 Z-2.0000 F600
G01 X78.8324 Y147.8072 F1200
G01 X78.8801 Y147.7986
G03 X81.6673 Y147.4375 I4.6087 J24.6356
G01 X81.7156 Y147.4344
G03 X84.5257 Y147.3919 I1.7831 J24.9995
G01 X84.5741 Y147.3943
G03 X87.3709 Y147.6710 I-1.0655 J25.0404
G01 X87.4187 Y147.6789
G03 X90.1660 Y148.2712 I-3.9004 J24.7577
G01 X90.2126 Y148.2845
G03 X92.8749 Y149.1848 I-6.6849 J24.1551
G01 X92.9197 Y149.2032
G03 X100.2467 Y153.7760 I-9.1503 J22.8181
G03 X100.1731 Y154.7838 I-0.5904 J0.4635
G01 X98.6289 Y156.3280
G01 X98.3182
G01 X98.6289
G01 X99.6896 Y157.3886
G01 Y157.6993
G01 Y157.3886
G01 X101.2479 Y155.8303
G03 X102.3238 Y155.8460 I0.5303 J0.5303
G01 X102.9488 Y156.5792
G01 X102.9792 Y156.6169
G03 X108.1976 Y177.2443 I-19.4721 J15.8998
G00 Z0.0000
G01 X108.0221 Y178.0907
G01 X107.7934 Y179.0163
G01 X107.7805 Y179.0629
G01 X107.5297 Y179.9325
G01 X107.4582 Y180.1498
G01 Z-2.0000 F600
G01 X107.2316 Y180.8381 F1200
G01 X106.8993 Y181.7317
G01 X106.8811 Y181.7766
G03 X105.7027 Y184.3280 I-23.3069 J-9.2165
G01 X105.6796 Y184.3706
G03 X104.2193 Y186.7719 I-22.1103 J-11.8020
G01 X104.1915 Y186.8115
G03 X102.4681 Y189.0315 I-20.6281 J-14.2350
G01 X102.4360 Y189.0678
G03 X100.4717 Y191.0779 I-18.8793 J-16.4841
G01 X100.4357 Y191.1103
G03 X98.2561 Y192.8844 I-16.8866 J-18.5202
G01 X98.2166 Y192.9125
G03 X95.8497 Y194.4279 I-14.6757 J-20.3169
G01 X95.8073 Y194.4513
G03 X93.2837 Y195.6882 I-12.2752 J-21.8512
G01 X93.2389 Y195.7067
G01 X92.3986 Y196.0425
G01 X91.5007 Y196.3630
G03 X90.5193 Y195.8313 I-0.2517 J-0.7070
G01 X89.9567 Y193.7315
G01 X89.9444 Y193.7245
G01 X90.1051 Y193.4503
G01 X89.9444 Y193.7245
G01 X88.5149 Y194.1075
G01 X88.2386 Y193.9505
G01 X88.5149 Y194.1075
G01 X88.5078 Y194.1198
G01 X89.0756 Y196.2389
G03 X88.4667 Y197.1743 I-0.7249 J0.1940
G03 X65.8649 Y190.4506 I-4.9713 J-24.6391
G00 Z0.0000
G01 X65.7232 Y190.3144
G01 X65.0616 Y189.6280
G01 X65.0289 Y189.5922
G01 X64.4264 Y188.9170
G01 X63.8548 Y188.2261
G00 Z-1.5000
G01 Z-4.0000 F600
G01 X63.8187 Y188.1824 F1200
G03 X58.3566 Y173.2184 I19.6781 J-15.6617
G01 X58.3482 Y172.2651
G01 X58.3760 Y171.3121
G01 X58.3787 Y171.2637
G03 X58.8641 Y167.4582 I24.3791 J1.1753
G03 X59.7980 Y166.9471 I0.7209 J0.2085
G01 X61.9074 Y167.5123
G01 X62.0628 Y167.7814
G01 X61.9074 Y167.5123
G01 X62.2957 Y166.0635
G01 X62.5647 Y165.9081
G01 X62.2957 Y166.0635
G01 X60.1669 Y165.4930
G03 X59.6111 Y164.7753 I0.1941 J-0.7244
G01 X59.6141 Y164.7004
G03 X59.6612 Y164.4980 I0.7720 J0.0730
G03 X60.7049 Y161.8886 I23.7558 J7.9873
G01 X60.7257 Y161.8448
G03 X75.1099 Y148.8114 I22.7651 J10.6702
G00 Z0.0000
G01 X75.1527 Y148.7954
G01 X76.0579 Y148.4962
G01 X76.1043 Y148.4823
G01 X76.9738 Y148.2315
G01 X77.8991 Y148.0017
G01 X77.9912 Y147.9825
G00 Z-1.5000
G01 Z-4.0000 F600
G01 X78.8324 Y147.8072 F1200
G01 X78.8801 Y147.7986
G03 X81.6673 Y147.4375 I4.6087 J24.6356
G01 X81.7156 Y147.4344
G03 X84.5257 Y147.3919 I1.7831 J24.9995
G01 X84.5741 Y147.3943
G03 X87.3709 Y147.6710 I-1.0655 J25.0404
G01 X87.4187 Y147.6789
G03 X90.1660 Y148.2712 I-3.9004 J24.7577
G01 X90.2126 Y148.2845
G03 X92.8749 Y149.1848 I-6.6849 J24.1551
G01 X92.9197 Y149.2032
G03 X100.2467 Y153.7760 I-9.1503 J22.8181
G03 X100.1731 Y154.7838 I-0.5904 J0.4635
G01 X98.6289 Y156.3280
G01 X98.3182
G01 X98.6289
G01 X99.6896 Y157.3886
G01 Y157.6993
G01 Y157.3886
G01 X101.2479 Y155.8303
G03 X102.3238 Y155.8460 I0.5303 J0.5303
G01 X102.9488 Y156.5792
G01 X102.9792 Y156.6169
G03 X108.1976 Y177.2443 I-19.4721 J15.8998
G00 Z0.0000
G01 X108.0221 Y178.0907
G01 X107.7934 Y179.0163
G01 X107.7805 Y179.0629
G01 X107.5297 Y179.9325
G01 X107.4582 Y180.1498
G00 Z-1.5000
G01 Z-4.0000 F600
G01 X107.2316 Y180.8381 F1200
G01 X106.8993 Y181.7317
G01 X106.8811 Y181.7766
G03 X105.7027 Y184.3280 I-23.3069 J-9.2165
G01 X105.6796 Y184.3706
G03 X104.2193 Y186.7719 I-22.1103 J-11.8020
G01 X104.1915 Y186.8115
G03 X102.4681 Y189.0315 I-20.6281 J-14.2350
G01 X102.4360 Y189.0678
G03 X100.4717 Y191.0779 I-18.8793 J-16.4841
G01 X100.4357 Y191.1103
G03 X98.2561 Y192.8844 I-16.8866 J-18.5202
G01 X98.2166 Y192.9125
G03 X95.8497 Y194.4279 I-14.6757 J-20.3169
G01 X95.8073 Y194.4513
G03 X93.2837 Y195.6882 I-12.2752 J-21.8512
G01 X93.2389 Y195.7067
G01 X92.3986 Y196.0425
G01 X91.5007 Y196.3630
G03 X90.5193 Y195.8313 I-0.2517 J-0.7070
G01 X89.9567 Y193.7315
G01 X89.9444 Y193.7245
G01 X90.1051 Y193.4503
G01 X89.9444 Y193.7245
G01 X88.5149 Y194.1075
G01 X88.2386 Y193.9505
G01 X88.5149 Y194.1075
G01 X88.5078 Y194.1198
G01 X89.0756 Y196.2389
G03 X88.4667 Y197.1743 I-0.7249 J0.1940
G03 X65.8649 Y190.4506 I-4.9713 J-24.6391
G00 Z0.0000
G01 X65.7232 Y190.3144
G01 X65.0616 Y189.6280
G01 X65.0289 Y189.5922
G01 X64.4264 Y188.9170
G01 X63.8548 Y188.2261
G00 Z5.0000


(Nr. 20: Teil 6)
G00 X37.0415 Y142.7993 Z5.0000
G00 Z0.5000
G01 Z-2.0000 F600
G03 X30.3835 Y126.4416 I18.4772 J-17.0546 F1200
G01 X30.3751 Y125.4882
G01 X30.4029 Y124.5352
G01 X30.4056 Y124.4869
G03 X30.8909 Y120.6813 I24.3791 J1.1753
G03 X31.8249 Y120.1703 I0.7209 J0.2085
G01 X33.9343 Y120.7355
G01 X34.0897 Y121.0045
G01 X33.9343 Y120.7355
G01 X34.3226 Y119.2866
G01 X34.5916 Y119.1313
G01 X34.3226 Y119.2866
G01 X32.1938 Y118.7162
G03 X31.6379 Y117.9985 I0.1941 J-0.7244
G01 X31.6410 Y117.9236
G01 X31.6516 Y117.8494
G01 X31.6694 Y117.7766
G01 X31.9919 Y116.8687
G01 X32.3452 Y115.9832
G01 X32.3643 Y115.9387
G03 X47.2641 Y101.9906 I23.1497 J9.7970
G00 Z0.0000
G01 X48.0848 Y101.7193
G01 X49.0007 Y101.4547
G01 X49.0476 Y101.4425
G01 X49.9260 Y101.2249
G01 X50.1500 Y101.1782
G01 Z-2.0000 F600
G01 X50.8593 Y101.0303 F1200
G01 X51.7994 Y100.8713
G01 X51.8473 Y100.8645
G03 X54.6462 Y100.6093 I3.6717 J24.7926
G01 X54.6946 Y100.6080
G03 X57.5043 Y100.6721 I0.8343 J25.0491
G01 X57.5525 Y100.6763
G03 X60.3368 Y101.0589 I-2.0138 J24.9820
G01 X60.3843 Y101.0685
G03 X63.1072 Y101.7646 I-4.8360 J24.5920
G01 X63.1532 Y101.7796
G03 X65.7795 Y102.7801 I-7.5956 J23.8843
G01 X65.8236 Y102.8003
G03 X72.2736 Y106.9991 I-9.9946 J22.4064
G03 X72.2000 Y108.0069 I-0.5904 J0.4635
G01 X70.6558 Y109.5511
G01 X70.3451
G01 X70.6558
G01 X71.7094 Y110.6047
G01 X71.7115 Y110.9225
G01 X71.7094 Y110.6047
G01 X71.7235
G01 X73.2748 Y109.0534
G03 X74.3507 Y109.0692 I0.5303 J0.5303
G01 X74.9757 Y109.8023
G01 X75.5660 Y110.5510
G01 X75.5949 Y110.5899
G03 X80.2751 Y130.1865 I-20.0526 J15.1462
G00 Z0.0000
G01 X80.2425 Y130.3803
G01 X80.0490 Y131.3139
G01 X80.0379 Y131.3610
G01 X79.8203 Y132.2394
G01 X79.5723 Y133.1011
G01 Z-2.0000 F600
G01 X79.5566 Y133.1556 F1200
G01 X79.2584 Y134.0612
G01 X78.9261 Y134.9548
G01 X78.9080 Y134.9997
G03 X77.7296 Y137.5512 I-23.3069 J-9.2165
G01 X77.7065 Y137.5938
G03 X76.2462 Y139.9950 I-22.1103 J-11.8020
G01 X76.2184 Y140.0347
G03 X74.4950 Y142.2547 I-20.6281 J-14.2350
G01 X74.4629 Y142.2909
G03 X72.4986 Y144.3010 I-18.8793 J-16.4841
G01 X72.4626 Y144.3334
G03 X70.2830 Y146.1076 I-16.8866 J-18.5202
G01 X70.2435 Y146.1357
G03 X67.8766 Y147.6510 I-14.6757 J-20.3169
G01 X67.8342 Y147.6744
G03 X65.3106 Y148.9114 I-12.2752 J-21.8512
G01 X65.2658 Y148.9298
G01 X64.4255 Y149.2657
G01 X63.5275 Y149.5862
G03 X62.5462 Y149.0545 I-0.2517 J-0.7070
G01 X61.9836 Y146.9547
G01 X62.1406 Y146.6784
G01 X61.9836 Y146.9547
G01 X61.9713 Y146.9476
G01 X60.5417 Y147.3307
G01 X60.2655 Y147.1736
G01 X60.5417 Y147.3307
G01 X60.5347 Y147.3429
G01 X61.1025 Y149.4620
G03 X60.4936 Y150.3974 I-0.7249 J0.1940
G03 X39.2029 Y144.8773 I-4.9710 J-24.6453
G00 Z0.0000
G01 X39.1490 Y144.8328
G03 X37.0885 Y142.8511 I16.3747 J-19.0889
G01 X37.0558 Y142.8154
G01 X37.0415 Y142.7993
G00 Z-1.5000
G01 Z-4.0000 F600
G03 X30.3835 Y126.4416 I18.4772 J-17.0546 F1200
G01 X30.3751 Y125.4882
G01 X30.4029 Y124.5352
G01 X30.4056 Y124.4869
G03 X30.8909 Y120.6813 I24.3791 J1.1753
G03 X31.8249 Y120.1703 I0.7209 J0.2085
G01 X33.9343 Y120.7355
G01 X34.0897 Y121.0045
G01 X33.9343 Y120.7355
G01 X34.3226 Y119.2866
G01 X34.5916 Y119.1313
G01 X34.3226 Y119.2866
G01 X32.1938 Y118.7162
G03 X31.6379 Y117.9985 I0.1941 J-0.7244
G01 X31.6410 Y117.9236
G01 X31.6516 Y117.8494
G01 X31.6694 Y117.7766
G01 X31.9919 Y116.8687
G01 X32.3452 Y115.9832
G01 X32.3643 Y115.9387
G03 X47.2641 Y101.9906 I23.1497 J9.7970
G00 Z0.0000
G01 X48.0848 Y101.7193
G01 X49.0007 Y101.4547
G01 X49.0476 Y101.4425
G01 X49.9260 Y101.2249
G01 X50.1500 Y101.1782
G00 Z-1.5000
G01 Z-4.0000 F600
G01 X50.8593 Y101.0303 F1200
G01 X51.7994 Y100.8713
G01 X51.8473 Y100.8645
G03 X54.6462 Y100.6093 I3.6717 J24.7926
G01 X54.6946 Y100.6080
G03 X57.5043 Y100.6721 I0.8343 J25.0491
G01 X57.5525 Y100.6763
G03 X60.3368 Y101.0589 I-2.0138 J24.9820
G01 X60.3843 Y101.0685
G03 X63.1072 Y101.7646 I-4.8360 J24.5920
G01 X63.1532 Y101.7796
G03 X65.7795 Y102.7801 I-7.5956 J23.8843
G01 X65.8236 Y102.8003
G03 X72.2736 Y106.9991 I-9.9946 J22.4064
G03 X72.2000 Y108.0069 I-0.5904 J0.4635
G01 X70.6558 Y109.5511
G01 X70.3451
G01 X70.6558
G01 X71.7094 Y110.6047
G01 X71.7115 Y110.9225
G01 X71.7094 Y110.6047
G01 X71.7235
G01 X73.2748 Y109.0534
G03 X74.3507 Y109.0692 I0.5303 J0.5303
G01 X74.9757 Y109.8023
G01 X75.5660 Y110.5510
G01 X75.5949 Y110.5899
G03 X80.2751 Y130.1865 I-20.0526 J15.1462
G00 Z0.0000
G01 X80.2425 Y130.3803
G01 X80.0490 Y131.3139
G01 X80.0379 Y131.3610
G01 X79.8203 Y132.2394
G01 X79.5723 Y133.1011
G00 Z-1.5000
G01 Z-4.0000 F600
G01 X79.5566 Y133.1556 F1200
G01 X79.2584 Y134.0612
G01 X78.9261 Y134.9548
G01 X78.9080 Y134.9997
G03 X77.7296 Y137.5512 I-23.3069 J-9.2165
G01 X77.7065 Y137.5938
G03 X76.2462 Y139.9950 I-22.1103 J-11.8020
G01 X76.2184 Y140.0347
G03 X74.4950 Y142.2547 I-20.6281 J-14.2350
G01 X74.4629 Y142.2909
G03 X72.4986 Y144.3010 I-18.8793 J-16.4841
G01 X72.4626 Y144.3334
G03 X70.2830 Y146.1076 I-16.8866 J-18.5202
G01 X70.2435 Y146.1357
G03 X67.8766 Y147.6510 I-14.6757 J-20.3169
G01 X67.8342 Y147.6744
G03 X65.3106 Y148.9114 I-12.2752 J-21.8512
G01 X65.2658 Y148.9298
G01 X64.4255 Y149.2657
G01 X63.5275 Y149.5862
G03 X62.5462 Y149.0545 I-0.2517 J-0.7070
G01 X61.9836 Y146.9547
G01 X62.1406 Y146.6784
G01 X61.9836 Y146.9547
G01 X61.9713 Y146.9476
G01 X60.5417 Y147.3307
G01 X60.2655 Y147.1736
G01 X60.5417 Y147.3307
G01 X60.5347 Y147.3429
G01 X61.1025 Y149.4620
G03 X60.4936 Y150.3974 I-0.7249 J0.1940
G03 X39.2029 Y144.8773 I-4.9710 J-24.6453
G00 Z0.0000
G01 X39.1490 Y144.8328
G03 X37.0885 Y142.8511 I16.3747 J-19.0889
G01 X37.0558 Y142.8154
G01 X37.0415 Y142.7993
G00 Z5.0000


(Nr. 21: Teil 8)
G00 X70.3237 Y93.5971 Z5.0000
G00 Z0.5000
G01 Z-2.0000 F600
G03 X66.0690 Y80.3756 I20.8428 J-14.0025 F1200
G01 X66.0573 Y79.4222
G03 X68.7654 Y68.2603 I24.8906 J0.1294
G03 X69.7578 Y68.0705 I0.6005 J0.4503
G01 X71.6405 Y69.1575
G01 X71.6541 Y69.1538
G01 X71.7343 Y69.4613
G01 X71.6541 Y69.1538
G01 X72.3941 Y67.8721
G01 X72.7005 Y67.7878
G01 X72.3941 Y67.8721
G01 X72.3905 Y67.8584
G01 X70.4905 Y66.7615
G03 X70.1164 Y66.1474 I0.3750 J-0.6495
G01 X70.1166 Y66.0724
G03 X70.2272 Y65.7182 I0.7490 J0.0396
G01 X70.7736 Y64.9247
G01 X70.8022 Y64.8856
G03 X72.5697 Y62.7006 I20.3389 J14.6452
G01 X72.6026 Y62.6649
G03 X90.6620 Y54.4484 I18.5855 J16.8950
G00 Z0.0000
G01 X91.1924 Y54.4381
G01 X92.1456 Y54.4556
G01 X92.1940 Y54.4578
G01 X93.0975 Y54.5093
G01 X93.6577 Y54.5622
G01 Z-2.0000 F600
G01 X94.0467 Y54.5989 F1200
G01 X94.9917 Y54.7245
G01 X95.0396 Y54.7322
G03 X112.2372 Y65.8171 I-3.8037 J24.7843
G03 X111.9053 Y66.7715 I-0.6902 J0.2949
G01 X110.0227 Y67.8584
G01 X109.7152 Y67.7782
G01 X110.0227 Y67.8584
G01 X110.0190 Y67.8721
G01 X110.7640 Y69.1625
G01 X110.6836 Y69.4625
G01 X110.7640 Y69.1625
G01 X112.6726 Y68.0605
G03 X113.7078 Y68.3542 I0.3750 J0.6495
G01 X114.1218 Y69.2241
G01 X114.1414 Y69.2684
G03 X113.9121 Y90.4005 I-22.9260 J10.3186
G00 Z0.0000
G01 X113.8831 Y90.4641
G01 X113.8618 Y90.5076
G03 X112.5023 Y92.9673 I-22.5808 J-10.8748
G01 X112.4762 Y93.0081
G01 X112.4644 Y93.0261
G01 Z-2.0000 F600
G03 X92.6171 Y104.6864 I-21.2157 J-13.3902 F1200
G03 X91.9576 Y103.9802 I0.0894 J-0.7446
G01 X91.9566 Y103.9218
G01 Y101.7379
G01 X92.1762 Y101.5183
G01 X91.9566 Y101.7379
G01 X90.4566
G01 X90.2369 Y101.5183
G01 X90.4566 Y101.7379
G01 Y103.9418
G03 X89.6847 Y104.6915 I-0.7500 J0.0000
G01 X88.7243 Y104.6150
G01 X88.6762 Y104.6098
G03 X85.9001 Y104.1716 I2.5137 J-24.9366
G01 X85.8528 Y104.1610
G03 X83.1444 Y103.4106 I5.3275 J-24.4903
G01 X83.0987 Y103.3947
G03 X72.1380 Y95.9839 I8.0948 J-23.7834
G00 Z0.0000
G03 X70.4493 Y93.7883 I18.7603 J-16.1764
G01 X70.3237 Y93.5971
G00 Z-1.5000
G01 Z-4.0000 F600
G03 X66.0690 Y80.3756 I20.8428 J-14.0025 F1200
G01 X66.0573 Y79.4222
G03 X68.7654 Y68.2603 I24.8906 J0.1294
G03 X69.7578 Y68.0705 I0.6005 J0.4503
G01 X71.6405 Y69.1575
G01 X71.6541 Y69.1538
G01 X71.7343 Y69.4613
G01 X71.6541 Y69.1538
G01 X72.3941 Y67.8721
G01 X72.7005 Y67.7878
G01 X72.3941 Y67.8721
G01 X72.3905 Y67.8584
G01 X70.4905 Y66.7615
G03 X70.1164 Y66.1474 I0.3750 J-0.6495
G01 X70.1166 Y66.0724
G03 X70.2272 Y65.7182 I0.7490 J0.0396
G01 X70.7736 Y64.9247
G01 X70.8022 Y64.8856
G03 X72.5697 Y62.7006 I20.3389 J14.6452
G01 X72.6026 Y62.6649
G03 X90.6620 Y54.4484 I18.5855 J16.8950
G00 Z0.0000
G01 X91.1924 Y54.4381
G01 X92.1456 Y54.4556
G01 X92.1940 Y54.4578
G01 X93.0975 Y54.5093
G01 X93.6577 Y54.5622
G00 Z-1.5000
G01 Z-4.0000 F600
G01 X94.0467 Y54.5989 F1200
G01 X94.9917 Y54.7245
G01 X95.0396 Y54.7322
G03 X112.2372 Y65.8171 I-3.8037 J24.7843
G03 X111.9053 Y66.7715 I-0.6902 J0.2949
G01 X110.0227 Y67.8584
G01 X109.7152 Y67.7782
G01 X110.0227 Y67.8584
G01 X110.0190 Y67.8721
G01 X110.7640 Y69.1625
G01 X110.6836 Y69.4625
G01 X110.7640 Y69.1625
G01 X112.6726 Y68.0605
G03 X113.7078 Y68.3542 I0.3750 J0.6495
G01 X114.1218 Y69.2241
G01 X114.1414 Y69.2684
G03 X113.9121 Y90.4005 I-22.9260 J10.3186
G00 Z0.0000
G01 X113.8831 Y90.4641
G01 X113.8618 Y90.5076
G03 X112.5023 Y92.9673 I-22.5808 J-10.8748
G01 X112.4762 Y93.0081
G01 X112.4644 Y93.0261
G00 Z-1.5000
G01 Z-4.0000 F600
G03 X92.6171 Y104.6864 I-21.2157 J-13.3902 F1200
G03 X91.9576 Y103.9802 I0.0894 J-0.7446
G01 X91.9566 Y103.9218
G01 Y101.7379
G01 X92.1762 Y101.5183
G01 X91.9566 Y101.7379
G01 X90.4566
G01 X90.2369 Y101.5183
G01 X90.4566 Y101.7379
G01 Y103.9418
G03 X89.6847 Y104.6915 I-0.7500 J0.0000
G01 X88.7243 Y104.6150
G01 X88.6762 Y104.6098
G03 X85.9001 Y104.1716 I2.5137 J-24.9366
G01 X85.8528 Y104.1610
G03 X83.1444 Y103.4106 I5.3275 J-24.4903
G01 X83.0987 Y103.3947
G03 X72.1380 Y95.9839 I8.0948 J-23.7834
G00 Z0.0000
G03 X70.4493 Y93.7883 I18.7603 J-16.1764
G01 X70.3237 Y93.5971
G00 Z5.0000


(Nr. 22: Teil 9)
G00 X70.5558 Y38.9372 Z5.0000
G00 Z0.5000
G01 Z-2.0000 F600
G01 X70.3413 Y38.6106 F1200
G01 X69.8486 Y37.7944
G01 X69.8247 Y37.7523
G03 X68.5608 Y35.2421 I21.7182 J-12.5089
G01 X68.5418 Y35.1975
G03 X66.4833 Y25.9464 I23.0801 J-9.9904
G01 X66.4726 Y25.0415
G01 X66.4970 Y24.0884
G01 X66.5574 Y23.1369
G01 X66.5618 Y23.0887
G03 X66.9543 Y20.3058 I24.9746 J2.1032
G01 X66.9641 Y20.2583
G03 X67.6699 Y17.5380 I24.5746 J4.9239
G01 X67.6851 Y17.4920
G03 X69.1388 Y13.9417 I23.2442 J7.4450
G03 X70.1732 Y13.6898 I0.6424 J0.3880
G01 X72.0558 Y14.7767
G01 X72.1401 Y15.0831
G01 X72.0558 Y14.7767
G01 X72.0695 Y14.7730
G01 X72.8095 Y13.4913
G01 X72.8058 Y13.4777
G01 X73.1133 Y13.3974
G01 X72.8058 Y13.4777
G01 X70.9059 Y12.3807
G03 X70.5317 Y11.7666 I0.3750 J-0.6495
G01 X70.5319 Y11.6916
G03 X70.6426 Y11.3374 I0.7490 J0.0396
G03 X90.4261 Y0.0889 I20.9684 J13.8570
G00 Z0.0000
G01 X90.6545 Y0.0759
G01 X91.6077 Y0.0573
G01 X92.5610 Y0.0748
G01 X93.4240 Y0.1235
G01 Z-2.0000 F600
G01 X93.5128 Y0.1285 F1200
G03 X112.6526 Y11.4363 I-1.8709 J25.0187
G03 X112.3708 Y12.3607 I-0.6896 J0.2949
G01 X110.4381 Y13.4777
G01 X110.1306 Y13.3974
G01 X110.4381 Y13.4777
G01 X110.4344 Y13.4913
G01 X111.1794 Y14.7817
G01 X111.0990 Y15.0818
G01 X111.1794 Y14.7817
G01 X113.0880 Y13.6798
G03 X114.1491 Y14.0258 I0.3750 J0.6500
G03 X115.0172 Y34.4316 I-22.5141 J11.1791
G00 Z0.0000
G01 X114.6944 Y35.2160
G01 X114.6748 Y35.2603
G01 X114.2985 Y36.0833
G01 X113.8700 Y36.9350
G01 X113.7516 Y37.1495
G01 Z-2.0000 F600
G03 X93.0325 Y50.3057 I-22.0885 J-11.8932 F1200
G03 X92.3729 Y49.5995 I0.0894 J-0.7446
G01 X92.3719 Y49.5410
G01 Y47.3572
G01 X92.5916 Y47.1375
G01 X92.3719 Y47.3572
G01 X90.8719
G01 X90.6523 Y47.1375
G01 X90.8719 Y47.3572
G01 Y49.5610
G03 X90.0417 Y50.3070 I-0.7504 J-0.0002
G03 X72.3396 Y41.3466 I1.5699 J-25.0679
G00 Z0.0000
G01 X72.0000 Y40.9391
G01 X71.4178 Y40.1841
G01 X71.3893 Y40.1450
G01 X70.8646 Y39.4076
G01 X70.5558 Y38.9372
G00 Z-1.5000
G01 Z-4.0000 F600
G01 X70.3413 Y38.6106 F1200
G01 X69.8486 Y37.7944
G01 X69.8247 Y37.7523
G03 X68.5608 Y35.2421 I21.7182 J-12.5089
G01 X68.5418 Y35.1975
G03 X66.4833 Y25.9464 I23.0801 J-9.9904
G01 X66.4726 Y25.0415
G01 X66.4970 Y24.0884
G01 X66.5574 Y23.1369
G01 X66.5618 Y23.0887
G03 X66.9543 Y20.3058 I24.9746 J2.1032
G01 X66.9641 Y20.2583
G03 X67.6699 Y17.5380 I24.5746 J4.9239
G01 X67.6851 Y17.4920
G03 X69.1388 Y13.9417 I23.2442 J7.4450
G03 X70.1732 Y13.6898 I0.6424 J0.3880
G01 X72.0558 Y14.7767
G01 X72.1401 Y15.0831
G01 X72.0558 Y14.7767
G01 X72.0695 Y14.7730
G01 X72.8095 Y13.4913
G01 X72.8058 Y13.4777
G01 X73.1133 Y13.3974
G01 X72.8058 Y13.4777
G01 X70.9059 Y12.3807
G03 X70.5317 Y11.7666 I0.3750 J-0.6495
G01 X70.5319 Y11.6916
G03 X70.6426 Y11.3374 I0.7490 J0.0396
G03 X90.4261 Y0.0889 I20.9684 J13.8570
G00 Z0.0000
G01 X90.6545 Y0.0759
G01 X91.6077 Y0.0573
G01 X92.5610 Y0.0748
G01 X93.4240 Y0.1235
G00 Z-1.5000
G01 Z-4.0000 F600
G01 X93.5128 Y0.1285 F1200
G03 X112.6526 Y11.4363 I-1.8709 J25.0187
G03 X112.3708 Y12.3607 I-0.6896 J0.2949
G01 X110.4381 Y13.4777
G01 X110.1306 Y13.3974
G01 X110.4381 Y13.4777
G01 X110.4344 Y13.4913
G01 X111.1794 Y14.7817
G01 X111.0990 Y15.0818
G01 X111.1794 Y14.7817
G01 X113.0880 Y13.6798
G03 X114.1491 Y14.0258 I0.3750 J0.6500
G03 X115.0172 Y34.4316 I-22.5141 J11.1791
G00 Z0.0000
G01 X114.6944 Y35.2160
G01 X114.6748 Y35.2603
G01 X114.2985 Y36.0833
G01 X113.8700 Y36.9350
G01 X113.7516 Y37.1495
G00 Z-1.5000
G01 Z-4.0000 F600
G03 X93.0325 Y50.3057 I-22.0885 J-11.8932 F1200
G03 X92.3729 Y49.5995 I0.0894 J-0.7446
G01 X92.3719 Y49.5410
G01 Y47.3572
G01 X92.5916 Y47.1375
G01 X92.3719 Y47.3572
G01 X90.8719
G01 X90.6523 Y47.1375
G01 X90.8719 Y47.3572
G01 Y49.5610
G03 X90.0417 Y50.3070 I-0.7504 J-0.0002
G03 X72.3396 Y41.3466 I1.5699 J-25.0679
G00 Z0.0000
G01 X72.0000 Y40.9391
G01 X71.4178 Y40.1841
G01 X71.3893 Y40.1450
G01 X70.8646 Y39.4076
G01 X70.5558 Y38.9372
G00 Z5.0000


(Nr. 23: Teil 7)
G00 X30.9401 Y26.8949 Z5.0000
G00 Z0.5000
G01 Z-2.0000 F600
G01 Y0.1163 F1200
G01 X30.9438 Y0.0414
G03 X31.7101 Y-0.6337 I0.7468 J0.0751
G01 X41.6901
G03 X42.4401 Y0.1363 I-0.0002 J0.7504
G01 Y2.3663
G01 X42.2204 Y2.5859
G01 X42.4401 Y2.3663
G01 X50.9301
G01 X51.1562 Y2.5895
G01 X50.9301 Y2.3663
G01 X50.9401 Y2.3563
G01 Y0.1163
G03 X51.0319 Y-0.2433 I0.7500 J0.0000
G03 X51.7101 Y-0.6337 I0.6589 J0.3603
G01 X55.2001
G00 Z0.0000
G01 X58.2001
G01 Z-2.0000 F600
G01 X61.6901 F1200
G03 X62.4401 Y0.1363 I-0.0002 J0.7504
G01 Y26.3877
G00 Z0.0000
G01 Y29.3877
G01 Z-2.0000 F600
G01 Y72.6280 F1200
G00 Z0.0000
G01 Y75.6280
G01 Z-2.0000 F600
G01 Y96.1163 F1200
G03 X61.6701 Y96.8663 I-0.7504 J-0.0002
G01 X51.6901
G03 X50.9419 Y96.1693 I0.0000 J-0.7500
G01 X50.9401 Y96.0963
G01 Y93.8663
G01 X51.1597 Y93.6466
G01 X50.9401 Y93.8663
G01 X42.4501
G01 X42.2239 Y93.6431
G01 X42.4501 Y93.8663
G01 X42.4401 Y93.8763
G01 Y96.1163
G03 X41.6701 Y96.8663 I-0.7504 J-0.0002
G01 X38.1801
G00 Z0.0000
G01 X35.1801
G01 Z-2.0000 F600
G01 X31.6901 F1200
G03 X30.9419 Y96.1693 I0.0000 J-0.7500
G01 X30.9401 Y96.0963
G01 Y76.7270
G00 Z0.0000
G01 Y73.7270
G01 Z-2.0000 F600
G01 Y29.8949 F1200
G00 Z0.0000
G01 Y26.8949
G00 Z-1.5000
G01 Z-4.0000 F600
G01 Y0.1163 F1200
G01 X30.9438 Y0.0414
G03 X31.7101 Y-0.6337 I0.7468 J0.0751
G01 X41.6901
G03 X42.4401 Y0.1363 I-0.0002 J0.7504
G01 Y2.3663
G01 X42.2204 Y2.5859
G01 X42.4401 Y2.3663
G01 X50.9301
G01 X51.1562 Y2.5895
G01 X50.9301 Y2.3663
G01 X50.9401 Y2.3563
G01 Y0.1163
G03 X51.0319 Y-0.2433 I0.7500 J0.0000
G03 X51.7101 Y-0.6337 I0.6589 J0.3603
G01 X55.2001
G00 Z0.0000
G01 X58.2001
G00 Z-1.5000
G01 Z-4.0000 F600
G01 X61.6901 F1200
G03 X62.4401 Y0.1363 I-0.0002 J0.7504
G01 Y26.3877
G00 Z0.0000
G01 Y29.3877
G00 Z-1.5000
G01 Z-4.0000 F600
G01 Y72.6280 F1200
G00 Z0.0000
G01 Y75.6280
G00 Z-1.5000
G01 Z-4.0000 F600
G01 Y96.1163 F1200
G03 X61.6701 Y96.8663 I-0.7504 J-0.0002
G01 X51.6901
G03 X50.9419 Y96.1693 I0.0000 J-0.7500
G01 X50.9401 Y96.0963
G01 Y93.8663
G01 X51.1597 Y93.6466
G01 X50.9401 Y93.8663
G01 X42.4501
G01 X42.2239 Y93.6431
G01 X42.4501 Y93.8663
G01 X42.4401 Y93.8763
G01 Y96.1163
G03 X41.6701 Y96.8663 I-0.7504 J-0.0002
G01 X38.1801
G00 Z0.0000
G01 X35.1801
G00 Z-1.5000
G01 Z-4.0000 F600
G01 X31.6901 F1200
G03 X30.9419 Y96.1693 I0.0000 J-0.7500
G01 X30.9401 Y96.0963
G01 Y76.7270
G00 Z0.0000
G01 Y73.7270
G00 Z-1.5000
G01 Z-4.0000 F600
G01 Y29.8949 F1200
G00 Z0.0000
G01 Y26.8949
G00 Z5.0000


(Nr. 24: Teil 3)
G00 X20.0971 Y13.5385 Z5.0000
G00 Z0.5000
G01 Z-2.0000 F600
G01 Y0.0000 F1200
G01 X20.1009 Y-0.0749
G03 X20.8671 Y-0.7500 I0.7468 J0.0751
G01 X23.6471
G03 X24.3971 Y0.0200 I-0.0002 J0.7504
G01 Y2.2500
G01 X24.1775 Y2.4697
G01 X24.3971 Y2.2500
G01 X26.6471
G03 X27.3971 Y3.0200 I-0.0002 J0.7504
G01 Y27.0000
G03 X26.6271 Y27.7500 I-0.7504 J-0.0002
G01 X24.3971
G01 X24.1775 Y27.5303
G01 X24.3971 Y27.7500
G01 Y29.2500
G01 X24.1775 Y29.4697
G01 X24.3971 Y29.2500
G01 X26.6471
G03 X27.3971 Y30.0200 I-0.0002 J0.7504
G01 Y47.7673
G00 Z0.0000
G01 Y50.7673
G01 Z-2.0000 F600
G01 Y120.0000 F1200
G03 X26.6271 Y120.7500 I-0.7504 J-0.0002
G01 X24.3971
G01 X24.1775 Y120.5303
G01 X24.3971 Y120.7500
G01 Y122.2500
G01 X24.1775 Y122.4697
G01 X24.3971 Y122.2500
G01 X26.6471
G03 X27.3971 Y123.0200 I-0.0002 J0.7504
G01 Y131.5100
G00 Z0.0000
G01 Y134.5100
G01 Z-2.0000 F600
G01 Y143.0000 F1200
G03 X26.6271 Y143.7500 I-0.7504 J-0.0002
G01 X24.3971
G01 X24.1775 Y143.5303
G01 X24.3971 Y143.7500
G01 Y145.2400
G01 X24.1739 Y145.4662
G01 X24.3971 Y145.2400
G01 X24.4071 Y145.2500
G01 X26.6471
G03 X27.3971 Y146.0200 I-0.0002 J0.7504
G01 Y200.0000
G03 X27.1633 Y200.5445 I-0.7516 J-0.0003
G01 X26.1775 Y201.5303
G03 X25.6271 Y201.7500 I-0.5312 J-0.5317
G01 X24.3971
G01 X24.1775 Y201.5303
G01 X24.3971 Y201.7500
G01 Y212.2400
G01 X24.1739 Y212.4662
G01 X24.3971 Y212.2400
G01 X24.4071 Y212.2500
G01 X25.6471
G03 X26.1916 Y212.4838 I-0.0003 J0.7516
G01 X27.1775 Y213.4697
G03 X27.3971 Y214.0200 I-0.5317 J0.5312
G01 Y226.5100
G00 Z0.0000
G01 Y229.5100
G01 Z-2.0000 F600
G01 Y242.0000 F1200
G03 X26.6271 Y242.7500 I-0.7504 J-0.0002
G01 X24.3971
G01 X24.1775 Y242.5303
G01 X24.3971 Y242.7500
G01 Y245.0000
G03 X23.6271 Y245.7500 I-0.7504 J-0.0002
G01 X20.8471
G03 X20.0990 Y245.0531 I0.0000 J-0.7500
G01 X20.0971 Y244.9800
G01 Y174.5485
G00 Z0.0000
G01 Y171.5485
G01 Z-2.0000 F600
G01 Y97.3407 F1200
G00 Z0.0000
G01 Y94.3407
G01 Z-2.0000 F600
G01 Y16.5385 F1200
G00 Z0.0000
G01 Y13.5385
G00 Z-1.5000
G01 Z-4.0000 F600
G01 Y0.0000 F1200
G01 X20.1009 Y-0.0749
G03 X20.8671 Y-0.7500 I0.7468 J0.0751
G01 X23.6471
G03 X24.3971 Y0.0200 I-0.0002 J0.7504
G01 Y2.2500
G01 X24.1775 Y2.4697
G01 X24.3971 Y2.2500
G01 X26.6471
G03 X27.3971 Y3.0200 I-0.0002 J0.7504
G01 Y27.0000
G03 X26.6271 Y27.7500 I-0.7504 J-0.0002
G01 X24.3971
G01 X24.1775 Y27.5303
G01 X24.3971 Y27.7500
G01 Y29.2500
G01 X24.1775 Y29.4697
G01 X24.3971 Y29.2500
G01 X26.6471
G03 X27.3971 Y30.0200 I-0.0002 J0.7504
G01 Y47.7673
G00 Z0.0000
G01 Y50.7673
G00 Z-1.5000
G01 Z-4.0000 F600
G01 Y120.0000 F1200
G03 X26.6271 Y120.7500 I-0.7504 J-0.0002
G01 X24.3971
G01 X24.1775 Y120.5303
G01 X24.3971 Y120.7500
G01 Y122.2500
G01 X24.1775 Y122.4697
G01 X24.3971 Y122.2500
G01 X26.6471
G03 X27.3971 Y123.0200 I-0.0002 J0.7504
G01 Y131.5100
G00 Z0.0000
G01 Y134.5100
G00 Z-1.5000
G01 Z-4.0000 F600
G01 Y143.0000 F1200
G03 X26.6271 Y143.7500 I-0.7504 J-0.0002
G01 X24.3971
G01 X24.1775 Y143.5303
G01 X24.3971 Y143.7500
G01 Y145.2400
G01 X24.1739 Y145.4662
G01 X24.3971 Y145.2400
G01 X24.4071 Y145.2500
G01 X26.6471
G03 X27.3971 Y146.0200 I-0.0002 J0.7504
G01 Y200.0000
G03 X27.1633 Y200.5445 I-0.7516 J-0.0003
G01 X26.1775 Y201.5303
G03 X25.6271 Y201.7500 I-0.5312 J-0.5317
G01 X24.3971
G01 X24.1775 Y201.5303
G01 X24.3971 Y201.7500
G01 Y212.2400
G01 X24.1739 Y212.4662
G01 X24.3971 Y212.2400
G01 X24.4071 Y212.2500
G01 X25.6471
G03 X26.1916 Y212.4838 I-0.0003 J0.7516
G01 X27.1775 Y213.4697
G03 X27.3971 Y214.0200 I-0.5317 J0.5312
G01 Y226.5100
G00 Z0.0000
G01 Y229.5100
G00 Z-1.5000
G01 Z-4.0000 F600
G01 Y242.0000 F1200
G03 X26.6271 Y242.7500 I-0.7504 J-0.0002
G01 X24.3971
G01 X24.1775 Y242.5303
G01 X24.3971 Y242.7500
G01 Y245.0000
G03 X23.6271 Y245.7500 I-0.7504 J-0.0002
G01 X20.8471
G03 X20.0990 Y245.0531 I0.0000 J-0.7500
G01 X20.0971 Y244.9800
G01 Y174.5485
G00 Z0.0000
G01 Y171.5485
G00 Z-1.5000
G01 Z-4.0000 F600
G01 Y97.3407 F1200
G00 Z0.0000
G01 Y94.3407
G00 Z-1.5000
G01 Z-4.0000 F600
G01 Y16.5385 F1200
G00 Z0.0000
G01 Y13.5385
G00 Z5.0000


(Nr. 25: Teil 2)
G00 X9.6736 Y13.5385 Z5.0000
G00 Z0.5000
G01 Z-2.0000 F600
G01 Y0.0000 F1200
G01 X9.6773 Y-0.0749
G03 X10.4436 Y-0.7500 I0.7468 J0.0751
G01 X13.2236
G03 X13.9736 Y0.0200 I-0.0002 J0.7504
G01 Y2.2500
G01 X13.7539 Y2.4697
G01 X13.9736 Y2.2500
G01 X16.2236
G03 X16.9736 Y3.0200 I-0.0002 J0.7504
G01 Y27.0000
G03 X16.2036 Y27.7500 I-0.7504 J-0.0002
G01 X13.9736
G01 X13.7539 Y27.5303
G01 X13.9736 Y27.7500
G01 Y29.2500
G01 X13.7539 Y29.4697
G01 X13.9736 Y29.2500
G01 X16.2236
G03 X16.9736 Y30.0200 I-0.0002 J0.7504
G01 Y47.6244
G00 Z0.0000
G01 Y50.6244
G01 Z-2.0000 F600
G01 Y120.0000 F1200
G03 X16.2036 Y120.7500 I-0.7504 J-0.0002
G01 X13.9736
G01 X13.7539 Y120.5303
G01 X13.9736 Y120.7500
G01 Y122.2500
G01 X13.7539 Y122.4697
G01 X13.9736 Y122.2500
G01 X16.2236
G03 X16.9736 Y123.0200 I-0.0002 J0.7504
G01 Y131.5100
G00 Z0.0000
G01 Y134.5100
G01 Z-2.0000 F600
G01 Y143.0000 F1200
G03 X16.2036 Y143.7500 I-0.7504 J-0.0002
G01 X13.9736
G01 X13.7539 Y143.5303
G01 X13.9736 Y143.7500
G01 Y145.2400
G01 X13.7504 Y145.4662
G01 X13.9736 Y145.2400
G01 X13.9836 Y145.2500
G01 X16.2236
G03 X16.9736 Y146.0200 I-0.0002 J0.7504
G01 Y200.0000
G03 X16.7398 Y200.5445 I-0.7516 J-0.0003
G01 X15.7539 Y201.5303
G03 X15.2036 Y201.7500 I-0.5312 J-0.5317
G01 X13.9736
G01 X13.7539 Y201.5303
G01 X13.9736 Y201.7500
G01 Y212.2400
G01 X13.7504 Y212.4662
G01 X13.9736 Y212.2400
G01 X13.9836 Y212.2500
G01 X15.2236
G03 X15.7680 Y212.4838 I-0.0003 J0.7516
G01 X16.7539 Y213.4697
G03 X16.9736 Y214.0200 I-0.5317 J0.5312
G01 Y226.5100
G00 Z0.0000
G01 Y229.5100
G01 Z-2.0000 F600
G01 Y242.0000 F1200
G03 X16.2036 Y242.7500 I-0.7504 J-0.0002
G01 X13.9736
G01 X13.7539 Y242.5303
G01 X13.9736 Y242.7500
G01 Y245.0000
G03 X13.2036 Y245.7500 I-0.7504 J-0.0002
G01 X10.4236
G03 X9.6754 Y245.0531 I0.0000 J-0.7500
G01 X9.6736 Y244.9800
G01 Y174.4835
G00 Z0.0000
G01 Y171.4835
G01 Z-2.0000 F600
G01 Y97.0550 F1200
G00 Z0.0000
G01 Y94.0550
G01 Z-2.0000 F600
G01 Y16.5385 F1200
G00 Z0.0000
G01 Y13.5385
G00 Z-1.5000
G01 Z-4.0000 F600
G01 Y0.0000 F1200
G01 X9.6773 Y-0.0749
G03 X10.4436 Y-0.7500 I0.7468 J0.0751
G01 X13.2236
G03 X13.9736 Y0.0200 I-0.0002 J0.7504
G01 Y2.2500
G01 X13.7539 Y2.4697
G01 X13.9736 Y2.2500
G01 X16.2236
G03 X16.9736 Y3.0200 I-0.0002 J0.7504
G01 Y27.0000
G03 X16.2036 Y27.7500 I-0.7504 J-0.0002
G01 X13.9736
G01 X13.7539 Y27.5303
G01 X13.9736 Y27.7500
G01 Y29.2500
G01 X13.7539 Y29.4697
G01 X13.9736 Y29.2500
G01 X16.2236
G03 X16.9736 Y30.0200 I-0.0002 J0.7504
G01 Y47.6244
G00 Z0.0000
G01 Y50.6244
G00 Z-1.5000
G01 Z-4.0000 F600
G01 Y120.0000 F1200
G03 X16.2036 Y120.7500 I-0.7504 J-0.0002
G01 X13.9736
G01 X13.7539 Y120.5303
G01 X13.9736 Y120.7500
G01 Y122.2500
G01 X13.7539 Y122.4697
G01 X13.9736 Y122.2500
G01 X16.2236
G03 X16.9736 Y123.0200 I-0.0002 J0.7504
G01 Y131.5100
G00 Z0.0000
G01 Y134.5100
G00 Z-1.5000
G01 Z-4.0000 F600
G01 Y143.0000 F1200
G03 X16.2036 Y143.7500 I-0.7504 J-0.0002
G01 X13.9736
G01 X13.7539 Y143.5303
G01 X13.9736 Y143.7500
G01 Y145.2400
G01 X13.7504 Y145.4662
G01 X13.9736 Y145.2400
G01 X13.9836 Y145.2500
G01 X16.2236
G03 X16.9736 Y146.0200 I-0.0002 J0.7504
G01 Y200.0000
G03 X16.7398 Y200.5445 I-0.7516 J-0.0003
G01 X15.7539 Y201.5303
G03 X15.2036 Y201.7500 I-0.5312 J-0.5317
G01 X13.9736
G01 X13.7539 Y201.5303
G01 X13.9736 Y201.7500
G01 Y212.2400
G01 X13.7504 Y212.4662
G01 X13.9736 Y212.2400
G01 X13.9836 Y212.2500
G01 X15.2236
G03 X15.7680 Y212.4838 I-0.0003 J0.7516
G01 X16.7539 Y213.4697
G03 X16.9736 Y214.0200 I-0.5317 J0.5312
G01 Y226.5100
G00 Z0.0000
G01 Y229.5100
G00 Z-1.5000
G01 Z-4.0000 F600
G01 Y242.0000 F1200
G03 X16.2036 Y242.7500 I-0.7504 J-0.0002
G01 X13.9736
G01 X13.7539 Y242.5303
G01 X13.9736 Y242.7500
G01 Y245.0000
G03 X13.2036 Y245.7500 I-0.7504 J-0.0002
G01 X10.4236
G03 X9.6754 Y245.0531 I0.0000 J-0.7500
G01 X9.6736 Y244.9800
G01 Y174.4835
G00 Z0.0000
G01 Y171.4835
G00 Z-1.5000
G01 Z-4.0000 F600
G01 Y97.0550 F1200
G00 Z0.0000
G01 Y94.0550
G00 Z-1.5000
G01 Z-4.0000 F600
G01 Y16.5385 F1200
G00 Z0.0000
G01 Y13.5385
G00 Z5.0000


(Nr. 26: Teil 1)
G00 X-0.7500 Y13.7659 Z5.0000
G00 Z0.5000
G01 Z-2.0000 F600
G01 Y0.0000 F1200
G03 X-0.7165 Y-0.2216 I0.7500 J0.0000
G03 X0.0200 Y-0.7500 I0.7171 J0.2221
G01 X2.8000
G03 X3.5500 Y0.0200 I-0.0002 J0.7504
G01 Y2.2500
G01 X3.3303 Y2.4697
G01 X3.5500 Y2.2500
G01 X5.8000
G03 X6.5500 Y3.0200 I-0.0002 J0.7504
G01 Y27.0000
G03 X5.7800 Y27.7500 I-0.7504 J-0.0002
G01 X3.5500
G01 X3.3303 Y27.5303
G01 X3.5500 Y27.7500
G01 Y29.2500
G01 X3.3303 Y29.4697
G01 X3.5500 Y29.2500
G01 X5.8000
G03 X6.5500 Y30.0200 I-0.0002 J0.7504
G01 Y47.7673
G00 Z0.0000
G01 Y50.7673
G01 Z-2.0000 F600
G01 Y120.0000 F1200
G03 X5.7800 Y120.7500 I-0.7504 J-0.0002
G01 X3.5500
G01 X3.3303 Y120.5303
G01 X3.5500 Y120.7500
G01 Y122.2500
G01 X3.3303 Y122.4697
G01 X3.5500 Y122.2500
G01 X5.8000
G03 X6.5500 Y123.0200 I-0.0002 J0.7504
G01 Y131.5100
G00 Z0.0000
G01 Y134.5100
G01 Z-2.0000 F600
G01 Y143.0000 F1200
G03 X5.7800 Y143.7500 I-0.7504 J-0.0002
G01 X3.5500
G01 X3.3303 Y143.5303
G01 X3.5500 Y143.7500
G01 Y145.2400
G01 X3.3268 Y145.4662
G01 X3.5500 Y145.2400
G01 X3.5600 Y145.2500
G01 X5.8000
G03 X6.5500 Y146.0200 I-0.0002 J0.7504
G01 Y200.0000
G03 X6.3162 Y200.5445 I-0.7516 J-0.0003
G01 X5.3303 Y201.5303
G03 X4.7800 Y201.7500 I-0.5312 J-0.5317
G01 X3.5500
G01 X3.3303 Y201.5303
G01 X3.5500 Y201.7500
G01 Y212.2400
G01 X3.3268 Y212.4662
G01 X3.5500 Y212.2400
G01 X3.5600 Y212.2500
G01 X4.8000
G03 X5.3445 Y212.4838 I-0.0003 J0.7516
G01 X6.3303 Y213.4697
G03 X6.5500 Y214.0200 I-0.5317 J0.5312
G01 Y226.5100
G00 Z0.0000
G01 Y229.5100
G01 Z-2.0000 F600
G01 Y242.0000 F1200
G03 X5.7800 Y242.7500 I-0.7504 J-0.0002
G01 X3.5500
G01 X3.3303 Y242.5303
G01 X3.5500 Y242.7500
G01 Y245.0000
G03 X2.7800 Y245.7500 I-0.7504 J-0.0002
G01 X0.0000
G03 X-0.7481 Y245.0531 I0.0000 J-0.7500
G01 X-0.7500 Y244.9800
G01 Y174.4275
G00 Z0.0000
G01 Y171.4275
G01 Z-2.0000 F600
G01 Y97.1978 F1200
G00 Z0.0000
G01 Y94.1978
G01 Z-2.0000 F600
G01 Y16.7659 F1200
G00 Z0.0000
G01 Y13.7659
G00 Z-1.5000
G01 Z-4.0000 F600
G01 Y0.0000 F1200
G03 X-0.7165 Y-0.2216 I0.7500 J0.0000
G03 X0.0200 Y-0.7500 I0.7171 J0.2221
G01 X2.8000
G03 X3.5500 Y0.0200 I-0.0002 J0.7504
G01 Y2.2500
G01 X3.3303 Y2.4697
G01 X3.5500 Y2.2500
G01 X5.8000
G03 X6.5500 Y3.0200 I-0.0002 J0.7504
G01 Y27.0000
G03 X5.7800 Y27.7500 I-0.7504 J-0.0002
G01 X3.5500
G01 X3.3303 Y27.5303
G01 X3.5500 Y27.7500
G01 Y29.2500
G01 X3.3303 Y29.4697
G01 X3.5500 Y29.2500
G01 X5.8000
G03 X6.5500 Y30.0200 I-0.0002 J0.7504
G01 Y47.7673
G00 Z0.0000
G01 Y50.7673
G00 Z-1.5000
G01 Z-4.0000 F600
G01 Y120.0000 F1200
G03 X5.7800 Y120.7500 I-0.7504 J-0.0002
G01 X3.5500
G01 X3.3303 Y120.5303
G01 X3.5500 Y120.7500
G01 Y122.2500
G01 X3.3303 Y122.4697
G01 X3.5500 Y122.2500
G01 X5.8000
G03 X6.5500 Y123.0200 I-0.0002 J0.7504
G01 Y131.5100
G00 Z0.0000
G01 Y134.5100
G00 Z-1.5000
G01 Z-4.0000 F600
G01 Y143.0000 F1200
G03 X5.7800 Y143.7500 I-0.7504 J-0.0002
G01 X3.5500
G01 X3.3303 Y143.5303
G01 X3.5500 Y143.7500
G01 Y145.2400
G01 X3.3268 Y145.4662
G01 X3.5500 Y145.2400
G01 X3.5600 Y145.2500
G01 X5.8000
G03 X6.5500 Y146.0200 I-0.0002 J0.7504
G01 Y200.0000
G03 X6.3162 Y200.5445 I-0.7516 J-0.0003
G01 X5.3303 Y201.5303
G03 X4.7800 Y201.7500 I-0.5312 J-0.5317
G01 X3.5500
G01 X3.3303 Y201.5303
G01 X3.5500 Y201.7500
G01 Y212.2400
G01 X3.3268 Y212.4662
G01 X3.5500 Y212.2400
G01 X3.5600 Y212.2500
G01 X4.8000
G03 X5.3445 Y212.4838 I-0.0003 J0.7516
G01 X6.3303 Y213.4697
G03 X6.5500 Y214.0200 I-0.5317 J0.5312
G01 Y226.5100
G00 Z0.0000
G01 Y229.5100
G00 Z-1.5000
G01 Z-4.0000 F600
G01 Y242.0000 F1200
G03 X5.7800 Y242.7500 I-0.7504 J-0.0002
G01 X3.5500
G01 X3.3303 Y242.5303
G01 X3.5500 Y242.7500
G01 Y245.0000
G03 X2.7800 Y245.7500 I-0.7504 J-0.0002
G01 X0.0000
G03 X-0.7481 Y245.0531 I0.0000 J-0.7500
G01 X-0.7500 Y244.9800
G01 Y174.4275
G00 Z0.0000
G01 Y171.4275
G00 Z-1.5000
G01 Z-4.0000 F600
G01 Y97.1978 F1200
G00 Z0.0000
G01 Y94.1978
G00 Z-1.5000
G01 Z-4.0000 F600
G01 Y16.7659 F1200
G00 Z0.0000
G01 Y13.7659
G00 Z5.0000
G00 X0.0000 Y0.0000

M05
M30
