;FLAVOR:Marlin
;TIME:4276
;Filament used: 4.57268m
;Layer height: 0.2
;MINX:60.963
;MINY:54.986
;MINZ:0.3
;MAXX:167.191
;MAXY:154.06
;MAXZ:11.9
;Generated with Cura_SteamEngine 4.4.1
M140 S60
M105
M190 S60
M104 S200
M105
M109 S200
M82 ;absolute extrusion mode
G21 ;metric values
G90 ;absolute positioning
M82 ;set extruder to absolute mode
M107 ;start with the fan off
G28 X0 Y0 ;move X/Y to min endstops
G28 Z0 ;move Z to min endstops
M84 ;steppers off
M0 S12 ;wait 12 seconds
M17 ;turn steppers on
G1 Z10.0 F300 ;move the platform down 10mm
G92 E0 ;zero the extruded length
G1 F200 E8 ;extrude 8mm of feed stock
G92 E0 ;zero the extruded length again
M0 S5 ;wait 5 seconds
G1 F9000
M117 Printing...
G92 E0
G92 E0
G1 F1500 E-6.5
;LAYER_COUNT:59
;LAYER:0
M107
G0 F3600 X109.193 Y93.087 Z0.3
;TYPE:SKIRT
G1 F1500 E0
G1 F1800 X109.124 Y93.309 E0.0116
G1 X108.994 Y93.678 E0.03112
G1 X108.884 Y93.946 E0.04557
G1 X111.083 Y95.215 E0.17224
G1 X111.746 Y95.644 E0.21163
G1 X112.221 Y96.015 E0.2417
G1 X115.546 Y98.825 E0.45889
G1 X116.122 Y99.364 E0.49825
G1 X116.523 Y99.813 E0.52828
G1 X117.807 Y101.367 E0.62885
G1 X118.167 Y100.694 E0.66693
G1 X118.574 Y100.017 E0.70634
G1 X119.014 Y99.425 E0.74314
G1 X121.345 Y96.582 E0.92656
G1 X121.876 Y95.997 E0.96597
G1 X122.425 Y95.5 E1.00292
G1 X122.507 Y95.432 E1.00823
G1 X120.059 Y93.897 E1.15239
G1 X119.412 Y93.444 E1.19179
G1 X118.691 Y92.808 E1.23976
G1 X116.516 Y90.636 E1.39311
G1 X115.987 Y90.051 E1.43246
G1 X115.428 Y89.274 E1.48022
G1 X114.68 Y88.086 E1.55026
G1 X113.672 Y89.384 E1.63225
G1 X113.156 Y89.982 E1.67165
G1 X112.335 Y90.729 E1.72703
G1 X110.089 Y92.496 E1.8696
G1 X109.444 Y92.952 E1.90901
G1 X109.193 Y93.087 E1.92323
G0 F3600 X108.858 Y92.815
G1 F1800 X108.747 Y93.176 E1.94207
G1 X108.617 Y93.545 E1.96159
G1 X108.381 Y94.119 E1.99255
G1 X110.883 Y95.562 E2.13665
G1 X111.529 Y95.98 E2.17504
G1 X111.963 Y96.32 E2.20255
G1 X115.288 Y99.13 E2.41974
G1 X115.848 Y99.656 E2.45807
G1 X116.215 Y100.067 E2.48556
G1 X117.879 Y102.08 E2.61585
G1 X118.519 Y100.882 E2.68362
G1 X118.917 Y100.224 E2.72198
G1 X119.324 Y99.678 E2.75596
G1 X121.655 Y96.835 E2.93938
G1 X122.172 Y96.266 E2.97773
G1 X122.679 Y95.809 E3.01179
G1 X123.209 Y95.374 E3.04599
G1 X122.878 Y95.193 E3.06481
G1 X120.271 Y93.558 E3.21834
G1 X119.642 Y93.116 E3.2567
G1 X118.974 Y92.525 E3.30119
G1 X116.799 Y90.353 E3.45455
G1 X116.284 Y89.782 E3.49291
G1 X115.766 Y89.061 E3.5372
G1 X114.714 Y87.391 E3.63567
G1 X113.356 Y89.139 E3.7461
G1 X112.853 Y89.721 E3.78448
G1 X112.088 Y90.415 E3.83601
G1 X109.842 Y92.182 E3.97859
G1 X109.213 Y92.625 E4.01697
G1 X108.858 Y92.815 E4.03706
G0 F3600 X108.982 Y92.298
G1 F1800 X108.524 Y92.542 E4.06295
G1 X108.369 Y93.043 E4.08911
G1 X108.239 Y93.412 E4.10863
G1 X107.953 Y94.103 E4.14594
G1 X107.86 Y94.28 E4.15591
G1 X110.683 Y95.908 E4.3185
G1 X111.311 Y96.316 E4.35586
G1 X111.704 Y96.626 E4.38083
G1 X115.029 Y99.436 E4.59802
G1 X115.574 Y99.948 E4.63533
G1 X115.906 Y100.322 E4.66028
G1 X117.95 Y102.795 E4.82034
G1 X118.872 Y101.071 E4.91788
G1 X119.26 Y100.431 E4.95522
G1 X119.633 Y99.932 E4.9863
G1 X121.964 Y97.089 E5.16972
G1 X122.468 Y96.536 E5.20705
G1 X122.933 Y96.118 E5.23824
G1 X123.931 Y95.298 E5.30269
G1 X123.811 Y95.249 E5.30915
G1 X123.091 Y94.854 E5.35012
G1 X120.484 Y93.219 E5.50365
G1 X119.872 Y92.788 E5.541
G1 X119.257 Y92.242 E5.58202
G1 X117.082 Y90.07 E5.73538
G1 X116.581 Y89.514 E5.77272
G1 X116.105 Y88.847 E5.8136
G1 X114.749 Y86.693 E5.94058
G1 X113.04 Y88.893 E6.07957
G1 X112.55 Y89.459 E6.11692
G1 X111.84 Y90.101 E6.16467
G1 X109.594 Y91.868 E6.30725
G1 X108.982 Y92.298 E6.34456
G0 F3600 X108.752 Y91.97
G1 F1800 X108.184 Y92.272 E6.37666
G1 X108.143 Y92.424 E6.38451
G1 X107.992 Y92.91 E6.4099
G1 X107.862 Y93.279 E6.42942
G1 X107.583 Y93.95 E6.46567
G1 X107.36 Y94.374 E6.48957
G1 X107.326 Y94.433 E6.49297
G1 X110.484 Y96.255 E6.67487
G1 X111.092 Y96.652 E6.71109
G1 X111.446 Y96.931 E6.73358
G1 X114.771 Y99.741 E6.95077
G1 X115.299 Y100.24 E6.98702
G1 X115.598 Y100.577 E7.00949
G1 X118.022 Y103.51 E7.19933
G1 X119.225 Y101.259 E7.32666
G1 X119.602 Y100.638 E7.3629
G1 X119.942 Y100.185 E7.39116
G1 X122.273 Y97.342 E7.57458
G1 X122.764 Y96.807 E7.61081
G1 X123.187 Y96.427 E7.63918
G1 X124.705 Y95.18 E7.73719
G1 X124.635 Y95.155 E7.7409
G1 X123.964 Y94.879 E7.77709
G1 X123.303 Y94.515 E7.81474
G1 X120.696 Y92.88 E7.96827
G1 X120.103 Y92.461 E8.00449
G1 X119.539 Y91.959 E8.04216
G1 X117.364 Y89.787 E8.19551
G1 X116.879 Y89.246 E8.23176
G1 X116.443 Y88.634 E8.26925
G1 X114.803 Y86.03 E8.42278
G1 X114.767 Y85.964 E8.42653
G1 X114.485 Y86.381 E8.45165
G1 X112.724 Y88.648 E8.59486
G1 X112.248 Y89.196 E8.63108
G1 X111.593 Y89.786 E8.67506
G1 X109.347 Y91.553 E8.81763
G1 X108.752 Y91.97 E8.85388
G0 F3600 X108.522 Y91.642
G1 F1800 X107.841 Y92.003 E8.89234
G1 X107.756 Y92.32 E8.90871
G1 X107.615 Y92.777 E8.93257
G1 X107.485 Y93.146 E8.95209
G1 X107.213 Y93.796 E8.98724
G1 X107.013 Y94.175 E9.00862
G1 X106.78 Y94.58 E9.03193
G1 X110.284 Y96.601 E9.23374
G1 X110.873 Y96.987 E9.26887
G1 X111.188 Y97.237 E9.28894
G1 X114.513 Y100.047 E9.50613
G1 X115.024 Y100.531 E9.54124
G1 X115.29 Y100.832 E9.56128
G1 X118.059 Y104.182 E9.77812
G1 X118.093 Y104.228 E9.78097
G1 X119.578 Y101.448 E9.93821
G1 X119.944 Y100.847 E9.97332
G1 X120.252 Y100.439 E9.99882
G1 X122.583 Y97.596 E10.18224
G1 X123.059 Y97.078 E10.21734
G1 X123.441 Y96.737 E10.24289
G1 X125.51 Y95.037 E10.37648
G1 X124.767 Y94.778 E10.41574
G1 X124.117 Y94.508 E10.45085
G1 X123.516 Y94.176 E10.48511
G1 X120.909 Y92.541 E10.63864
G1 X120.335 Y92.134 E10.67374
G1 X119.822 Y91.676 E10.70805
G1 X117.647 Y89.504 E10.8614
G1 X117.178 Y88.979 E10.89652
G1 X116.782 Y88.421 E10.93066
G1 X115.142 Y85.817 E11.08419
G1 X114.801 Y85.201 E11.11932
G1 X114.782 Y85.155 E11.1218
G1 X114.618 Y85.475 E11.13974
G1 X114.169 Y86.135 E11.17957
G1 X112.408 Y88.402 E11.32278
G1 X111.946 Y88.933 E11.3579
G1 X111.346 Y89.472 E11.39814
G1 X109.1 Y91.239 E11.54071
G1 X108.522 Y91.642 E11.57586
G0 F3600 X108.293 Y91.313
G1 F1800 X107.635 Y91.66 E11.61298
G1 X107.503 Y91.719 E11.62019
G1 X107.37 Y92.217 E11.64591
G1 X107.237 Y92.644 E11.66822
G1 X107.107 Y93.013 E11.68774
G1 X106.844 Y93.641 E11.72171
G1 X106.666 Y93.976 E11.74063
G1 X106.233 Y94.73 E11.78401
G1 X106.32 Y94.777 E11.78894
G1 X110.084 Y96.948 E12.00573
G1 X110.653 Y97.322 E12.0397
G1 X110.93 Y97.542 E12.05735
G1 X114.255 Y100.352 E12.27454
G1 X114.748 Y100.821 E12.30848
G1 X114.982 Y101.087 E12.32616
G1 X117.751 Y104.437 E12.54299
G1 X118.149 Y104.981 E12.57662
G1 X118.199 Y104.877 E12.58238
G1 X119.931 Y101.636 E12.76571
G1 X120.286 Y101.056 E12.79964
G1 X120.561 Y100.693 E12.82236
G1 X122.892 Y97.85 E13.00578
G1 X123.354 Y97.349 E13.03978
G1 X123.695 Y97.046 E13.06254
G1 X126.314 Y94.894 E13.23165
G1 X124.899 Y94.4 E13.30643
G1 X124.27 Y94.138 E13.34042
G1 X123.728 Y93.838 E13.37133
G1 X121.121 Y92.203 E13.52485
G1 X120.567 Y91.808 E13.5588
G1 X120.105 Y91.393 E13.58978
G1 X117.93 Y89.221 E13.74313
G1 X117.477 Y88.712 E13.77713
G1 X117.12 Y88.208 E13.80794
G1 X115.48 Y85.604 E13.96147
G1 X115.152 Y85.007 E13.99546
G1 X114.957 Y84.535 E14.02094
G1 X114.598 Y84.631 E14.03948
G1 X114.574 Y84.686 E14.04247
G1 X114.261 Y85.291 E14.07645
G1 X113.853 Y85.89 E14.11261
G1 X112.092 Y88.157 E14.25583
G1 X111.644 Y88.669 E14.28977
G1 X111.098 Y89.157 E14.3263
G1 X108.852 Y90.924 E14.46888
G1 X108.293 Y91.313 E14.50285
G0 F3600 X108.065 Y90.984
G1 F1800 X107.472 Y91.295 E14.53626
G1 X107.165 Y91.432 E14.55303
G1 X106.983 Y92.113 E14.5882
G1 X106.86 Y92.511 E14.60898
G1 X106.73 Y92.88 E14.6285
G1 X106.475 Y93.486 E14.6613
G1 X106.319 Y93.776 E14.67773
G1 X105.718 Y94.822 E14.73792
G1 X105.66 Y94.911 E14.74322
G1 X106.12 Y95.123 E14.76849
G1 X109.884 Y97.294 E14.98527
G1 X110.672 Y97.848 E15.03333
G1 X113.997 Y100.658 E15.25052
G1 X114.673 Y101.342 E15.2985
G1 X117.442 Y104.692 E15.51533
G1 X117.987 Y105.485 E15.56334
G1 X118.208 Y105.878 E15.58583
G1 X118.373 Y105.431 E15.6096
G1 X118.551 Y105.066 E15.62986
G1 X120.283 Y101.825 E15.8132
G1 X120.628 Y101.265 E15.84601
G1 X120.87 Y100.946 E15.86599
G1 X123.201 Y98.103 E16.04941
G1 X123.648 Y97.621 E16.0822
G1 X123.949 Y97.355 E16.10224
G1 X126.791 Y95.02 E16.28575
G1 X127.148 Y94.761 E16.30775
G1 X125.031 Y94.022 E16.41962
G1 X124.425 Y93.769 E16.45238
G1 X123.941 Y93.499 E16.48003
G1 X121.334 Y91.864 E16.63356
G1 X120.8 Y91.481 E16.66635
G1 X120.387 Y91.11 E16.69404
G1 X118.212 Y88.938 E16.8474
G1 X117.776 Y88.446 E16.88019
G1 X117.459 Y87.995 E16.9077
G1 X115.819 Y85.391 E17.06123
G1 X115.503 Y84.815 E17.09401
G1 X115.293 Y84.301 E17.12171
G1 X115.206 Y84.054 E17.13477
G1 X114.31 Y84.294 E17.18105
G1 X114.208 Y84.524 E17.1936
G1 X113.906 Y85.107 E17.22636
G1 X113.538 Y85.645 E17.25888
G1 X111.777 Y87.912 E17.40209
G1 X111.343 Y88.405 E17.43486
G1 X110.851 Y88.843 E17.46773
G1 X108.605 Y90.61 E17.6103
G1 X108.065 Y90.984 E17.64307
G0 F3600 X107.837 Y90.654
G1 F1800 X107.309 Y90.93 E17.67279
G1 X106.829 Y91.145 E17.69903
G1 X106.597 Y92.01 E17.74371
G1 X106.483 Y92.378 E17.76294
G1 X106.353 Y92.747 E17.78245
G1 X105.972 Y93.577 E17.82802
G1 X105.371 Y94.623 E17.8882
G1 X105.069 Y95.079 E17.91549
G1 X105.099 Y95.09 E17.91708
G1 X105.92 Y95.47 E17.96222
G1 X109.684 Y97.641 E18.179
G1 X110.413 Y98.153 E18.22345
G1 X113.738 Y100.963 E18.44064
G1 X114.365 Y101.596 E18.48509
G1 X117.134 Y104.946 E18.70192
G1 X117.638 Y105.681 E18.74638
G1 X118.311 Y106.879 E18.81494
G1 X118.528 Y106.163 E18.85226
G1 X118.749 Y105.571 E18.88379
G1 X118.904 Y105.254 E18.90139
G1 X120.636 Y102.013 E19.08473
G1 X120.969 Y101.476 E19.11625
G1 X121.179 Y101.2 E19.13356
G1 X123.51 Y98.357 E19.31697
G1 X123.941 Y97.894 E19.34853
G1 X124.203 Y97.664 E19.36593
G1 X127.045 Y95.329 E19.54943
G1 X127.558 Y94.959 E19.58099
G1 X127.858 Y94.785 E19.59829
G1 X128.084 Y94.664 E19.61108
G1 X128.073 Y94.661 E19.61165
G1 X125.162 Y93.645 E19.76547
G1 X124.58 Y93.399 E19.79699
G1 X124.153 Y93.16 E19.82141
G1 X121.546 Y91.525 E19.97493
G1 X121.033 Y91.156 E20.00646
G1 X120.67 Y90.827 E20.0309
G1 X118.495 Y88.655 E20.18425
G1 X118.077 Y88.181 E20.21578
G1 X117.797 Y87.782 E20.2401
G1 X116.157 Y85.178 E20.39363
G1 X115.855 Y84.622 E20.4252
G1 X115.67 Y84.168 E20.44966
G1 X115.453 Y83.55 E20.48234
G1 X115.164 Y83.651 E20.49761
G1 X114.022 Y83.957 E20.55659
G1 X113.843 Y84.361 E20.57864
G1 X113.55 Y84.922 E20.61022
G1 X113.222 Y85.399 E20.6391
G1 X111.461 Y87.666 E20.78231
G1 X111.042 Y88.14 E20.81388
G1 X110.604 Y88.529 E20.8431
G1 X108.358 Y90.296 E20.98568
G1 X107.837 Y90.654 E21.01721
G0 F3600 X107.61 Y90.324
G1 F1800 X107.145 Y90.565 E21.04334
G1 X106.492 Y90.857 E21.07903
G1 X106.211 Y91.907 E21.13326
G1 X106.106 Y92.246 E21.15096
G1 X105.976 Y92.615 E21.17048
G1 X105.626 Y93.378 E21.21236
G1 X105.025 Y94.424 E21.27255
G1 X104.688 Y94.928 E21.3028
G1 X104.394 Y95.264 E21.32507
G1 X104.964 Y95.467 E21.35526
G1 X105.72 Y95.816 E21.3968
G1 X109.484 Y97.987 E21.61358
G1 X110.155 Y98.459 E21.65451
G1 X113.48 Y101.269 E21.8717
G1 X114.057 Y101.851 E21.91259
G1 X116.826 Y105.201 E22.12942
G1 X117.29 Y105.878 E22.17037
G1 X118.423 Y107.893 E22.2857
G1 X118.911 Y106.279 E22.36983
G1 X119.257 Y105.443 E22.41496
G1 X120.989 Y102.202 E22.5983
G1 X121.489 Y101.453 E22.64323
G1 X123.82 Y98.61 E22.82665
G1 X124.457 Y97.973 E22.87159
G1 X127.299 Y95.638 E23.0551
G1 X128.046 Y95.137 E23.09997
G1 X129.213 Y94.512 E23.16602
G1 X129.208 Y94.511 E23.16627
G1 X128.612 Y94.404 E23.19648
G1 X128.205 Y94.283 E23.21766
G1 X125.294 Y93.267 E23.37149
G1 X124.736 Y93.03 E23.40173
G1 X124.366 Y92.821 E23.42293
G1 X121.759 Y91.186 E23.57646
G1 X121.268 Y90.831 E23.60669
G1 X120.953 Y90.544 E23.62795
G1 X118.778 Y88.372 E23.7813
G1 X118.378 Y87.916 E23.81156
G1 X118.136 Y87.568 E23.83271
G1 X116.496 Y84.964 E23.98624
G1 X116.207 Y84.431 E24.01649
G1 X116.047 Y84.036 E24.03775
G1 X115.698 Y83.04 E24.0904
G1 X115.671 Y83.054 E24.09192
G1 X115.06 Y83.265 E24.12417
G1 X113.734 Y83.621 E24.19267
G1 X113.477 Y84.199 E24.22423
G1 X113.195 Y84.736 E24.25449
G1 X112.906 Y85.154 E24.27984
G1 X111.145 Y87.421 E24.42306
G1 X110.742 Y87.874 E24.45331
G1 X110.356 Y88.214 E24.47897
G1 X108.11 Y89.981 E24.62154
G1 X107.61 Y90.324 E24.65179
G0 F3600 X107.384 Y89.993
G1 F1800 X106.982 Y90.2 E24.67435
G1 X106.154 Y90.571 E24.71962
G1 X105.824 Y91.803 E24.78325
G1 X105.728 Y92.113 E24.79944
G1 X105.598 Y92.482 E24.81896
G1 X105.279 Y93.178 E24.85716
G1 X104.678 Y94.224 E24.91734
G1 X104.355 Y94.706 E24.94629
G1 X103.969 Y95.138 E24.97519
G1 X103.638 Y95.42 E24.99689
G1 X104.83 Y95.844 E25.06
G1 X105.52 Y96.163 E25.09793
G1 X109.284 Y98.334 E25.31471
G1 X109.897 Y98.764 E25.35207
G1 X113.222 Y101.574 E25.56926
G1 X113.748 Y102.106 E25.60658
G1 X116.517 Y105.456 E25.82342
G1 X116.941 Y106.074 E25.86081
G1 X118.534 Y108.907 E26.02296
G1 X119.294 Y106.395 E26.1539
G1 X119.61 Y105.631 E26.19514
G1 X121.342 Y102.39 E26.37848
G1 X121.798 Y101.707 E26.41945
G1 X124.129 Y98.864 E26.60287
G1 X124.711 Y98.282 E26.64393
G1 X127.553 Y95.947 E26.82744
G1 X128.235 Y95.49 E26.8684
G1 X130.535 Y94.258 E26.99857
G1 X129.253 Y94.114 E27.06293
G1 X128.683 Y94.01 E27.09184
G1 X128.337 Y93.905 E27.10988
G1 X125.426 Y92.889 E27.2637
G1 X124.894 Y92.661 E27.29258
G1 X124.578 Y92.482 E27.31069
G1 X121.971 Y90.847 E27.46422
G1 X121.503 Y90.506 E27.49311
G1 X121.235 Y90.261 E27.51123
G1 X119.06 Y88.089 E27.66458
G1 X118.679 Y87.652 E27.6935
G1 X118.474 Y87.355 E27.71151
G1 X116.834 Y84.751 E27.86504
G1 X116.56 Y84.241 E27.89392
G1 X116.425 Y83.903 E27.91208
G1 X115.925 Y82.478 E27.98742
G1 X115.49 Y82.696 E28.0117
G1 X114.957 Y82.878 E28.0398
G1 X113.446 Y83.284 E28.11786
G1 X113.111 Y84.037 E28.15897
G1 X112.84 Y84.549 E28.18787
G1 X112.59 Y84.909 E28.20974
G1 X110.829 Y87.176 E28.35296
G1 X110.443 Y87.607 E28.38182
G1 X110.109 Y87.9 E28.40399
G1 X107.863 Y89.667 E28.54656
G1 X107.384 Y89.993 E28.57547
G0 F3600 X107.159 Y89.661
G1 F1800 X106.818 Y89.834 E28.59455
G1 X105.818 Y90.282 E28.64921
G1 X105.438 Y91.7 E28.72245
G1 X105.351 Y91.98 E28.73708
G1 X105.221 Y92.349 E28.7566
G1 X104.932 Y92.979 E28.79118
G1 X104.331 Y94.025 E28.85137
G1 X104.022 Y94.482 E28.87889
G1 X103.651 Y94.889 E28.90636
G1 X103.225 Y95.238 E28.93384
G1 X102.966 Y95.405 E28.94921
G1 X102.754 Y95.53 E28.96149
G1 X104.696 Y96.221 E29.06433
G1 X105.321 Y96.509 E29.09866
G1 X109.085 Y98.68 E29.31545
G1 X109.639 Y99.07 E29.34925
G1 X112.964 Y101.88 E29.56644
G1 X113.44 Y102.361 E29.6002
G1 X116.209 Y105.711 E29.81703
G1 X116.592 Y106.27 E29.85084
G1 X118.645 Y109.922 E30.05986
G1 X119.677 Y106.511 E30.23765
G1 X119.963 Y105.82 E30.27496
G1 X121.695 Y102.579 E30.45829
G1 X122.107 Y101.961 E30.49535
G1 X124.438 Y99.118 E30.67877
G1 X124.965 Y98.591 E30.71595
G1 X127.807 Y96.256 E30.89946
G1 X128.424 Y95.843 E30.9365
G1 X131.662 Y94.108 E31.11977
G1 X131.903 Y94.008 E31.13279
G1 X129.298 Y93.716 E31.26357
G1 X128.756 Y93.615 E31.29107
G1 X128.469 Y93.528 E31.30604
G1 X125.558 Y92.512 E31.45986
G1 X125.052 Y92.293 E31.48737
G1 X124.791 Y92.143 E31.50238
G1 X122.184 Y90.508 E31.65591
G1 X121.74 Y90.182 E31.68339
G1 X121.518 Y89.978 E31.69843
G1 X119.343 Y87.806 E31.85178
G1 X118.982 Y87.389 E31.8793
G1 X118.813 Y87.142 E31.89423
G1 X117.173 Y84.538 E32.04777
G1 X116.914 Y84.052 E32.07524
G1 X116.802 Y83.771 E32.09033
G1 X116.143 Y81.892 E32.18967
G1 X115.804 Y82.092 E32.20931
G1 X115.311 Y82.337 E32.23678
G1 X114.853 Y82.492 E32.2609
G1 X113.158 Y82.947 E32.34846
G1 X112.746 Y83.874 E32.39907
G1 X112.486 Y84.36 E32.42657
G1 X112.274 Y84.663 E32.44501
G1 X110.513 Y86.93 E32.58823
G1 X110.144 Y87.34 E32.61575
G1 X109.862 Y87.586 E32.63442
G1 X107.616 Y89.353 E32.77699
G1 X107.159 Y89.661 E32.80449
G0 F3600 X106.935 Y89.328
G1 F1800 X106.655 Y89.469 E32.82013
G1 X105.48 Y89.995 E32.88436
G1 X105.051 Y91.596 E32.96705
G1 X104.974 Y91.847 E32.98015
G1 X104.844 Y92.216 E32.99966
G1 X104.585 Y92.78 E33.03063
G1 X103.984 Y93.826 E33.09081
G1 X103.691 Y94.256 E33.11677
G1 X103.335 Y94.637 E33.14279
G1 X102.763 Y95.061 E33.17831
G1 X101.815 Y95.62 E33.23322
G1 X104.562 Y96.598 E33.37869
