(Exported by FreeCAD)
(Post Processor: grbl_hshb_post)
(Output Time:2017-12-03 00:37:16.059000)
(begin preamble)
G17 G90
G21
(begin operation: T1: Schaftfraeser_D2)
(Path: T1: Schaftfraeser_D2)
(T1: Schaftfraeser_D2)
(begin toolchange)
; M6 T1.0
M3 S0.0000
(finish operation: T1: Schaftfraeser_D2)
(begin operation: Profile_Edges)
(Path: Profile_Edges)
(Profile_Edges)
(Compensated Tool Path. Diameter: 2.0)
G0 Z-5.0000
G0 X14.2767 Y-23.2894
G0 Z-3.0000
G1 X14.2767 Y-23.2894 Z2.0000 F100.00
G3 X13.0053 Y-23.8014 Z2.0000 I-0.5267 J-0.5267 F400.00
G3 X14.4946 Y-23.8366 Z2.0000 I0.7447 J-0.0146 F400.00
G3 X14.2767 Y-23.2894 Z2.0000 I-0.7446 J0.0205 F400.00
G1 X14.2767 Y-23.2894 Z3.7000 F100.00
G3 X13.0053 Y-23.8014 Z3.7000 I-0.5267 J-0.5267 F400.00
G3 X14.4946 Y-23.8366 Z3.7000 I0.7447 J-0.0146 F400.00
G3 X14.2767 Y-23.2894 Z3.7000 I-0.7446 J0.0205 F400.00
G0 Z-5.0000
(finish operation: Profile_Edges)
(begin operation: T1: Schaftfraeser_D2)
(Path: T1: Schaftfraeser_D2)
(T1: Schaftfraeser_D2)
(begin toolchange)
; M6 T1.0
M3 S0.0000
(finish operation: T1: Schaftfraeser_D2)
(begin operation: Profile_Edges001)
(Path: Profile_Edges001)
(Profile_Edges001)
(Compensated Tool Path. Diameter: 2.0)
G0 Z-5.0000
G0 X14.2764 Y24.3421
G0 Z-3.0000
G1 X14.2764 Y24.3421 Z2.0000 F100.00
G3 X13.0256 Y23.9876 Z2.0000 I-0.5264 J-0.5264 F400.00
G3 X14.4744 Y23.6438 Z2.0000 I0.7244 J-0.1719 F400.00
G3 X14.2764 Y24.3421 Z2.0000 I-0.7244 J0.1719 F400.00
G1 X14.2764 Y24.3421 Z3.7000 F100.00
G3 X13.0256 Y23.9876 Z3.7000 I-0.5264 J-0.5264 F400.00
G3 X14.4744 Y23.6438 Z3.7000 I0.7244 J-0.1719 F400.00
G3 X14.2764 Y24.3421 Z3.7000 I-0.7244 J0.1719 F400.00
G0 Z-5.0000
(finish operation: Profile_Edges001)
(begin operation: T1: Schaftfraeser_D2)
(Path: T1: Schaftfraeser_D2)
(T1: Schaftfraeser_D2)
(begin toolchange)
; M6 T1.0
M3 S0.0000
(finish operation: T1: Schaftfraeser_D2)
(begin operation: Profile_Edges002)
(Path: Profile_Edges002)
(Profile_Edges002)
(Compensated Tool Path. Diameter: 2.0)
G0 Z-5.0000
G0 X-26.9730 Y0.5264
G0 Z-3.0000
G1 X-26.9730 Y0.5264 Z2.0000 F100.00
G3 X-27.5603 Y0.7420 Z2.0000 I-0.5267 J-0.5267 F400.00
G1 X-27.7133 Y0.7133 Z2.0000 F400.00
G3 X-27.3242 Y-0.7241 Z2.0000 I0.2137 J-0.7135 F400.00
G3 X-26.9730 Y0.5264 Z2.0000 I-0.1755 J0.7238 F400.00
G1 X-26.9730 Y0.5264 Z3.7000 F100.00
G3 X-27.5603 Y0.7420 Z3.7000 I-0.5267 J-0.5267 F400.00
G1 X-27.7133 Y0.7133 Z3.7000 F400.00
G3 X-27.3242 Y-0.7241 Z3.7000 I0.2137 J-0.7135 F400.00
G3 X-26.9730 Y0.5264 Z3.7000 I-0.1755 J0.7238 F400.00
G0 Z-5.0000
(finish operation: Profile_Edges002)
(begin operation: T1: Schaftfraeser_D2)
(Path: T1: Schaftfraeser_D2)
(T1: Schaftfraeser_D2)
(begin toolchange)
; M6 T1.0
M3 S0.0000
(finish operation: T1: Schaftfraeser_D2)
(begin operation: TagDressup)
(Path: TagDressup)
G0 Z-5.0000
G0 X18.7415 Y18.7337 Z-5.0000
G0 X18.7415 Y18.7337 Z-3.0000
G1 X18.7415 Y18.7337 Z2.0000 F400.00
G3 X18.4283 Y19.0415 Z2.0000 I-18.6990 J-18.7183 F400.00
G3 X17.0761 Y19.1258 Z2.0000 I-0.7233 J-0.7149 F400.00
G2 X8.0252 Y24.3171 Z2.0000 I-3.3244 J4.6896 F400.00
G3 X7.4942 Y25.3933 Z2.0000 I-1.0127 J0.1694 F400.00
G3 X1.2342 Y26.4710 Z2.0000 I-7.2818 J-23.5786 F400.00
G3 X-25.7046 Y6.4387 Z2.0000 I-1.2347 J-26.4690 F400.00
G3 X-25.1015 Y5.2255 Z2.0000 I0.9808 J-0.2690 F400.00
G2 X-25.0718 Y-5.2085 Z2.0000 I-2.3991 J-5.2238 F400.00
G3 X-25.7383 Y-6.2065 Z2.0000 I0.3596 J-0.9617 F400.00
G3 X7.2747 Y-25.4808 Z2.0000 I25.7320 J6.1643 F400.00
G3 X8.0254 Y-24.3512 Z2.0000 I-0.2564 J0.9846 F400.00
G2 X17.0466 Y-19.1086 Z2.0000 I5.7235 J0.5342 F400.00
G3 X18.2442 Y-19.1868 Z2.0000 I0.6531 J0.7923 F400.00
G3 X18.7415 Y18.7337 Z2.0000 I-18.2016 J19.2023 F400.00
G1 X18.7415 Y18.7337 Z3.7000 F400.00
G3 X18.4283 Y19.0415 Z3.7000 I-18.6990 J-18.7183 F400.00
G3 X17.0761 Y19.1258 Z3.7000 I-0.7233 J-0.7149 F400.00
G2 X8.0252 Y24.3171 Z3.7000 I-3.3244 J4.6896 F400.00
G3 X7.4942 Y25.3933 Z3.7000 I-1.0127 J0.1694 F400.00
G3 X1.2342 Y26.4710 Z3.7000 I-7.2818 J-23.5786 F400.00
G3 X-25.7046 Y6.4387 Z3.7000 I-1.2347 J-26.4690 F400.00
G3 X-25.1015 Y5.2255 Z3.7000 I0.9808 J-0.2690 F400.00
G2 X-25.0718 Y-5.2085 Z3.7000 I-2.3991 J-5.2238 F400.00
G3 X-25.7383 Y-6.2065 Z3.7000 I0.3596 J-0.9617 F400.00
G3 X-23.9588 Y-11.2856 Z3.7000 I25.7320 J6.1643 F400.00
G1 X-23.2349 Y-12.7138 Z2.1000 F400.00
G3 X-21.7845 Y-15.0704 Z2.1000 I23.2285 J12.6716 F400.00
G1 X-20.8356 Y-16.3602 Z3.7000 F400.00
G3 X7.2747 Y-25.4808 Z3.7000 I20.8292 J16.3180 F400.00
G3 X8.0254 Y-24.3512 Z3.7000 I-0.2564 J0.9846 F400.00
G2 X17.0466 Y-19.1086 Z3.7000 I5.7235 J0.5342 F400.00
G3 X18.2442 Y-19.1868 Z3.7000 I0.6531 J0.7923 F400.00
G3 X24.8591 Y9.1895 Z3.7000 I-18.2016 J19.2023 F400.00
G1 X24.2585 Y10.6743 Z2.1000 F400.00
G3 X23.0126 Y13.1457 Z2.1000 I-24.2160 J-10.6589 F400.00
G1 X22.1760 Y14.5115 Z3.7000 F400.00
G3 X18.7415 Y18.7337 Z3.7000 I-22.1335 J-14.4961 F400.00
G0 X18.7415 Y18.7337 Z-5.0000
(finish operation: TagDressup)
(begin operation: T1: Schaftfraeser_D2)
(Path: T1: Schaftfraeser_D2)
(T1: Schaftfraeser_D2)
(begin toolchange)
; M6 T1.0
M3 S0.0000
(finish operation: T1: Schaftfraeser_D2)
(begin operation: TagDressup001)
(Path: TagDressup001)
G0 Z-5.0000
G0 X24.3788 Y24.4111 Z-5.0000
G0 X24.3788 Y24.4111 Z-3.0000
G1 X24.3788 Y24.4111 Z2.0000 F400.00
G2 X34.4540 Y1.7750 Z2.0000 I-24.3788 J-24.4111 F400.00
G2 X33.4568 Y0.7000 Z2.0000 I-0.9972 J-0.0750 F400.00
G1 X31.5000 Y0.7000 Z2.0000 F400.00
G1 X31.2071 Y0.9929 Z2.0000 F400.00
G1 X31.5000 Y0.7000 Z2.0000 F400.00
G1 X31.5000 Y-0.7000 Z2.0000 F400.00
G1 X31.2071 Y-0.9929 Z2.0000 F400.00
G1 X31.5000 Y-0.7000 Z2.0000 F400.00
G1 X33.4568 Y-0.7000 Z2.0000 F400.00
G2 X34.4540 Y-1.7750 Z2.0000 I-0.0000 J-1.0000 F400.00
G2 X-15.6898 Y-30.7256 Z2.0000 I-34.4540 J1.7750 F400.00
G2 X-16.1222 Y-29.3245 Z2.0000 I0.4336 J0.9011 F400.00
G1 X-15.1438 Y-27.6298 Z2.0000 F400.00
G1 X-14.7437 Y-27.5226 Z2.0000 F400.00
G1 X-15.1438 Y-27.6298 Z2.0000 F400.00
G1 X-16.3562 Y-26.9298 Z2.0000 F400.00
G1 X-16.4634 Y-26.5297 Z2.0000 F400.00
G1 X-16.3562 Y-26.9298 Z2.0000 F400.00
G1 X-17.3346 Y-28.6245 Z2.0000 F400.00
G2 X-18.7642 Y-28.9506 Z2.0000 I-0.8660 J0.5000 F400.00
G2 X-34.4889 Y0.8627 Z2.0000 I18.7642 J28.9506 F400.00
G2 X-18.7642 Y28.9506 Z2.0000 I34.4889 J-0.8627 F400.00
G2 X-17.3346 Y28.6245 Z2.0000 I0.5635 J-0.8261 F400.00
G1 X-16.3562 Y26.9298 Z2.0000 F400.00
G1 X-16.4634 Y26.5297 Z2.0000 F400.00
G1 X-16.3562 Y26.9298 Z2.0000 F400.00
G1 X-15.1438 Y27.6298 Z2.0000 F400.00
G1 X-14.7437 Y27.5226 Z2.0000 F400.00
G1 X-15.1438 Y27.6298 Z2.0000 F400.00
G1 X-16.1222 Y29.3245 Z2.0000 F400.00
G2 X-15.6898 Y30.7256 Z2.0000 I0.8660 J0.5000 F400.00
G2 X24.3788 Y24.4111 Z2.0000 I15.6898 J-30.7256 F400.00
G1 X24.3788 Y24.4111 Z3.7000 F400.00
G2 X34.4540 Y1.7750 Z3.7000 I-24.3788 J-24.4111 F400.00
G2 X33.4568 Y0.7000 Z3.7000 I-0.9972 J-0.0750 F400.00
G1 X31.5000 Y0.7000 Z3.7000 F400.00
G1 X31.2071 Y0.9929 Z3.7000 F400.00
G1 X31.5000 Y0.7000 Z3.7000 F400.00
G1 X31.5000 Y-0.7000 Z3.7000 F400.00
G1 X31.2071 Y-0.9929 Z3.7000 F400.00
G1 X31.5000 Y-0.7000 Z3.7000 F400.00
G1 X33.4568 Y-0.7000 Z3.7000 F400.00
G2 X34.4540 Y-1.7750 Z3.7000 I-0.0000 J-1.0000 F400.00
G2 X19.7671 Y-28.2753 Z3.7000 I-34.4540 J1.7750 F400.00
G1 X18.4343 Y-29.1617 Z2.1000 F400.00
G2 X16.0376 Y-30.5454 Z2.1000 I-18.4343 J29.1617 F400.00
G1 X14.6035 Y-31.2565 Z3.7000 F400.00
G2 X-15.6898 Y-30.7256 Z3.7000 I-14.6035 J31.2565 F400.00
G2 X-16.1222 Y-29.3245 Z3.7000 I0.4336 J0.9011 F400.00
G1 X-15.1438 Y-27.6298 Z3.7000 F400.00
G1 X-14.7437 Y-27.5226 Z3.7000 F400.00
G1 X-15.1438 Y-27.6298 Z3.7000 F400.00
G1 X-16.3562 Y-26.9298 Z3.7000 F400.00
G1 X-16.4634 Y-26.5297 Z3.7000 F400.00
G1 X-16.3562 Y-26.9298 Z3.7000 F400.00
G1 X-17.3346 Y-28.6245 Z3.7000 F400.00
G2 X-18.7642 Y-28.9506 Z3.7000 I-0.8660 J0.5000 F400.00
G2 X-34.2561 Y-4.0929 Z3.7000 I18.7642 J28.9506 F400.00
G1 X-34.4090 Y-2.4996 Z2.1000 F400.00
G2 X-34.4987 Y0.2664 Z2.1000 I34.4090 J2.4996 F400.00
G1 X-34.4889 Y0.8627 Z2.6961 F400.00
G1 X-34.4492 Y1.8664 Z3.7000 F400.00
G2 X-18.7642 Y28.9506 Z3.7000 I34.4492 J-1.8664 F400.00
G2 X-17.3346 Y28.6245 Z3.7000 I0.5635 J-0.8261 F400.00
G1 X-16.3562 Y26.9298 Z3.7000 F400.00
G1 X-16.4634 Y26.5297 Z3.7000 F400.00
G1 X-16.3562 Y26.9298 Z3.7000 F400.00
G1 X-15.1438 Y27.6298 Z3.7000 F400.00
G1 X-14.7437 Y27.5226 Z3.7000 F400.00
G1 X-15.1438 Y27.6298 Z3.7000 F400.00
G1 X-16.1222 Y29.3245 Z3.7000 F400.00
G2 X-15.6898 Y30.7256 Z3.7000 I0.8660 J0.5000 F400.00
G2 X14.1557 Y31.4618 Z3.7000 I15.6898 J-30.7256 F400.00
G1 X15.5998 Y30.7713 Z2.1000 F400.00
G2 X18.0160 Y29.4220 Z2.1000 I-15.5998 J-30.7713 F400.00
G1 X19.3614 Y28.5546 Z3.7000 F400.00
G2 X24.3788 Y24.4111 Z3.7000 I-19.3614 J-28.5546 F400.00
G0 X24.3788 Y24.4111 Z-5.0000
(finish operation: TagDressup001)
(begin postamble)
M5
G17 G90
; M2
