(Exported by FreeCAD)
(Post Processor: grbl_hshb_post)
(Output Time:2017-12-03 00:45:26.034000)
(begin preamble)
G17 G90
G21
(begin operation: T1: Schaftfraeser_D2)
(Path: T1: Schaftfraeser_D2)
(T1: Schaftfraeser_D2)
(begin toolchange)
; M6 T1.0
M3 S0.0000
(finish operation: T1: Schaftfraeser_D2)
(begin operation: Pocket_Shape)
(Path: Pocket_Shape)
(Pocket_Shape)
G0 Z-5.0000
G0 X6.7661 Y9.0495
G0 Z-3.0000
G1 X6.7661 Y9.0495 Z1.0000 F100.00
G1 X-5.2649 Y23.3874 Z1.0000 F400.00
G1 X-20.2028 Y10.8531 Z1.0000 F400.00
G1 X8.9155 Y-23.8488 Z1.0000 F400.00
G1 X23.8534 Y-11.3144 Z1.0000 F400.00
G1 X6.7661 Y9.0495 Z1.0000 F400.00
G1 X5.5404 Y8.0210 Z1.0000 F100.00
G1 X-5.4621 Y21.1333 Z1.0000 F400.00
G1 X-17.9486 Y10.6558 Z1.0000 F400.00
G1 X9.1127 Y-21.5946 Z1.0000 F400.00
G1 X21.5993 Y-11.1172 Z1.0000 F400.00
G1 X5.5404 Y8.0210 Z1.0000 F400.00
G1 X4.3147 Y6.9925 Z1.0000 F100.00
G1 X-5.6593 Y18.8791 Z1.0000 F400.00
G1 X-15.6945 Y10.4586 Z1.0000 F400.00
G1 X9.3099 Y-19.3405 Z1.0000 F400.00
G1 X19.3451 Y-10.9200 Z1.0000 F400.00
G1 X4.3147 Y6.9925 Z1.0000 F400.00
G1 X3.0891 Y5.9641 Z1.0000 F100.00
G1 X-5.8565 Y16.6250 Z1.0000 F400.00
G1 X-13.4404 Y10.2614 Z1.0000 F400.00
G1 X9.5072 Y-17.0864 Z1.0000 F400.00
G1 X17.0910 Y-10.7228 Z1.0000 F400.00
G1 X3.0891 Y5.9641 Z1.0000 F400.00
G1 X1.8634 Y4.9356 Z1.0000 F100.00
G1 X-6.0537 Y14.3709 Z1.0000 F400.00
G1 X-11.1862 Y10.0642 Z1.0000 F400.00
G1 X9.7044 Y-14.8322 Z1.0000 F400.00
G1 X14.8369 Y-10.5256 Z1.0000 F400.00
G1 X1.8634 Y4.9356 Z1.0000 F400.00
G1 X0.6377 Y3.9072 Z1.0000 F100.00
G1 X-6.2509 Y12.1168 Z1.0000 F400.00
G1 X-8.9321 Y9.8670 Z1.0000 F400.00
G1 X9.9016 Y-12.5781 Z1.0000 F400.00
G1 X12.5827 Y-10.3283 Z1.0000 F400.00
G1 X0.6377 Y3.9072 Z1.0000 F400.00
G1 X-0.5879 Y2.8787 Z1.0000 F100.00
G1 X-6.4482 Y9.8626 Z1.0000 F400.00
G1 X-6.6780 Y9.6698 Z1.0000 F400.00
G1 X10.0988 Y-10.3240 Z1.0000 F400.00
G1 X10.3286 Y-10.1311 Z1.0000 F400.00
G1 X-0.5879 Y2.8787 Z1.0000 F400.00
G0 Z-5.0000
(finish operation: Pocket_Shape)
(begin operation: T1: Schaftfraeser_D2)
(Path: T1: Schaftfraeser_D2)
(T1: Schaftfraeser_D2)
(begin toolchange)
; M6 T1.0
M3 S0.0000
(finish operation: T1: Schaftfraeser_D2)
(begin operation: DogboneDressup)
(Path: DogboneDressup)
(Profile_Faces)
(Compensated Tool Path. Diameter: 2.0)
G0 Z-5.0000
G0 X6.7661 Y9.0495
G0 Z-3.0000
G1 X6.7661 Y9.0495 Z1.0000 F100.00
G1 X-5.2649 Y23.3874 Z1.0000 F400.00
G1 X-5.2288 Y23.8000 Z1.0000
G1 X-5.2649 Y23.3874 Z1.0000
G1 X-20.2028 Y10.8531 Z1.0000
G1 X-20.2028 Y10.8531 Z1.0000
G1 X-20.6154 Y10.8892 Z1.0000
G1 X-20.2028 Y10.8531 Z1.0000
G1 X8.9155 Y-23.8488 Z1.0000
G1 X8.9155 Y-23.8488 Z1.0000
G1 X8.8794 Y-24.2614 Z1.0000
G1 X8.9155 Y-23.8488 Z1.0000
G1 X23.8534 Y-11.3144 Z1.0000
G1 X23.8534 Y-11.3144 Z1.0000
G1 X24.2660 Y-11.3505 Z1.0000
G1 X23.8534 Y-11.3144 Z1.0000
G1 X6.7661 Y9.0495 Z1.0000
G1 X6.7661 Y9.0495 Z1.0000
G0 Z-5.0000
(finish operation: DogboneDressup)
(begin operation: T1: Schaftfraeser_D2)
(Path: T1: Schaftfraeser_D2)
(T1: Schaftfraeser_D2)
(begin toolchange)
; M6 T1.0
M3 S0.0000
(finish operation: T1: Schaftfraeser_D2)
(begin operation: DogboneDressup001)
(Path: DogboneDressup001)
(Profile_Faces001)
(Compensated Tool Path. Diameter: 2.0)
G0 Z-5.0000
G0 X20.5214 Y14.4367
G0 Z-3.0000
G1 X20.5214 Y14.4367 Z2.0000 F100.00
G1 X17.8655 Y17.6018 Z2.0000 F400.00
G1 X17.9016 Y18.0144 Z2.0000
G1 X17.8655 Y17.6018 Z2.0000
G1 X15.5674 Y15.6734 Z2.0000
G1 X15.5674 Y15.6734 Z2.0000
G1 X15.1548 Y15.7095 Z2.0000
G1 X15.5674 Y15.6734 Z2.0000
G1 X21.9953 Y8.0130 Z2.0000
G1 X21.9953 Y8.0130 Z2.0000
G1 X21.9592 Y7.6003 Z2.0000
G1 X21.9953 Y8.0130 Z2.0000
G1 X24.2934 Y9.9413 Z2.0000
G1 X24.2934 Y9.9413 Z2.0000
G1 X24.7060 Y9.9052 Z2.0000
G1 X24.2934 Y9.9413 Z2.0000
G1 X20.5214 Y14.4367 Z2.0000
G1 X20.5214 Y14.4367 Z3.7000 F100.00
G1 X17.8655 Y17.6018 Z3.7000 F400.00
G1 X17.9016 Y18.0144 Z3.7000
G1 X17.8655 Y17.6018 Z3.7000
G1 X15.5674 Y15.6734 Z3.7000
G1 X15.5674 Y15.6734 Z3.7000
G1 X15.1548 Y15.7095 Z3.7000
G1 X15.5674 Y15.6734 Z3.7000
G1 X21.9953 Y8.0130 Z3.7000
G1 X21.9953 Y8.0130 Z3.7000
G1 X21.9592 Y7.6003 Z3.7000
G1 X21.9953 Y8.0130 Z3.7000
G1 X24.2934 Y9.9413 Z3.7000
G1 X24.2934 Y9.9413 Z3.7000
G1 X24.7060 Y9.9052 Z3.7000
G1 X24.2934 Y9.9413 Z3.7000
G1 X20.5214 Y14.4367 Z3.7000
G0 Z-5.0000
(finish operation: DogboneDressup001)
(begin operation: T1: Schaftfraeser_D2)
(Path: T1: Schaftfraeser_D2)
(T1: Schaftfraeser_D2)
(begin toolchange)
; M6 T1.0
M3 S0.0000
(finish operation: T1: Schaftfraeser_D2)
(begin operation: TagDressup)
(Path: TagDressup)
G0 Z-5.0000
G0 X24.3788 Y24.4111 Z-5.0000
G0 X24.3788 Y24.4111 Z-3.0000
G1 X24.3788 Y24.4111 Z2.0000 F400.00
G2 X34.4540 Y1.7750 Z2.0000 I-24.3788 J-24.4111 F400.00
G2 X33.4568 Y0.7000 Z2.0000 I-0.9972 J-0.0750 F400.00
G1 X31.5000 Y0.7000 Z2.0000 F400.00
G1 X31.2071 Y0.9929 Z2.0000 F400.00
G1 X31.5000 Y0.7000 Z2.0000 F400.00
G1 X31.5000 Y-0.7000 Z2.0000 F400.00
G1 X31.2071 Y-0.9929 Z2.0000 F400.00
G1 X31.5000 Y-0.7000 Z2.0000 F400.00
G1 X33.4568 Y-0.7000 Z2.0000 F400.00
G2 X34.4540 Y-1.7750 Z2.0000 I-0.0000 J-1.0000 F400.00
G2 X-15.6898 Y-30.7256 Z2.0000 I-34.4540 J1.7750 F400.00
G2 X-16.1222 Y-29.3245 Z2.0000 I0.4336 J0.9011 F400.00
G1 X-15.1438 Y-27.6298 Z2.0000 F400.00
G1 X-14.7437 Y-27.5226 Z2.0000 F400.00
G1 X-15.1438 Y-27.6298 Z2.0000 F400.00
G1 X-16.3562 Y-26.9298 Z2.0000 F400.00
G1 X-16.4634 Y-26.5297 Z2.0000 F400.00
G1 X-16.3562 Y-26.9298 Z2.0000 F400.00
G1 X-17.3346 Y-28.6245 Z2.0000 F400.00
G2 X-18.7642 Y-28.9506 Z2.0000 I-0.8660 J0.5000 F400.00
G2 X-34.4889 Y0.8627 Z2.0000 I18.7642 J28.9506 F400.00
G2 X-18.7642 Y28.9506 Z2.0000 I34.4889 J-0.8627 F400.00
G2 X-17.3346 Y28.6245 Z2.0000 I0.5635 J-0.8261 F400.00
G1 X-16.3562 Y26.9298 Z2.0000 F400.00
G1 X-16.4634 Y26.5297 Z2.0000 F400.00
G1 X-16.3562 Y26.9298 Z2.0000 F400.00
G1 X-15.1438 Y27.6298 Z2.0000 F400.00
G1 X-14.7437 Y27.5226 Z2.0000 F400.00
G1 X-15.1438 Y27.6298 Z2.0000 F400.00
G1 X-16.1222 Y29.3245 Z2.0000 F400.00
G2 X-15.6898 Y30.7256 Z2.0000 I0.8660 J0.5000 F400.00
G2 X24.3788 Y24.4111 Z2.0000 I15.6898 J-30.7256 F400.00
G1 X24.3788 Y24.4111 Z3.7000 F400.00
G2 X34.4540 Y1.7750 Z3.7000 I-24.3788 J-24.4111 F400.00
G2 X33.4568 Y0.7000 Z3.7000 I-0.9972 J-0.0750 F400.00
G1 X31.5000 Y0.7000 Z3.7000 F400.00
G1 X31.2071 Y0.9929 Z3.7000 F400.00
G1 X31.5000 Y0.7000 Z3.7000 F400.00
G1 X31.5000 Y-0.7000 Z3.7000 F400.00
G1 X31.2071 Y-0.9929 Z3.7000 F400.00
G1 X31.5000 Y-0.7000 Z3.7000 F400.00
G1 X33.4568 Y-0.7000 Z3.7000 F400.00
G2 X34.4540 Y-1.7750 Z3.7000 I-0.0000 J-1.0000 F400.00
G2 X19.7671 Y-28.2753 Z3.7000 I-34.4540 J1.7750 F400.00
G1 X18.4343 Y-29.1617 Z2.1000 F400.00
G2 X16.0376 Y-30.5454 Z2.1000 I-18.4343 J29.1617 F400.00
G1 X14.6035 Y-31.2565 Z3.7000 F400.00
G2 X-15.6898 Y-30.7256 Z3.7000 I-14.6035 J31.2565 F400.00
G2 X-16.1222 Y-29.3245 Z3.7000 I0.4336 J0.9011 F400.00
G1 X-15.1438 Y-27.6298 Z3.7000 F400.00
G1 X-14.7437 Y-27.5226 Z3.7000 F400.00
G1 X-15.1438 Y-27.6298 Z3.7000 F400.00
G1 X-16.3562 Y-26.9298 Z3.7000 F400.00
G1 X-16.4634 Y-26.5297 Z3.7000 F400.00
G1 X-16.3562 Y-26.9298 Z3.7000 F400.00
G1 X-17.3346 Y-28.6245 Z3.7000 F400.00
G2 X-18.7642 Y-28.9506 Z3.7000 I-0.8660 J0.5000 F400.00
G2 X-34.4176 Y-2.3783 Z3.7000 I18.7642 J28.9506 F400.00
G1 X-34.4909 Y-0.7792 Z2.1000 F400.00
G2 X-34.4889 Y0.8627 Z2.1000 I34.4909 J0.7792 F400.00
G2 X-34.4424 Y1.9879 Z2.1000 I34.4889 J-0.8627 F400.00
G1 X-34.3131 Y3.5834 Z3.7000 F400.00
G2 X-18.7642 Y28.9506 Z3.7000 I34.3131 J-3.5834 F400.00
G2 X-17.3346 Y28.6245 Z3.7000 I0.5635 J-0.8261 F400.00
G1 X-16.3562 Y26.9298 Z3.7000 F400.00
G1 X-16.4634 Y26.5297 Z3.7000 F400.00
G1 X-16.3562 Y26.9298 Z3.7000 F400.00
G1 X-15.1438 Y27.6298 Z3.7000 F400.00
G1 X-14.7437 Y27.5226 Z3.7000 F400.00
G1 X-15.1438 Y27.6298 Z3.7000 F400.00
G1 X-16.1222 Y29.3245 Z3.7000 F400.00
G2 X-15.6898 Y30.7256 Z3.7000 I0.8660 J0.5000 F400.00
G2 X15.7128 Y30.7138 Z3.7000 I15.6898 J-30.7256 F400.00
G1 X17.1205 Y29.9519 Z2.1000 F400.00
G2 X19.4662 Y28.4833 Z2.1000 I-17.1205 J-29.9519 F400.00
G1 X20.7664 Y27.5497 Z3.7000 F400.00
G2 X24.3788 Y24.4111 Z3.7000 I-20.7664 J-27.5497 F400.00
G0 X24.3788 Y24.4111 Z-5.0000
(finish operation: TagDressup)
(begin postamble)
M5
G17 G90
; M2
