(Exported by FreeCAD)
(Post Processor: grbl_hshb_post)
(Output Time:2017-12-03 00:50:22.504000)
(begin preamble)
G17 G90
G21
(begin operation: T1: Schaftfraeser_D2)
(Path: T1: Schaftfraeser_D2)
(T1: Schaftfraeser_D2)
(begin toolchange)
; M6 T1.0
M3 S0.0000
(finish operation: T1: Schaftfraeser_D2)
(begin operation: Profile_Edges)
(Path: Profile_Edges)
(Profile_Edges)
(Compensated Tool Path. Diameter: 2.0)
G0 Z-5.0000
G0 X24.3421 Y-13.2236
G0 Z-3.0000
G1 X24.3421 Y-13.2236 Z2.0000 F100.00
G3 X23.0913 Y-13.5781 Z2.0000 I-0.5264 J-0.5264 F400.00
G3 X24.5401 Y-13.9219 Z2.0000 I0.7244 J-0.1719 F400.00
G3 X24.3421 Y-13.2236 Z2.0000 I-0.7244 J0.1719 F400.00
G1 X24.3421 Y-13.2236 Z3.7000 F100.00
G3 X23.0913 Y-13.5781 Z3.7000 I-0.5264 J-0.5264 F400.00
G3 X24.5401 Y-13.9219 Z3.7000 I0.7244 J-0.1719 F400.00
G3 X24.3421 Y-13.2236 Z3.7000 I-0.7244 J0.1719 F400.00
G0 Z-5.0000
(finish operation: Profile_Edges)
(begin operation: T1: Schaftfraeser_D2)
(Path: T1: Schaftfraeser_D2)
(T1: Schaftfraeser_D2)
(begin toolchange)
; M6 T1.0
M3 S0.0000
(finish operation: T1: Schaftfraeser_D2)
(begin operation: Profile_Edges001)
(Path: Profile_Edges001)
(Profile_Edges001)
(Compensated Tool Path. Diameter: 2.0)
G0 Z-5.0000
G0 X0.5263 Y28.0264
G0 Z-3.0000
G1 X0.5263 Y28.0264 Z2.0000 F100.00
G3 X-0.7422 Y27.5663 Z2.0000 I-0.5267 J-0.5267 F400.00
G1 X-0.7409 Y27.4202 Z2.0000 F400.00
G3 X0.7443 Y27.4824 Z2.0000 I0.7406 J0.0795 F400.00
G3 X0.5263 Y28.0264 Z2.0000 I-0.7446 J0.0173 F400.00
G1 X0.5263 Y28.0264 Z3.7000 F100.00
G3 X-0.7422 Y27.5663 Z3.7000 I-0.5267 J-0.5267 F400.00
G1 X-0.7409 Y27.4202 Z3.7000 F400.00
G3 X0.7443 Y27.4824 Z3.7000 I0.7406 J0.0795 F400.00
G3 X0.5263 Y28.0264 Z3.7000 I-0.7446 J0.0173 F400.00
G0 Z-5.0000
(finish operation: Profile_Edges001)
(begin operation: T1: Schaftfraeser_D2)
(Path: T1: Schaftfraeser_D2)
(T1: Schaftfraeser_D2)
(begin toolchange)
; M6 T1.0
M3 S0.0000
(finish operation: T1: Schaftfraeser_D2)
(begin operation: Profile_Edges002)
(Path: Profile_Edges002)
(Profile_Edges002)
(Compensated Tool Path. Diameter: 2.0)
G0 Z-5.0000
G0 X-23.2894 Y-13.2230
G0 Z-3.0000
G1 X-23.2894 Y-13.2230 Z2.0000 F100.00
G3 X-24.5602 Y-13.7812 Z2.0000 I-0.5267 J-0.5266 F400.00
G1 X-24.5398 Y-13.9258 Z2.0000 F400.00
G3 X-23.0840 Y-13.6124 Z2.0000 I0.7237 J0.1761 F400.00
G3 X-23.2894 Y-13.2230 Z2.0000 I-0.7321 J-0.1372 F400.00
G1 X-23.2894 Y-13.2230 Z3.7000 F100.00
G3 X-24.5602 Y-13.7812 Z3.7000 I-0.5267 J-0.5266 F400.00
G1 X-24.5398 Y-13.9258 Z3.7000 F400.00
G3 X-23.0840 Y-13.6124 Z3.7000 I0.7237 J0.1761 F400.00
G3 X-23.2894 Y-13.2230 Z3.7000 I-0.7321 J-0.1372 F400.00
G0 Z-5.0000
(finish operation: Profile_Edges002)
(begin operation: T1: Schaftfraeser_D2)
(Path: T1: Schaftfraeser_D2)
(T1: Schaftfraeser_D2)
(begin toolchange)
; M6 T1.0
M3 S0.0000
(finish operation: T1: Schaftfraeser_D2)
(begin operation: TagDressup)
(Path: TagDressup)
G0 Z-5.0000
G0 X24.3950 Y24.3950 Z-5.0000
G0 X24.3950 Y24.3950 Z-3.0000
G1 X24.3950 Y24.3950 Z2.0000 F400.00
G2 X34.4583 Y-1.6906 Z2.0000 I-24.3950 J-24.3950 F400.00
G2 X-34.4583 Y1.6906 Z2.0000 I-34.4583 J1.6906 F400.00
G2 X24.3950 Y24.3950 Z2.0000 I34.4583 J-1.6906 F400.00
G1 X24.3950 Y24.3950 Z3.7000 F400.00
G2 X27.2934 Y21.1022 Z3.7000 I-24.3950 J-24.3950 F400.00
G1 X28.2429 Y19.8134 Z2.1000 F400.00
G2 X29.7402 Y17.4858 Z2.1000 I-28.2429 J-19.8134 F400.00
G1 X30.5193 Y16.0874 Z3.7000 F400.00
G2 X34.4583 Y-1.6906 Z3.7000 I-30.5193 J-16.0874 F400.00
G2 X2.9004 Y-34.3776 Z3.7000 I-34.4583 J1.6906 F400.00
G1 X1.3024 Y-34.4751 Z2.1000 F400.00
G2 X-1.4654 Y-34.4686 Z2.1000 I-1.3024 J34.4751 F400.00
G1 X-3.0629 Y-34.3635 Z3.7000 F400.00
G2 X-34.4583 Y1.6906 Z3.7000 I3.0629 J34.3635 F400.00
G2 X-31.7081 Y13.5952 Z3.7000 I34.4583 J-1.6906 F400.00
G1 X-31.0432 Y15.0515 Z2.1000 F400.00
G2 X-29.7368 Y17.4916 Z2.1000 I31.0432 J-15.0515 F400.00
G1 X-28.8933 Y18.8523 Z3.7000 F400.00
G2 X24.3950 Y24.3950 Z3.7000 I28.8933 J-18.8523 F400.00
G0 X24.3950 Y24.3950 Z-5.0000
(finish operation: TagDressup)
(begin postamble)
M5
G17 G90
; M2
