(Exported by FreeCAD)
(Post Processor: grbl_hshb_post)
(Output Time:2017-12-03 00:53:30.358000)
(begin preamble)
G17 G90
G21
(begin operation: T1: Schaftfraeser_D2)
(Path: T1: Schaftfraeser_D2)
(T1: Schaftfraeser_D2)
(begin toolchange)
; M6 T1.0
M3 S0.0000
(finish operation: T1: Schaftfraeser_D2)
(begin operation: TagDressup)
(Path: TagDressup)
G0 Z-5.0000
G0 X18.7381 Y18.7381 Z-5.0000
G0 X18.7381 Y18.7381 Z-3.0000
G1 X18.7381 Y18.7381 Z2.0000 F400.00
G3 X1.4104 Y26.4621 Z2.0000 I-18.7381 J-18.7381 F400.00
G3 X-1.4104 Y-26.4621 Z2.0000 I-1.4104 J-26.4621 F400.00
G3 X18.7381 Y18.7381 Z2.0000 I1.4104 J26.4621 F400.00
G1 X18.7381 Y18.7381 Z3.7000 F400.00
G3 X13.4419 Y22.8374 Z3.7000 I-18.7381 J-18.7381 F400.00
G1 X12.0381 Y23.6075 Z2.1000 F400.00
G3 X9.5107 Y24.7341 Z2.1000 I-12.0381 J-23.6075 F400.00
G1 X7.9996 Y25.2634 Z3.7000 F400.00
G3 X1.4104 Y26.4621 Z3.7000 I-7.9996 J-25.2634 F400.00
G3 X-12.9103 Y-23.1420 Z3.7000 I-1.4104 J-26.4621 F400.00
G1 X-11.4890 Y-23.8796 Z2.1000 F400.00
G3 X-8.9362 Y-24.9475 Z2.1000 I11.4890 J23.8796 F400.00
G1 X-7.4131 Y-25.4416 Z3.7000 F400.00
G3 X-1.4104 Y-26.4621 Z3.7000 I7.4131 J25.4416 F400.00
G3 X18.7381 Y18.7381 Z3.7000 I1.4104 J26.4621 F400.00
G0 X18.7381 Y18.7381 Z-5.0000
(finish operation: TagDressup)
(begin operation: T1: Schaftfraeser_D2)
(Path: T1: Schaftfraeser_D2)
(T1: Schaftfraeser_D2)
(begin toolchange)
; M6 T1.0
M3 S0.0000
(finish operation: T1: Schaftfraeser_D2)
(begin operation: TagDressup001)
(Path: TagDressup001)
G0 Z-5.0000
G0 X24.3950 Y24.3950 Z-5.0000
G0 X24.3950 Y24.3950 Z-3.0000
G1 X24.3950 Y24.3950 Z2.0000 F400.00
G2 X28.9506 Y18.7642 Z2.0000 I-24.3950 J-24.3950 F400.00
G2 X28.6245 Y17.3346 Z2.0000 I-0.8261 J-0.5635 F400.00
G1 X26.9298 Y16.3562 Z2.0000 F400.00
G1 X26.5297 Y16.4634 Z2.0000 F400.00
G1 X26.9298 Y16.3562 Z2.0000 F400.00
G1 X27.6298 Y15.1438 Z2.0000 F400.00
G1 X27.5226 Y14.7437 Z2.0000 F400.00
G1 X27.6298 Y15.1438 Z2.0000 F400.00
G1 X29.3245 Y16.1222 Z2.0000 F400.00
G2 X30.7256 Y15.6898 Z2.0000 I0.5000 J-0.8660 F400.00
G2 X1.7750 Y-34.4540 Z2.0000 I-30.7256 J-15.6898 F400.00
G2 X0.7000 Y-33.4568 Z2.0000 I-0.0750 J0.9972 F400.00
G1 X0.7000 Y-31.5000 Z2.0000 F400.00
G1 X0.9929 Y-31.2071 Z2.0000 F400.00
G1 X0.7000 Y-31.5000 Z2.0000 F400.00
G1 X-0.7000 Y-31.5000 Z2.0000 F400.00
G1 X-0.9929 Y-31.2071 Z2.0000 F400.00
G1 X-0.7000 Y-31.5000 Z2.0000 F400.00
G1 X-0.7000 Y-33.4568 Z2.0000 F400.00
G2 X-1.7750 Y-34.4540 Z2.0000 I-1.0000 J0.0000 F400.00
G2 X-34.4773 Y1.2444 Z2.0000 I1.7750 J34.4540 F400.00
G2 X-30.7256 Y15.6898 Z2.0000 I34.4773 J-1.2444 F400.00
G2 X-29.3245 Y16.1222 Z2.0000 I0.9011 J-0.4336 F400.00
G1 X-27.6298 Y15.1438 Z2.0000 F400.00
G1 X-27.5226 Y14.7437 Z2.0000 F400.00
G1 X-27.6298 Y15.1438 Z2.0000 F400.00
G1 X-26.9298 Y16.3562 Z2.0000 F400.00
G1 X-26.5297 Y16.4634 Z2.0000 F400.00
G1 X-26.9298 Y16.3562 Z2.0000 F400.00
G1 X-28.6245 Y17.3346 Z2.0000 F400.00
G2 X-28.9506 Y18.7642 Z2.0000 I0.5000 J0.8660 F400.00
G2 X24.3950 Y24.3950 Z2.0000 I28.9506 J-18.7642 F400.00
G1 X24.3950 Y24.3950 Z3.7000 F400.00
G2 X28.9506 Y18.7642 Z3.7000 I-24.3950 J-24.3950 F400.00
G2 X28.6245 Y17.3346 Z3.7000 I-0.8261 J-0.5635 F400.00
G1 X26.9298 Y16.3562 Z3.7000 F400.00
G1 X26.5297 Y16.4634 Z3.7000 F400.00
G1 X26.9298 Y16.3562 Z3.7000 F400.00
G1 X27.6298 Y15.1438 Z3.7000 F400.00
G1 X27.5226 Y14.7437 Z3.7000 F400.00
G1 X27.6298 Y15.1438 Z3.7000 F400.00
G1 X29.3245 Y16.1222 Z3.7000 F400.00
G2 X30.7256 Y15.6898 Z3.7000 I0.5000 J-0.8660 F400.00
G2 X31.2565 Y-14.6035 Z3.7000 I-30.7256 J-15.6898 F400.00
G1 X30.5454 Y-16.0376 Z2.1000 F400.00
G2 X29.1617 Y-18.4343 Z2.1000 I-30.5454 J16.0376 F400.00
G1 X28.2753 Y-19.7671 Z3.7000 F400.00
G2 X1.7750 Y-34.4540 Z3.7000 I-28.2753 J19.7671 F400.00
G2 X0.7000 Y-33.4568 Z3.7000 I-0.0750 J0.9972 F400.00
G1 X0.7000 Y-31.5000 Z3.7000 F400.00
G1 X0.9929 Y-31.2071 Z3.7000 F400.00
G1 X0.7000 Y-31.5000 Z3.7000 F400.00
G1 X-0.7000 Y-31.5000 Z3.7000 F400.00
G1 X-0.9929 Y-31.2071 Z3.7000 F400.00
G1 X-0.7000 Y-31.5000 Z3.7000 F400.00
G1 X-0.7000 Y-33.4568 Z3.7000 F400.00
G2 X-1.7750 Y-34.4540 Z3.7000 I-1.0000 J0.0000 F400.00
G2 X-23.3302 Y-25.4151 Z3.7000 I1.7750 J34.4540 F400.00
G1 X-24.4840 Y-24.3056 Z2.1000 F400.00
G2 X-26.3534 Y-22.2650 Z2.1000 I24.4840 J24.3056 F400.00
G1 X-27.3578 Y-21.0186 Z3.7000 F400.00
G2 X-34.4773 Y1.2444 Z3.7000 I27.3578 J21.0186 F400.00
G2 X-30.7256 Y15.6898 Z3.7000 I34.4773 J-1.2444 F400.00
G2 X-29.3245 Y16.1222 Z3.7000 I0.9011 J-0.4336 F400.00
G1 X-27.6298 Y15.1438 Z3.7000 F400.00
G1 X-27.5226 Y14.7437 Z3.7000 F400.00
G1 X-27.6298 Y15.1438 Z3.7000 F400.00
G1 X-26.9298 Y16.3562 Z3.7000 F400.00
G1 X-26.5297 Y16.4634 Z3.7000 F400.00
G1 X-26.9298 Y16.3562 Z3.7000 F400.00
G1 X-28.6245 Y17.3346 Z3.7000 F400.00
G2 X-28.9506 Y18.7642 Z3.7000 I0.5000 J0.8660 F400.00
G2 X-6.5726 Y33.8678 Z3.7000 I28.9506 J-18.7642 F400.00
G1 X-4.9946 Y34.1363 Z2.1000 F400.00
G2 X-2.2424 Y34.4268 Z2.1000 I4.9946 J-34.1363 F400.00
G1 X-0.6431 Y34.4937 Z3.7000 F400.00
G2 X24.3950 Y24.3950 Z3.7000 I0.6431 J-34.4937 F400.00
G0 X24.3950 Y24.3950 Z-5.0000
(finish operation: TagDressup001)
(begin postamble)
M5
G17 G90
; M2
