(Exported by FreeCAD)
(Post Processor: grbl_hshb_post)
(Output Time:2017-12-03 00:05:48.575000)
(begin preamble)
G17 G90
G21
(begin operation: T1: Schaftfraeser_D2)
(Path: T1: Schaftfraeser_D2)
(T1: Schaftfraeser_D2)
(begin toolchange)
; M6 T1.0
M3 S0.0000
(finish operation: T1: Schaftfraeser_D2)
(begin operation: DogboneDressup)
(Path: DogboneDressup)
(Profile_Faces)
(Compensated Tool Path. Diameter: 2.0)
G0 Z-5.0000
G0 X22.0000 Y31.2500
G0 Z-3.0000
G1 X22.0000 Y31.2500 Z2.0000 F100.00
G1 X15.5000 Y31.2500 Z2.0000 F400.00
G1 X15.2071 Y31.5429 Z2.0000
G1 X15.5000 Y31.2500 Z2.0000
G1 X15.5000 Y13.2500 Z2.0000
G1 X15.5000 Y13.2500 Z2.0000
G1 X15.2071 Y12.9571 Z2.0000
G1 X15.5000 Y13.2500 Z2.0000
G1 X22.0000 Y13.2500 Z2.0000
G1 X22.0000 Y13.2500 Z2.0000
G1 X22.2929 Y12.9571 Z2.0000
G1 X22.0000 Y13.2500 Z2.0000
G1 X22.0000 Y31.2500 Z2.0000
G1 X22.0000 Y31.2500 Z2.0000
G1 X22.2929 Y31.5429 Z2.0000
G1 X22.0000 Y31.2500 Z2.0000
G1 X22.0000 Y31.2500 Z3.7000 F100.00
G1 X15.5000 Y31.2500 Z3.7000 F400.00
G1 X15.2071 Y31.5429 Z3.7000
G1 X15.5000 Y31.2500 Z3.7000
G1 X15.5000 Y13.2500 Z3.7000
G1 X15.5000 Y13.2500 Z3.7000
G1 X15.2071 Y12.9571 Z3.7000
G1 X15.5000 Y13.2500 Z3.7000
G1 X22.0000 Y13.2500 Z3.7000
G1 X22.0000 Y13.2500 Z3.7000
G1 X22.2929 Y12.9571 Z3.7000
G1 X22.0000 Y13.2500 Z3.7000
G1 X22.0000 Y31.2500 Z3.7000
G1 X22.0000 Y31.2500 Z3.7000
G1 X22.2929 Y31.5429 Z3.7000
G1 X22.0000 Y31.2500 Z3.7000
G0 Z-5.0000
(finish operation: DogboneDressup)
(begin operation: T1: Schaftfraeser_D2)
(Path: T1: Schaftfraeser_D2)
(T1: Schaftfraeser_D2)
(begin toolchange)
; M6 T1.0
M3 S0.0000
(finish operation: T1: Schaftfraeser_D2)
(begin operation: TagDressup)
(Path: TagDressup)
G0 Z-5.0000
G0 X26.2563 Y54.9666 Z-5.0000
G0 X26.2563 Y54.9666 Z-3.0000
G1 X26.2563 Y54.9666 Z2.0000 F400.00
G2 X27.0000 Y54.0000 Z2.0000 I-0.2563 J-0.9666 F400.00
G1 X27.0000 Y3.0000 Z2.0000 F400.00
G2 X26.0000 Y2.0000 Z2.0000 I-1.0000 J0.0000 F400.00
G1 X23.6000 Y2.0000 Z2.0000 F400.00
G1 X23.3071 Y2.2929 Z2.0000 F400.00
G1 X23.6000 Y2.0000 Z2.0000 F400.00
G1 X23.6000 Y0.0000 Z2.0000 F400.00
G2 X22.6000 Y-1.0000 Z2.0000 I-1.0000 J0.0000 F400.00
G1 X3.4000 Y-1.0000 Z2.0000 F400.00
G2 X2.4000 Y0.0000 Z2.0000 I0.0000 J1.0000 F400.00
G1 X2.4000 Y2.0000 Z2.0000 F400.00
G1 X2.6929 Y2.2929 Z2.0000 F400.00
G1 X2.4000 Y2.0000 Z2.0000 F400.00
G1 X0.0000 Y2.0000 Z2.0000 F400.00
G2 X-1.0000 Y3.0000 Z2.0000 I0.0000 J1.0000 F400.00
G1 X-1.0000 Y26.6000 Z2.0000 F400.00
G2 X0.0000 Y27.6000 Z2.0000 I1.0000 J-0.0000 F400.00
G1 X12.0000 Y27.6000 Z2.0000 F400.00
G1 X12.2929 Y27.3071 Z2.0000 F400.00
G1 X12.0000 Y27.6000 Z2.0000 F400.00
G1 X12.0000 Y29.0000 Z2.0000 F400.00
G2 X11.2302 Y29.0371 Z2.0000 I-0.2500 J2.8189 F400.00
G2 X10.5000 Y30.0000 Z2.0000 I0.2698 J0.9629 F400.00
G1 X10.5000 Y32.0000 Z2.0000 F400.00
G1 X10.7929 Y32.2929 Z2.0000 F400.00
G1 X10.5000 Y32.0000 Z2.0000 F400.00
G1 X4.0000 Y32.0000 Z2.0000 F400.00
G1 X3.7071 Y32.2929 Z2.0000 F400.00
G1 X4.0000 Y32.0000 Z2.0000 F400.00
G1 X4.0000 Y30.0000 Z2.0000 F400.00
G2 X3.0000 Y29.0000 Z2.0000 I-1.0000 J0.0000 F400.00
G1 X0.0000 Y29.0000 Z2.0000 F400.00
G2 X-1.0000 Y30.0000 Z2.0000 I0.0000 J1.0000 F400.00
G1 X-1.0000 Y54.0000 Z2.0000 F400.00
G2 X0.0000 Y55.0000 Z2.0000 I1.0000 J-0.0000 F400.00
G1 X2.4000 Y55.0000 Z2.0000 F400.00
G1 X2.6929 Y54.7071 Z2.0000 F400.00
G1 X2.4000 Y55.0000 Z2.0000 F400.00
G1 X2.4000 Y57.0000 Z2.0000 F400.00
G2 X3.4000 Y58.0000 Z2.0000 I1.0000 J-0.0000 F400.00
G1 X22.6000 Y58.0000 Z2.0000 F400.00
G2 X23.6000 Y57.0000 Z2.0000 I-0.0000 J-1.0000 F400.00
G1 X23.6000 Y55.0000 Z2.0000 F400.00
G1 X23.3071 Y54.7071 Z2.0000 F400.00
G1 X23.6000 Y55.0000 Z2.0000 F400.00
G1 X26.0000 Y55.0000 Z2.0000 F400.00
G2 X26.2563 Y54.9666 Z2.0000 I-0.0000 J-1.0000 F400.00
G1 X26.2563 Y54.9666 Z3.7000 F400.00
G2 X27.0000 Y54.0000 Z3.7000 I-0.2563 J-0.9666 F400.00
G1 X27.0000 Y31.4840 Z3.7000 F400.00
G1 X27.0000 Y29.8840 Z2.1000 F400.00
G1 X27.0000 Y27.1160 Z2.1000 F400.00
G1 X27.0000 Y25.5160 Z3.7000 F400.00
G1 X27.0000 Y3.0000 Z3.7000 F400.00
G2 X26.0000 Y2.0000 Z3.7000 I-1.0000 J0.0000 F400.00
G1 X23.6000 Y2.0000 Z3.7000 F400.00
G1 X23.3071 Y2.2929 Z3.7000 F400.00
G1 X23.6000 Y2.0000 Z3.7000 F400.00
G1 X23.6000 Y0.0000 Z3.7000 F400.00
G2 X22.6000 Y-1.0000 Z3.7000 I-1.0000 J0.0000 F400.00
G1 X3.4000 Y-1.0000 Z3.7000 F400.00
G2 X2.4000 Y0.0000 Z3.7000 I0.0000 J1.0000 F400.00
G1 X2.4000 Y2.0000 Z3.7000 F400.00
G1 X2.6929 Y2.2929 Z3.7000 F400.00
G1 X2.4000 Y2.0000 Z3.7000 F400.00
G1 X0.0000 Y2.0000 Z3.7000 F400.00
G2 X-1.0000 Y3.0000 Z3.7000 I0.0000 J1.0000 F400.00
G1 X-1.0000 Y11.8160 Z3.7000 F400.00
G1 X-1.0000 Y13.4160 Z2.1000 F400.00
G1 X-1.0000 Y16.1840 Z2.1000 F400.00
G1 X-1.0000 Y17.7840 Z3.7000 F400.00
G1 X-1.0000 Y26.6000 Z3.7000 F400.00
G2 X0.0000 Y27.6000 Z3.7000 I1.0000 J-0.0000 F400.00
G1 X12.0000 Y27.6000 Z3.7000 F400.00
G1 X12.2929 Y27.3071 Z3.7000 F400.00
G1 X12.0000 Y27.6000 Z3.7000 F400.00
G1 X12.0000 Y29.0000 Z3.7000 F400.00
G2 X11.2302 Y29.0371 Z3.7000 I-0.2500 J2.8189 F400.00
G2 X10.5000 Y30.0000 Z3.7000 I0.2698 J0.9629 F400.00
G1 X10.5000 Y32.0000 Z3.7000 F400.00
G1 X10.7929 Y32.2929 Z3.7000 F400.00
G1 X10.5000 Y32.0000 Z3.7000 F400.00
G1 X4.0000 Y32.0000 Z3.7000 F400.00
G1 X3.7071 Y32.2929 Z3.7000 F400.00
G1 X4.0000 Y32.0000 Z3.7000 F400.00
G1 X4.0000 Y30.0000 Z3.7000 F400.00
G2 X3.0000 Y29.0000 Z3.7000 I-1.0000 J0.0000 F400.00
G1 X0.0000 Y29.0000 Z3.7000 F400.00
G2 X-1.0000 Y30.0000 Z3.7000 I0.0000 J1.0000 F400.00
G1 X-1.0000 Y39.0160 Z3.7000 F400.00
G1 X-1.0000 Y40.6160 Z2.1000 F400.00
G1 X-1.0000 Y43.3840 Z2.1000 F400.00
G1 X-1.0000 Y44.9840 Z3.7000 F400.00
G1 X-1.0000 Y54.0000 Z3.7000 F400.00
G2 X0.0000 Y55.0000 Z3.7000 I1.0000 J-0.0000 F400.00
G1 X2.4000 Y55.0000 Z3.7000 F400.00
G1 X2.6929 Y54.7071 Z3.7000 F400.00
G1 X2.4000 Y55.0000 Z3.7000 F400.00
G1 X2.4000 Y57.0000 Z3.7000 F400.00
G2 X3.4000 Y58.0000 Z3.7000 I1.0000 J-0.0000 F400.00
G1 X22.6000 Y58.0000 Z3.7000 F400.00
G2 X23.6000 Y57.0000 Z3.7000 I-0.0000 J-1.0000 F400.00
G1 X23.6000 Y55.0000 Z3.7000 F400.00
G1 X23.3071 Y54.7071 Z3.7000 F400.00
G1 X23.6000 Y55.0000 Z3.7000 F400.00
G1 X26.0000 Y55.0000 Z3.7000 F400.00
G2 X26.2563 Y54.9666 Z3.7000 I-0.0000 J-1.0000 F400.00
G0 X26.2563 Y54.9666 Z-5.0000
(finish operation: TagDressup)
(begin postamble)
M5
G17 G90
; M2
