(Exported by FreeCAD)
(Post Processor: grbl_hshb_post)
(Output Time:2017-12-03 00:09:39.794000)
(begin preamble)
G17 G90
G21
(begin operation: T1: Schaftfraeser_D2)
(Path: T1: Schaftfraeser_D2)
(T1: Schaftfraeser_D2)
(begin toolchange)
; M6 T1.0
M3 S0.0000
(finish operation: T1: Schaftfraeser_D2)
(begin operation: DogboneDressup)
(Path: DogboneDressup)
(Profile_Faces)
(Compensated Tool Path. Diameter: 2.0)
G0 Z-5.0000
G0 X10.5000 Y35.7500
G0 Z-3.0000
G1 X10.5000 Y35.7500 Z2.0000 F100.00
G1 X4.0000 Y35.7500 Z2.0000 F400.00
G1 X3.7071 Y36.0429 Z2.0000
G1 X4.0000 Y35.7500 Z2.0000
G1 X4.0000 Y17.7500 Z2.0000
G1 X4.0000 Y17.7500 Z2.0000
G1 X3.7071 Y17.4571 Z2.0000
G1 X4.0000 Y17.7500 Z2.0000
G1 X10.5000 Y17.7500 Z2.0000
G1 X10.5000 Y17.7500 Z2.0000
G1 X10.7929 Y17.4571 Z2.0000
G1 X10.5000 Y17.7500 Z2.0000
G1 X10.5000 Y35.7500 Z2.0000
G1 X10.5000 Y35.7500 Z2.0000
G1 X10.7929 Y36.0429 Z2.0000
G1 X10.5000 Y35.7500 Z2.0000
G1 X10.5000 Y35.7500 Z3.7000 F100.00
G1 X4.0000 Y35.7500 Z3.7000 F400.00
G1 X3.7071 Y36.0429 Z3.7000
G1 X4.0000 Y35.7500 Z3.7000
G1 X4.0000 Y17.7500 Z3.7000
G1 X4.0000 Y17.7500 Z3.7000
G1 X3.7071 Y17.4571 Z3.7000
G1 X4.0000 Y17.7500 Z3.7000
G1 X10.5000 Y17.7500 Z3.7000
G1 X10.5000 Y17.7500 Z3.7000
G1 X10.7929 Y17.4571 Z3.7000
G1 X10.5000 Y17.7500 Z3.7000
G1 X10.5000 Y35.7500 Z3.7000
G1 X10.5000 Y35.7500 Z3.7000
G1 X10.7929 Y36.0429 Z3.7000
G1 X10.5000 Y35.7500 Z3.7000
G0 Z-5.0000
(finish operation: DogboneDressup)
(begin operation: T1: Schaftfraeser_D2)
(Path: T1: Schaftfraeser_D2)
(T1: Schaftfraeser_D2)
(begin toolchange)
; M6 T1.0
M3 S0.0000
(finish operation: T1: Schaftfraeser_D2)
(begin operation: TagDressup)
(Path: TagDressup)
G0 Z-5.0000
G0 X26.1432 Y40.1897 Z-5.0000
G0 X26.1432 Y40.1897 Z-3.0000
G1 X26.1432 Y40.1897 Z2.0000 F400.00
G2 X27.0000 Y39.2000 Z2.0000 I-0.1432 J-0.9897 F400.00
G1 X27.0000 Y3.0000 Z2.0000 F400.00
G2 X26.0000 Y2.0000 Z2.0000 I-1.0000 J0.0000 F400.00
G1 X23.6000 Y2.0000 Z2.0000 F400.00
G1 X23.3071 Y2.2929 Z2.0000 F400.00
G1 X23.6000 Y2.0000 Z2.0000 F400.00
G1 X23.6000 Y0.0000 Z2.0000 F400.00
G2 X22.6000 Y-1.0000 Z2.0000 I-1.0000 J0.0000 F400.00
G1 X3.4000 Y-1.0000 Z2.0000 F400.00
G2 X2.4000 Y0.0000 Z2.0000 I0.0000 J1.0000 F400.00
G1 X2.4000 Y2.0000 Z2.0000 F400.00
G1 X2.6929 Y2.2929 Z2.0000 F400.00
G1 X2.4000 Y2.0000 Z2.0000 F400.00
G1 X0.0000 Y2.0000 Z2.0000 F400.00
G2 X-1.0000 Y3.0000 Z2.0000 I0.0000 J1.0000 F400.00
G1 X-1.0000 Y45.6000 Z2.0000 F400.00
G2 X0.0000 Y46.6000 Z2.0000 I1.0000 J-0.0000 F400.00
G1 X13.0000 Y46.6000 Z2.0000 F400.00
G2 X14.0000 Y45.6000 Z2.0000 I-0.0000 J-1.0000 F400.00
G1 X14.0000 Y40.2000 Z2.0000 F400.00
G2 X14.7698 Y40.1629 Z2.0000 I0.2500 J-2.8189 F400.00
G2 X15.5000 Y39.2000 Z2.0000 I-0.2698 J-0.9629 F400.00
G1 X15.5000 Y20.2000 Z2.0000 F400.00
G1 X15.2071 Y19.9071 Z2.0000 F400.00
G1 X15.5000 Y20.2000 Z2.0000 F400.00
G1 X22.0000 Y20.2000 Z2.0000 F400.00
G1 X22.2929 Y19.9071 Z2.0000 F400.00
G1 X22.0000 Y20.2000 Z2.0000 F400.00
G1 X22.0000 Y39.2000 Z2.0000 F400.00
G2 X23.0000 Y40.2000 Z2.0000 I1.0000 J-0.0000 F400.00
G1 X26.0000 Y40.2000 Z2.0000 F400.00
G2 X26.1432 Y40.1897 Z2.0000 I-0.0000 J-1.0000 F400.00
G1 X26.1432 Y40.1897 Z3.7000 F400.00
G2 X27.0000 Y39.2000 Z3.7000 I-0.1432 J-0.9897 F400.00
G1 X27.0000 Y33.8843 Z3.7000 F400.00
G1 X27.0000 Y32.2843 Z2.1000 F400.00
G1 X27.0000 Y29.5163 Z2.1000 F400.00
G1 X27.0000 Y27.9163 Z3.7000 F400.00
G1 X27.0000 Y3.0000 Z3.7000 F400.00
G2 X26.0000 Y2.0000 Z3.7000 I-1.0000 J0.0000 F400.00
G1 X23.6000 Y2.0000 Z3.7000 F400.00
G1 X23.3071 Y2.2929 Z3.7000 F400.00
G1 X23.6000 Y2.0000 Z3.7000 F400.00
G1 X23.6000 Y0.0000 Z3.7000 F400.00
G2 X22.6000 Y-1.0000 Z3.7000 I-1.0000 J0.0000 F400.00
G1 X16.4806 Y-1.0000 Z3.7000 F400.00
G1 X14.8806 Y-1.0000 Z2.1000 F400.00
G1 X12.1126 Y-1.0000 Z2.1000 F400.00
G1 X10.5126 Y-1.0000 Z3.7000 F400.00
G1 X3.4000 Y-1.0000 Z3.7000 F400.00
G2 X2.4000 Y0.0000 Z3.7000 I0.0000 J1.0000 F400.00
G1 X2.4000 Y2.0000 Z3.7000 F400.00
G1 X2.6929 Y2.2929 Z3.7000 F400.00
G1 X2.4000 Y2.0000 Z3.7000 F400.00
G1 X0.0000 Y2.0000 Z3.7000 F400.00
G2 X-1.0000 Y3.0000 Z3.7000 I0.0000 J1.0000 F400.00
G1 X-1.0000 Y39.0276 Z3.7000 F400.00
G1 X-1.0000 Y40.6276 Z2.1000 F400.00
G1 X-1.0000 Y43.3956 Z2.1000 F400.00
G1 X-1.0000 Y44.9956 Z3.7000 F400.00
G1 X-1.0000 Y45.6000 Z3.7000 F400.00
G2 X0.0000 Y46.6000 Z3.7000 I1.0000 J-0.0000 F400.00
G1 X13.0000 Y46.6000 Z3.7000 F400.00
G2 X14.0000 Y45.6000 Z3.7000 I-0.0000 J-1.0000 F400.00
G1 X14.0000 Y40.2000 Z3.7000 F400.00
G2 X14.7698 Y40.1629 Z3.7000 I0.2500 J-2.8189 F400.00
G2 X15.5000 Y39.2000 Z3.7000 I-0.2698 J-0.9629 F400.00
G1 X15.5000 Y20.2000 Z3.7000 F400.00
G1 X15.2071 Y19.9071 Z3.7000 F400.00
G1 X15.5000 Y20.2000 Z3.7000 F400.00
G1 X22.0000 Y20.2000 Z3.7000 F400.00
G1 X22.2929 Y19.9071 Z3.7000 F400.00
G1 X22.0000 Y20.2000 Z3.7000 F400.00
G1 X22.0000 Y39.2000 Z3.7000 F400.00
G2 X23.0000 Y40.2000 Z3.7000 I1.0000 J-0.0000 F400.00
G1 X26.0000 Y40.2000 Z3.7000 F400.00
G2 X26.1432 Y40.1897 Z3.7000 I-0.0000 J-1.0000 F400.00
G0 X26.1432 Y40.1897 Z-5.0000
(finish operation: TagDressup)
(begin postamble)
M5
G17 G90
; M2
