(Exported by FreeCAD)
(Post Processor: grbl_hshb_post)
(Output Time:2017-12-03 00:56:47.295000)
(begin preamble)
G17 G90
G21
(begin operation: T1: Schaftfraeser_D2)
(Path: T1: Schaftfraeser_D2)
(T1: Schaftfraeser_D2)
(begin toolchange)
; M6 T1.0
M3 S0.0000
(finish operation: T1: Schaftfraeser_D2)
(begin operation: TagDressup)
(Path: TagDressup)
G0 Z-5.0000
G0 X18.7948 Y18.6833 Z-5.0000
G0 X18.7948 Y18.6833 Z-3.0000
G1 X18.7948 Y18.6833 Z2.0000 F400.00
G3 X3.1033 Y26.3165 Z2.0000 I-18.7719 J-18.6442 F400.00
G3 X1.9787 Y25.5438 Z2.0000 I-0.1393 J-1.0020 F400.00
G1 X1.2836 Y22.9498 Z2.0000 F400.00
G2 X0.0588 Y22.2427 Z2.0000 I-0.9659 J0.2588 F400.00
G1 X-2.8389 Y23.0191 Z2.0000 F400.00
G2 X-3.5461 Y24.2439 Z2.0000 I0.2588 J0.9659 F400.00
G1 X-3.0284 Y26.1757 Z2.0000 F400.00
G1 X-2.6697 Y26.3828 Z2.0000 F400.00
G1 X-3.0284 Y26.1757 Z2.0000 F400.00
G1 X-4.3807 Y26.5381 Z2.0000 F400.00
G1 X-4.5878 Y26.8968 Z2.0000 F400.00
G1 X-4.3807 Y26.5381 Z2.0000 F400.00
G1 X-4.8983 Y24.6062 Z2.0000 F400.00
G2 X-6.1231 Y23.8991 Z2.0000 I-0.9659 J0.2588 F400.00
G1 X-8.9960 Y24.6689 Z2.0000 F400.00
G3 X-9.5472 Y24.7024 Z2.0000 I-0.3408 J-1.0585 F400.00
G3 X-20.7531 Y-16.4773 Z2.0000 I9.5236 J-24.7061 F400.00
G3 X-20.1252 Y-16.8659 Z2.0000 I0.8403 J0.6561 F400.00
G1 X-17.2523 Y-17.6357 Z2.0000 F400.00
G2 X-16.5452 Y-18.8604 Z2.0000 I-0.2588 J-0.9659 F400.00
G1 X-17.0628 Y-20.7923 Z2.0000 F400.00
G1 X-17.4216 Y-20.9994 Z2.0000 F400.00
G1 X-17.0628 Y-20.7923 Z2.0000 F400.00
G1 X-15.7105 Y-21.1546 Z2.0000 F400.00
G1 X-15.5034 Y-21.5134 Z2.0000 F400.00
G1 X-15.7105 Y-21.1546 Z2.0000 F400.00
G1 X-15.1929 Y-19.2228 Z2.0000 F400.00
G2 X-13.9682 Y-18.5157 Z2.0000 I0.9659 J-0.2588 F400.00
G1 X-11.0704 Y-19.2921 Z2.0000 F400.00
G2 X-10.3633 Y-20.5169 Z2.0000 I-0.2588 J-0.9659 F400.00
G1 X-11.0584 Y-23.1109 Z2.0000 F400.00
G3 X-10.6544 Y-24.2429 Z2.0000 I0.9662 J-0.2933 F400.00
G3 X22.7684 Y-13.5567 Z2.0000 I10.6796 J24.2085 F400.00
G3 X22.5136 Y-12.2144 Z2.0000 I-0.8479 J0.5343 F400.00
G3 X22.0974 Y-12.0245 Z2.0000 I-1.5513 J-2.8485 F400.00
G2 X21.4310 Y-10.8153 Z2.0000 I0.2923 J0.9493 F400.00
G1 X22.2075 Y-7.9175 Z2.0000 F400.00
G2 X23.4322 Y-7.2104 Z2.0000 I0.9659 J-0.2588 F400.00
G1 X25.3641 Y-7.7280 Z2.0000 F400.00
G1 X25.5712 Y-8.0868 Z2.0000 F400.00
G1 X25.3641 Y-7.7280 Z2.0000 F400.00
G1 X25.7264 Y-6.3757 Z2.0000 F400.00
G1 X26.0852 Y-6.1686 Z2.0000 F400.00
G1 X25.7264 Y-6.3757 Z2.0000 F400.00
G1 X23.7946 Y-5.8581 Z2.0000 F400.00
G2 X23.0875 Y-4.6334 Z2.0000 I0.2588 J0.9659 F400.00
G1 X23.8639 Y-1.7356 Z2.0000 F400.00
G2 X25.0887 Y-1.0285 Z2.0000 I0.9659 J-0.2588 F400.00
G3 X26.4783 Y-0.2884 Z2.0000 I0.3912 J0.9401 F400.00
G3 X18.7948 Y18.6833 Z2.0000 I-26.4553 J0.3275 F400.00
G1 X18.7948 Y18.6833 Z3.7000 F400.00
G3 X3.1033 Y26.3165 Z3.7000 I-18.7719 J-18.6442 F400.00
G3 X1.9787 Y25.5438 Z3.7000 I-0.1393 J-1.0020 F400.00
G1 X1.2836 Y22.9498 Z3.7000 F400.00
G2 X0.0588 Y22.2427 Z3.7000 I-0.9659 J0.2588 F400.00
G1 X-2.8389 Y23.0191 Z3.7000 F400.00
G2 X-3.5461 Y24.2439 Z3.7000 I0.2588 J0.9659 F400.00
G1 X-3.0284 Y26.1757 Z3.7000 F400.00
G1 X-2.6697 Y26.3828 Z3.7000 F400.00
G1 X-3.0284 Y26.1757 Z3.7000 F400.00
G1 X-4.3807 Y26.5381 Z3.7000 F400.00
G1 X-4.5878 Y26.8968 Z3.7000 F400.00
G1 X-4.3807 Y26.5381 Z3.7000 F400.00
G1 X-4.8983 Y24.6062 Z3.7000 F400.00
G2 X-6.1231 Y23.8991 Z3.7000 I-0.9659 J0.2588 F400.00
G1 X-8.9960 Y24.6689 Z3.7000 F400.00
G3 X-9.5472 Y24.7024 Z3.7000 I-0.3408 J-1.0585 F400.00
G3 X-26.2116 Y-3.9124 Z3.7000 I9.5236 J-24.7061 F400.00
G1 X-25.9275 Y-5.4882 Z2.1000 F400.00
G3 X-25.2136 Y-8.1617 Z2.1000 I25.9039 J5.4845 F400.00
G1 X-24.6745 Y-9.6694 Z3.7000 F400.00
G3 X-20.7531 Y-16.4773 Z3.7000 I24.6509 J9.6656 F400.00
G3 X-20.1252 Y-16.8659 Z3.7000 I0.8403 J0.6561 F400.00
G1 X-17.2523 Y-17.6357 Z3.7000 F400.00
G2 X-16.5452 Y-18.8604 Z3.7000 I-0.2588 J-0.9659 F400.00
G1 X-17.0628 Y-20.7923 Z3.7000 F400.00
G1 X-17.4216 Y-20.9994 Z3.7000 F400.00
G1 X-17.0628 Y-20.7923 Z3.7000 F400.00
G1 X-15.7105 Y-21.1546 Z3.7000 F400.00
G1 X-15.5034 Y-21.5134 Z3.7000 F400.00
G1 X-15.7105 Y-21.1546 Z3.7000 F400.00
G1 X-15.1929 Y-19.2228 Z3.7000 F400.00
G2 X-13.9682 Y-18.5157 Z3.7000 I0.9659 J-0.2588 F400.00
G1 X-11.0704 Y-19.2921 Z3.7000 F400.00
G2 X-10.3633 Y-20.5169 Z3.7000 I-0.2588 J-0.9659 F400.00
G1 X-11.0584 Y-23.1109 Z3.7000 F400.00
G3 X-10.6544 Y-24.2429 Z3.7000 I0.9662 J-0.2933 F400.00
G3 X22.7684 Y-13.5567 Z3.7000 I10.6796 J24.2085 F400.00
G3 X22.5136 Y-12.2144 Z3.7000 I-0.8479 J0.5343 F400.00
G3 X22.0974 Y-12.0245 Z3.7000 I-1.5513 J-2.8485 F400.00
G2 X21.4310 Y-10.8153 Z3.7000 I0.2923 J0.9493 F400.00
G1 X22.2075 Y-7.9175 Z3.7000 F400.00
G2 X23.4322 Y-7.2104 Z3.7000 I0.9659 J-0.2588 F400.00
G1 X25.3641 Y-7.7280 Z3.7000 F400.00
G1 X25.5712 Y-8.0868 Z3.7000 F400.00
G1 X25.3641 Y-7.7280 Z3.7000 F400.00
G1 X25.7264 Y-6.3757 Z3.7000 F400.00
G1 X26.0852 Y-6.1686 Z3.7000 F400.00
G1 X25.7264 Y-6.3757 Z3.7000 F400.00
G1 X23.7946 Y-5.8581 Z3.7000 F400.00
G2 X23.0875 Y-4.6334 Z3.7000 I0.2588 J0.9659 F400.00
G1 X23.8639 Y-1.7356 Z3.7000 F400.00
G2 X25.0887 Y-1.0285 Z3.7000 I0.9659 J-0.2588 F400.00
G3 X26.4783 Y-0.2884 Z3.7000 I0.3912 J0.9401 F400.00
G3 X25.5079 Y7.1460 Z3.7000 I-26.4553 J0.3275 F400.00
G1 X25.0313 Y8.6747 Z2.1000 F400.00
G3 X23.9926 Y11.2394 Z2.1000 I-25.0083 J-8.6355 F400.00
G1 X23.2712 Y12.6688 Z3.7000 F400.00
G3 X18.7948 Y18.6833 Z3.7000 I-23.2482 J-12.6297 F400.00
G0 X18.7948 Y18.6833 Z-5.0000
(finish operation: TagDressup)
(begin operation: T1: Schaftfraeser_D2)
(Path: T1: Schaftfraeser_D2)
(T1: Schaftfraeser_D2)
(begin toolchange)
; M6 T1.0
M3 S0.0000
(finish operation: T1: Schaftfraeser_D2)
(begin operation: TagDressup001)
(Path: TagDressup001)
G0 Z-5.0000
G0 X24.3950 Y24.3950 Z-5.0000
G0 X24.3950 Y24.3950 Z-3.0000
G1 X24.3950 Y24.3950 Z2.0000 F400.00
G2 X28.9506 Y18.7642 Z2.0000 I-24.3950 J-24.3950 F400.00
G2 X28.6245 Y17.3346 Z2.0000 I-0.8261 J-0.5635 F400.00
G1 X26.9298 Y16.3562 Z2.0000 F400.00
G1 X26.5297 Y16.4634 Z2.0000 F400.00
G1 X26.9298 Y16.3562 Z2.0000 F400.00
G1 X27.6298 Y15.1438 Z2.0000 F400.00
G1 X27.5226 Y14.7437 Z2.0000 F400.00
G1 X27.6298 Y15.1438 Z2.0000 F400.00
G1 X29.3245 Y16.1222 Z2.0000 F400.00
G2 X30.7256 Y15.6898 Z2.0000 I0.5000 J-0.8660 F400.00
G2 X1.7750 Y-34.4540 Z2.0000 I-30.7256 J-15.6898 F400.00
G2 X0.7000 Y-33.4568 Z2.0000 I-0.0750 J0.9972 F400.00
G1 X0.7000 Y-31.5000 Z2.0000 F400.00
G1 X0.9929 Y-31.2071 Z2.0000 F400.00
G1 X0.7000 Y-31.5000 Z2.0000 F400.00
G1 X-0.7000 Y-31.5000 Z2.0000 F400.00
G1 X-0.9929 Y-31.2071 Z2.0000 F400.00
G1 X-0.7000 Y-31.5000 Z2.0000 F400.00
G1 X-0.7000 Y-33.4568 Z2.0000 F400.00
G2 X-1.7750 Y-34.4540 Z2.0000 I-1.0000 J0.0000 F400.00
G2 X-34.4773 Y1.2444 Z2.0000 I1.7750 J34.4540 F400.00
G2 X-30.7256 Y15.6898 Z2.0000 I34.4773 J-1.2444 F400.00
G2 X-29.3245 Y16.1222 Z2.0000 I0.9011 J-0.4336 F400.00
G1 X-27.6298 Y15.1438 Z2.0000 F400.00
G1 X-27.5226 Y14.7437 Z2.0000 F400.00
G1 X-27.6298 Y15.1438 Z2.0000 F400.00
G1 X-26.9298 Y16.3562 Z2.0000 F400.00
G1 X-26.5297 Y16.4634 Z2.0000 F400.00
G1 X-26.9298 Y16.3562 Z2.0000 F400.00
G1 X-28.6245 Y17.3346 Z2.0000 F400.00
G2 X-28.9506 Y18.7642 Z2.0000 I0.5000 J0.8660 F400.00
G2 X24.3950 Y24.3950 Z2.0000 I28.9506 J-18.7642 F400.00
G1 X24.3950 Y24.3950 Z3.7000 F400.00
G2 X28.9506 Y18.7642 Z3.7000 I-24.3950 J-24.3950 F400.00
G2 X28.6245 Y17.3346 Z3.7000 I-0.8261 J-0.5635 F400.00
G1 X26.9298 Y16.3562 Z3.7000 F400.00
G1 X26.5297 Y16.4634 Z3.7000 F400.00
G1 X26.9298 Y16.3562 Z3.7000 F400.00
G1 X27.6298 Y15.1438 Z3.7000 F400.00
G1 X27.5226 Y14.7437 Z3.7000 F400.00
G1 X27.6298 Y15.1438 Z3.7000 F400.00
G1 X29.3245 Y16.1222 Z3.7000 F400.00
G2 X30.7256 Y15.6898 Z3.7000 I0.5000 J-0.8660 F400.00
G2 X31.2565 Y-14.6035 Z3.7000 I-30.7256 J-15.6898 F400.00
G1 X30.5454 Y-16.0376 Z2.1000 F400.00
G2 X29.1617 Y-18.4343 Z2.1000 I-30.5454 J16.0376 F400.00
G1 X28.2753 Y-19.7671 Z3.7000 F400.00
G2 X1.7750 Y-34.4540 Z3.7000 I-28.2753 J19.7671 F400.00
G2 X0.7000 Y-33.4568 Z3.7000 I-0.0750 J0.9972 F400.00
G1 X0.7000 Y-31.5000 Z3.7000 F400.00
G1 X0.9929 Y-31.2071 Z3.7000 F400.00
G1 X0.7000 Y-31.5000 Z3.7000 F400.00
G1 X-0.7000 Y-31.5000 Z3.7000 F400.00
G1 X-0.9929 Y-31.2071 Z3.7000 F400.00
G1 X-0.7000 Y-31.5000 Z3.7000 F400.00
G1 X-0.7000 Y-33.4568 Z3.7000 F400.00
G2 X-1.7750 Y-34.4540 Z3.7000 I-1.0000 J0.0000 F400.00
G2 X-23.3302 Y-25.4151 Z3.7000 I1.7750 J34.4540 F400.00
G1 X-24.4840 Y-24.3056 Z2.1000 F400.00
G2 X-26.3534 Y-22.2650 Z2.1000 I24.4840 J24.3056 F400.00
G1 X-27.3578 Y-21.0186 Z3.7000 F400.00
G2 X-34.4773 Y1.2444 Z3.7000 I27.3578 J21.0186 F400.00
G2 X-30.7256 Y15.6898 Z3.7000 I34.4773 J-1.2444 F400.00
G2 X-29.3245 Y16.1222 Z3.7000 I0.9011 J-0.4336 F400.00
G1 X-27.6298 Y15.1438 Z3.7000 F400.00
G1 X-27.5226 Y14.7437 Z3.7000 F400.00
G1 X-27.6298 Y15.1438 Z3.7000 F400.00
G1 X-26.9298 Y16.3562 Z3.7000 F400.00
G1 X-26.5297 Y16.4634 Z3.7000 F400.00
G1 X-26.9298 Y16.3562 Z3.7000 F400.00
G1 X-28.6245 Y17.3346 Z3.7000 F400.00
G2 X-28.9506 Y18.7642 Z3.7000 I0.5000 J0.8660 F400.00
G2 X-6.5726 Y33.8678 Z3.7000 I28.9506 J-18.7642 F400.00
G1 X-4.9946 Y34.1363 Z2.1000 F400.00
G2 X-2.2424 Y34.4268 Z2.1000 I4.9946 J-34.1363 F400.00
G1 X-0.6431 Y34.4937 Z3.7000 F400.00
G2 X24.3950 Y24.3950 Z3.7000 I0.6431 J-34.4937 F400.00
G0 X24.3950 Y24.3950 Z-5.0000
(finish operation: TagDressup001)
(begin postamble)
M5
G17 G90
; M2
