(Exported by FreeCAD)
(Post Processor: grbl_hshb_post)
(Output Time:2017-12-03 00:06:25.653000)
(begin preamble)
G17 G90
G21
(begin operation: T1: Schaftfraeser_D2)
(Path: T1: Schaftfraeser_D2)
(T1: Schaftfraeser_D2)
(begin toolchange)
; M6 T1.0
M3 S0.0000
(finish operation: T1: Schaftfraeser_D2)
(begin operation: TagDressup)
(Path: TagDressup)
G0 Z-5.0000
G0 X3.9666 Y161.4563 Z-5.0000
G0 X3.9666 Y161.4563 Z-3.0000
G1 X3.9666 Y161.4563 Z2.0000 F400.00
G2 X4.0000 Y161.2000 Z2.0000 I-0.9666 J-0.2563 F400.00
G1 X4.0000 Y158.8000 Z2.0000 F400.00
G1 X3.7071 Y158.5071 Z2.0000 F400.00
G1 X4.0000 Y158.8000 Z2.0000 F400.00
G1 X6.0000 Y158.8000 Z2.0000 F400.00
G2 X7.0000 Y157.8000 Z2.0000 I-0.0000 J-1.0000 F400.00
G1 X7.0000 Y117.8000 Z2.0000 F400.00
G2 X6.0000 Y116.8000 Z2.0000 I-1.0000 J0.0000 F400.00
G1 X4.0000 Y116.8000 Z2.0000 F400.00
G1 X3.7071 Y117.0929 Z2.0000 F400.00
G1 X4.0000 Y116.8000 Z2.0000 F400.00
G1 X4.0000 Y115.4000 Z2.0000 F400.00
G1 X3.7071 Y115.1071 Z2.0000 F400.00
G1 X4.0000 Y115.4000 Z2.0000 F400.00
G1 X6.0000 Y115.4000 Z2.0000 F400.00
G2 X7.0000 Y114.4000 Z2.0000 I-0.0000 J-1.0000 F400.00
G1 X7.0000 Y104.4000 Z2.0000 F400.00
G2 X6.0000 Y103.4000 Z2.0000 I-1.0000 J0.0000 F400.00
G1 X4.0000 Y103.4000 Z2.0000 F400.00
G1 X3.7071 Y103.6929 Z2.0000 F400.00
G1 X4.0000 Y103.4000 Z2.0000 F400.00
G1 X4.0000 Y102.0000 Z2.0000 F400.00
G1 X3.7071 Y101.7071 Z2.0000 F400.00
G1 X4.0000 Y102.0000 Z2.0000 F400.00
G1 X6.0000 Y102.0000 Z2.0000 F400.00
G2 X7.0000 Y101.0000 Z2.0000 I-0.0000 J-1.0000 F400.00
G1 X7.0000 Y81.8000 Z2.0000 F400.00
G2 X6.0000 Y80.8000 Z2.0000 I-1.0000 J0.0000 F400.00
G1 X4.0000 Y80.8000 Z2.0000 F400.00
G1 X3.7071 Y81.0929 Z2.0000 F400.00
G1 X4.0000 Y80.8000 Z2.0000 F400.00
G1 X4.0000 Y79.4000 Z2.0000 F400.00
G1 X3.7071 Y79.1071 Z2.0000 F400.00
G1 X4.0000 Y79.4000 Z2.0000 F400.00
G1 X6.0000 Y79.4000 Z2.0000 F400.00
G2 X7.0000 Y78.4000 Z2.0000 I-0.0000 J-1.0000 F400.00
G1 X7.0000 Y53.4000 Z2.0000 F400.00
G2 X6.0000 Y52.4000 Z2.0000 I-1.0000 J0.0000 F400.00
G1 X4.0000 Y52.4000 Z2.0000 F400.00
G1 X3.7071 Y52.6929 Z2.0000 F400.00
G1 X4.0000 Y52.4000 Z2.0000 F400.00
G1 X4.0000 Y44.4000 Z2.0000 F400.00
G1 X3.7071 Y44.1071 Z2.0000 F400.00
G1 X4.0000 Y44.4000 Z2.0000 F400.00
G1 X6.0000 Y44.4000 Z2.0000 F400.00
G2 X7.0000 Y43.4000 Z2.0000 I-0.0000 J-1.0000 F400.00
G1 X7.0000 Y3.4000 Z2.0000 F400.00
G2 X6.0000 Y2.4000 Z2.0000 I-1.0000 J0.0000 F400.00
G1 X4.0000 Y2.4000 Z2.0000 F400.00
G1 X3.7071 Y2.6929 Z2.0000 F400.00
G1 X4.0000 Y2.4000 Z2.0000 F400.00
G1 X4.0000 Y0.0000 Z2.0000 F400.00
G2 X3.0000 Y-1.0000 Z2.0000 I-1.0000 J0.0000 F400.00
G1 X0.0000 Y-1.0000 Z2.0000 F400.00
G2 X-1.0000 Y0.0000 Z2.0000 I0.0000 J1.0000 F400.00
G1 X-1.0000 Y161.2000 Z2.0000 F400.00
G2 X0.0000 Y162.2000 Z2.0000 I1.0000 J-0.0000 F400.00
G1 X3.0000 Y162.2000 Z2.0000 F400.00
G2 X3.9666 Y161.4563 Z2.0000 I-0.0000 J-1.0000 F400.00
G1 X3.9666 Y161.4563 Z3.7000 F400.00
G2 X4.0000 Y161.2000 Z3.7000 I-0.9666 J-0.2563 F400.00
G1 X4.0000 Y158.8000 Z3.7000 F400.00
G1 X3.7071 Y158.5071 Z3.7000 F400.00
G1 X4.0000 Y158.8000 Z3.7000 F400.00
G1 X6.0000 Y158.8000 Z3.7000 F400.00
G2 X7.0000 Y157.8000 Z3.7000 I-0.0000 J-1.0000 F400.00
G1 X7.0000 Y141.3192 Z3.7000 F400.00
G1 X7.0000 Y139.7192 Z2.1000 F400.00
G1 X7.0000 Y136.9512 Z2.1000 F400.00
G1 X7.0000 Y135.3512 Z3.7000 F400.00
G1 X7.0000 Y117.8000 Z3.7000 F400.00
G2 X6.0000 Y116.8000 Z3.7000 I-1.0000 J0.0000 F400.00
G1 X4.0000 Y116.8000 Z3.7000 F400.00
G1 X3.7071 Y117.0929 Z3.7000 F400.00
G1 X4.0000 Y116.8000 Z3.7000 F400.00
G1 X4.0000 Y115.4000 Z3.7000 F400.00
G1 X3.7071 Y115.1071 Z3.7000 F400.00
G1 X4.0000 Y115.4000 Z3.7000 F400.00
G1 X6.0000 Y115.4000 Z3.7000 F400.00
G2 X7.0000 Y114.4000 Z3.7000 I-0.0000 J-1.0000 F400.00
G1 X7.0000 Y104.4000 Z3.7000 F400.00
G2 X6.0000 Y103.4000 Z3.7000 I-1.0000 J0.0000 F400.00
G1 X4.0000 Y103.4000 Z3.7000 F400.00
G1 X3.7071 Y103.6929 Z3.7000 F400.00
G1 X4.0000 Y103.4000 Z3.7000 F400.00
G1 X4.0000 Y102.0000 Z3.7000 F400.00
G1 X3.7071 Y101.7071 Z3.7000 F400.00
G1 X4.0000 Y102.0000 Z3.7000 F400.00
G1 X6.0000 Y102.0000 Z3.7000 F400.00
G2 X7.0000 Y101.0000 Z3.7000 I-0.0000 J-1.0000 F400.00
G1 X7.0000 Y81.8000 Z3.7000 F400.00
G2 X6.0000 Y80.8000 Z3.7000 I-1.0000 J0.0000 F400.00
G1 X4.0000 Y80.8000 Z3.7000 F400.00
G1 X3.7071 Y81.0929 Z3.7000 F400.00
G1 X4.0000 Y80.8000 Z3.7000 F400.00
G1 X4.0000 Y79.4000 Z3.7000 F400.00
G1 X3.7071 Y79.1071 Z3.7000 F400.00
G1 X4.0000 Y79.4000 Z3.7000 F400.00
G1 X6.0000 Y79.4000 Z3.7000 F400.00
G2 X7.0000 Y78.4000 Z3.7000 I-0.0000 J-1.0000 F400.00
G1 X7.0000 Y53.4000 Z3.7000 F400.00
G2 X6.0000 Y52.4000 Z3.7000 I-1.0000 J0.0000 F400.00
G1 X4.0000 Y52.4000 Z3.7000 F400.00
G1 X3.7071 Y52.6929 Z3.7000 F400.00
G1 X4.0000 Y52.4000 Z3.7000 F400.00
G1 X4.0000 Y44.4000 Z3.7000 F400.00
G1 X3.7071 Y44.1071 Z3.7000 F400.00
G1 X4.0000 Y44.4000 Z3.7000 F400.00
G1 X6.0000 Y44.4000 Z3.7000 F400.00
G2 X7.0000 Y43.4000 Z3.7000 I-0.0000 J-1.0000 F400.00
G1 X7.0000 Y26.3840 Z3.7000 F400.00
G1 X7.0000 Y24.7840 Z2.1000 F400.00
G1 X7.0000 Y22.0160 Z2.1000 F400.00
G1 X7.0000 Y20.4160 Z3.7000 F400.00
G1 X7.0000 Y3.4000 Z3.7000 F400.00
G2 X6.0000 Y2.4000 Z3.7000 I-1.0000 J0.0000 F400.00
G1 X4.0000 Y2.4000 Z3.7000 F400.00
G1 X3.7071 Y2.6929 Z3.7000 F400.00
G1 X4.0000 Y2.4000 Z3.7000 F400.00
G1 X4.0000 Y0.0000 Z3.7000 F400.00
G2 X3.0000 Y-1.0000 Z3.7000 I-1.0000 J0.0000 F400.00
G1 X0.0000 Y-1.0000 Z3.7000 F400.00
G2 X-1.0000 Y0.0000 Z3.7000 I0.0000 J1.0000 F400.00
G1 X-1.0000 Y74.5386 Z3.7000 F400.00
G1 X-1.0000 Y76.1386 Z2.1000 F400.00
G1 X-1.0000 Y78.9066 Z2.1000 F400.00
G1 X-1.0000 Y80.5066 Z3.7000 F400.00
G1 X-1.0000 Y161.2000 Z3.7000 F400.00
G2 X0.0000 Y162.2000 Z3.7000 I1.0000 J-0.0000 F400.00
G1 X3.0000 Y162.2000 Z3.7000 F400.00
G2 X3.9666 Y161.4563 Z3.7000 I-0.0000 J-1.0000 F400.00
G0 X3.9666 Y161.4563 Z-5.0000
(finish operation: TagDressup)
(begin postamble)
M5
G17 G90
; M2
